chms-raf/raf-v2/scripts/LFD/traj_mean.txt
time,joint_1,joint_2,joint_3,joint_4,joint_5,joint_6
0.0,3.3662356178517795e-05,0.2601138614939085,-2.2700506565185403,-3.254382852086595e-05,0.9599362684452013,1.570045368630716
0.001,5.8133024907605526e-05,0.2601194975650261,-2.270049865746118,-4.229403411418686e-05,0.9599372653529501,1.5700550068503856
0.002,8.260369363669324e-05,0.2601251336361437,-2.2700490749736955,-5.204423970750777e-05,0.9599382622606989,1.570064645070055
0.003,0.00010707436236578099,0.2601307697072613,-2.2700482842012732,-6.179444530082868e-05,0.9599392591684476,1.5700742832897245
0.004,0.0001315450310948687,0.2601364057783789,-2.2700474934288506,-7.154465089414959e-05,0.9599402560761964,1.570083921509394
0.005,0.00015601569982395645,0.26014204184949646,-2.2700467026564284,-8.12948564874705e-05,0.9599412529839452,1.5700935597290635
0.006,0.0001804863685530442,0.26014767792061405,-2.2700459118840057,-9.10450620807914e-05,0.959942249891694,1.570103197948733
0.007,0.00020495703728213189,0.26015331399173164,-2.2700451211115835,-0.00010079526767411233,0.9599432467994427,1.5701128361684025
0.008,0.00022942770601121963,0.2601589500628492,-2.270044330339161,-0.00011054547326743322,0.9599442437071914,1.570122474388072
0.009,0.0002538983747403073,0.2601645861339668,-2.2700435395667387,-0.00012029567886075412,0.9599452406149402,1.5701321126077414
0.01,0.00027836904346939507,0.2601702222050844,-2.270042748794316,-0.00013004588445407505,0.959946237522689,1.570141750827411
0.011,0.0003550177852923936,0.2601902260158575,-2.2700418567251988,-0.0001835313629199838,0.959947226212501,1.5701513546430743
0.012,0.0004375292319574048,0.2602118441794009,-2.270040953274431,-0.00024193091698955426,0.9599482139789494,1.5701609545931188
0.013,0.0005200406786224159,0.2602334623429443,-2.2700400498236624,-0.0003003304710591246,0.9599492017453977,1.5701705545431635
0.014,0.000602552125287427,0.2602550805064877,-2.270039146372894,-0.00035873002512869505,0.959950189511846,1.5701801544932081
0.015,0.0006850635719524381,0.2602766986700311,-2.270038242922126,-0.0004171295791982654,0.9599511772782943,1.5701897544432528
0.016,0.0007675750186174493,0.2602983168335745,-2.2700373394713576,-0.0004755291332678359,0.9599521650447426,1.5701993543932975
0.017,0.0008500864652824605,0.2603199349971179,-2.2700364360205896,-0.0005339286873374063,0.9599531528111909,1.5702089543433422
0.018,0.0009325979119474714,0.2603415531606613,-2.270035532569821,-0.0005923282414069765,0.9599541405776392,1.5702185542933869
0.019,0.0010151093586124825,0.2603631713242047,-2.2700346291190527,-0.000650727795476547,0.9599551283440875,1.5702281542434315
0.02,0.0010976208052774937,0.2603847894877481,-2.2700337256682848,-0.0007091273495461175,0.9599561161105359,1.5702377541934762
0.021,0.0012890748319715666,0.26041402106973555,-2.2700206062674675,-0.0008923783725274309,0.95995685297661,1.5702427697195114
0.022,0.0015081092586729963,0.26044518009943035,-2.2700043942210684,-0.0011072373623218434,0.9599575263236021,1.5702466246318736
0.023,0.0017271436853744267,0.2604763391291251,-2.2699881821746692,-0.0013220963521162565,0.9599581996705941,1.5702504795442356
0.024,0.001946178112075857,0.2605074981588199,-2.2699719701282706,-0.00153695534191067,0.9599588730175863,1.5702543344565976
0.025,0.0021652125387772877,0.26053865718851466,-2.2699557580818714,-0.001751814331705083,0.9599595463645784,1.5702581893689598
0.026,0.0023842469654787174,0.2605698162182094,-2.2699395460354723,-0.0019666733214994954,0.9599602197115704,1.5702620442813218
0.027,0.0026032813921801476,0.2606009752479042,-2.269923333989073,-0.0021815323112939085,0.9599608930585626,1.570265899193684
0.028,0.002822315818881578,0.26063213427759896,-2.269907121942674,-0.0023963913010883217,0.9599615664055546,1.570269754106046
0.029,0.0030413502455830087,0.26066329330729376,-2.269890909896275,-0.002611250290882735,0.9599622397525467,1.570273609018408
0.03,0.0032603846722844385,0.2606944523369885,-2.269874697849876,-0.0028261092806771476,0.9599629130995389,1.5702774639307702
0.031,0.0036045134533985172,0.2607278849139638,-2.2698326908787028,-0.003203794962818484,0.9599634376024576,1.5702797145234177
0.032,0.004003031084257227,0.2607623059897567,-2.269779468722845,-0.0036522748590237008,0.9599638973905619,1.570281267585755
0.033,0.004401548715115936,0.26079672706554957,-2.2697262465669876,-0.0041007547552289175,0.9599643571786662,1.5702828206480919
0.034,0.004800066345974645,0.26083114814134245,-2.26967302441113,-0.004549234651434135,0.9599648169667705,1.570284373710429
0.035,0.005198583976833355,0.26086556921713533,-2.2696198022552725,-0.004997714547639352,0.9599652767548749,1.570285926772766
0.036,0.005597101607692062,0.2608999902929282,-2.269566580099415,-0.005446194443844565,0.9599657365429791,1.5702874798351032
0.037,0.005995619238550771,0.2609344113687211,-2.2695133579435574,-0.0058946743400497825,0.9599661963310835,1.5702890328974404
0.038,0.00639413686940948,0.26096883244451397,-2.2694601357877,-0.006343154236254999,0.9599666561191877,1.5702905859597773
0.039,0.00679265450026819,0.26100325352030684,-2.2694069136318418,-0.006791634132460216,0.9599671159072921,1.5702921390221145
0.04,0.007191172131126899,0.2610376745960998,-2.269353691475984,-0.007240114028665433,0.9599675756953964,1.5702936920844515
0.041,0.007734992273636298,0.26107275287730397,-2.2692567676778674,-0.007815635782445554,0.9599678666439296,1.5702947905909215
0.042,0.008377322593535994,0.26110827672149894,-2.269130215647711,-0.008477287609157813,0.9599680431249572,1.5702955809239225
0.043,0.009019652913435688,0.2611438005656939,-2.269003663617554,-0.009138939435870066,0.9599682196059848,1.5702963712569233
0.044,0.009661983233335385,0.2611793244098889,-2.2688771115873974,-0.009800591262582325,0.9599683960870123,1.5702971615899242
0.045,0.01030431355323508,0.2612148482540838,-2.2687505595572404,-0.010462243089294583,0.9599685725680399,1.5702979519229252
0.046,0.010946643873134777,0.2612503720982788,-2.2686240075270834,-0.011123894916006842,0.9599687490490674,1.570298742255926
0.047,0.011588974193034474,0.26128589594247376,-2.268497455496927,-0.011785546742719102,0.9599689255300949,1.5702995325889268
0.048,0.012231304512934171,0.26132141978666873,-2.26837090346677,-0.01244719856943136,0.9599691020111225,1.5703003229219277
0.049,0.012873634832833868,0.2613569436308637,-2.2682443514366133,-0.01310885039614362,0.9599692784921501,1.5703011132549287
0.05,0.013515965152733565,0.2613924674750586,-2.2681177994064563,-0.013770502222855877,0.9599694549731775,1.5703019035879295
0.051,0.014227032953981048,0.26142498944734927,-2.2679689501488447,-0.01447823111100486,0.9599694794078824,1.5703025151758798
0.052,0.015008241042318118,0.26145444828504355,-2.2677973486183207,-0.015232977408783162,0.9599693486932782,1.570302944370921
0.053,0.01578944913065519,0.26148390712273784,-2.2676257470877963,-0.015987723706561464,0.959969217978674,1.5703033735659624
0.054,0.016570657218992257,0.2615133659604322,-2.267454145557272,-0.016742470004339764,0.9599690872640698,1.5703038027610037
0.055,0.01735186530732933,0.26154282479812646,-2.2672825440267474,-0.017497216302118066,0.9599689565494656,1.570304231956045
0.056,0.018133073395666402,0.2615722836358208,-2.267110942496223,-0.01825196259989637,0.9599688258348614,1.5703046611510862
0.057,0.01891428148400347,0.2616017424735151,-2.266939340965699,-0.01900670889767467,0.9599686951202572,1.5703050903461275
0.058,0.019695489572340543,0.26163120131120937,-2.2667677394351746,-0.01976145519545297,0.959968564405653,1.5703055195411688
0.059,0.02047669766067761,0.2616606601489037,-2.26659613790465,-0.02051620149323127,0.9599684336910489,1.57030594873621
0.06,0.021257905749014677,0.261690118986598,-2.2664245363741258,-0.02127094779100957,0.9599683029764446,1.5703063779312516
0.061,0.02211502653662763,0.2617298036555769,-2.2662195333246835,-0.022120144336427953,0.9599680900944436,1.5703067811237528
0.062,0.023088936092357328,0.26178522037268603,-2.2659631433230585,-0.023114648955138765,0.9599677508010628,1.5703071443123464
0.063,0.024062845648087024,0.2618406370897951,-2.265706753321434,-0.02410915357384958,0.9599674115076821,1.57030750750094
0.064,0.02503675520381672,0.2618960538069042,-2.2654503633198093,-0.025103658192560392,0.9599670722143012,1.5703078706895337
0.065,0.026010664759546418,0.2619514705240133,-2.2651939733181847,-0.026098162811271204,0.9599667329209205,1.5703082338781273
0.066,0.026984574315276115,0.2620068872411224,-2.26493758331656,-0.027092667429982016,0.9599663936275397,1.570308597066721
0.067,0.02795848387100581,0.2620623039582315,-2.2646811933149356,-0.02808717204869283,0.9599660543341589,1.5703089602553146
0.068,0.02893239342673551,0.2621177206753406,-2.2644248033133105,-0.029081676667403647,0.9599657150407781,1.5703093234439083
0.069,0.029906302982465202,0.2621731373924497,-2.264168413311686,-0.03007618128611446,0.9599653757473973,1.570309686632502
0.07,0.0308802125381949,0.26222855410955875,-2.2639120233100614,-0.03107068590482527,0.9599650364540165,1.5703100498210956
0.071,0.03191292221537773,0.26229625488045416,-2.263642546932162,-0.032135147283729654,0.9599646815290234,1.570310382557787
0.072,0.03308756322020611,0.2623936068156613,-2.2633414827494627,-0.03336846980792892,0.9599642888725523,1.5703106417898878
0.073,0.034262204225034495,0.2624909587508685,-2.263040418566763,-0.03460179233212819,0.9599638962160811,1.5703109010219882
0.074,0.03543684522986287,0.26258831068607563,-2.2627393543840633,-0.03583511485632746,0.95996350355961,1.5703111602540887
0.075,0.03661148623469126,0.2626856626212828,-2.2624382902013638,-0.03706843738052673,0.9599631109031388,1.5703114194861894
0.076,0.037786127239519636,0.26278301455648995,-2.2621372260186643,-0.038301759904726,0.9599627182466677,1.5703116787182898
0.077,0.03896076824434802,0.2628803664916971,-2.2618361618359644,-0.03953508242892527,0.9599623255901966,1.5703119379503903
0.078,0.0401354092491764,0.26297771842690426,-2.261535097653265,-0.04076840495312454,0.9599619329337253,1.570312197182491
0.079,0.04131005025400478,0.2630750703621114,-2.2612340334705654,-0.04200172747732381,0.9599615402772542,1.5703124564145914
0.08,0.04248469125883317,0.2631724222973186,-2.2609329692878655,-0.04323505000152307,0.9599611476207831,1.570312715646692
0.081,0.04361685160033778,0.26327755617366827,-2.260653949200504,-0.04445398615157224,0.9599607904124656,1.570312977045906
0.082,0.044570145991005464,0.2634154561179867,-2.260467746356671,-0.04561234809467359,0.9599605824595319,1.5703132475698098
0.083,0.04552344038167315,0.2635533560623052,-2.260281543512838,-0.04677071003777495,0.9599603745065982,1.5703135180937133
0.084,0.04647673477234083,0.2636912560066236,-2.260095340669005,-0.0479290719808763,0.9599601665536645,1.5703137886176168
0.085,0.047430029163008515,0.26382915595094203,-2.259909137825172,-0.04908743392397766,0.9599599586007307,1.5703140591415203
0.086,0.04838332355367619,0.2639670558952604,-2.259722934981339,-0.050245795867078995,0.959959750647797,1.5703143296654238
0.087,0.04933661794434387,0.2641049558395789,-2.259536732137506,-0.051404157810180345,0.9599595426948633,1.5703146001893276
0.088,0.05028991233501156,0.2642428557838973,-2.259350529293673,-0.0525625197532817,0.9599593347419296,1.570314870713231
0.089,0.05124320672567924,0.26438075572821573,-2.25916432644984,-0.05372088169638306,0.9599591267889959,1.5703151412371346
0.09,0.052196501116346924,0.26451865567253413,-2.258978123606007,-0.05487924363948441,0.9599589188360622,1.570315411761038
0.091,0.05316678591227111,0.26467038004521587,-2.2587910455045974,-0.056081785594752194,0.9599587136830792,1.5703163530698518
0.092,0.05430697476076027,0.26496034870153046,-2.2585952148274235,-0.05772612767168431,0.9599585365296035,1.5703240022277662
0.093,0.05544716360924943,0.2652503173578451,-2.258399384150249,-0.05937046974861642,0.9599583593761277,1.5703316513856809
0.094,0.05658735245773859,0.2655402860141597,-2.258203553473075,-0.061014811825548534,0.9599581822226521,1.5703393005435953
0.095,0.057727541306227745,0.2658302546704743,-2.258007722795901,-0.06265915390248064,0.9599580050691763,1.57034694970151
0.096,0.058867730154716906,0.2661202233267889,-2.2578118921187267,-0.06430349597941276,0.9599578279157006,1.5703545988594243
0.097,0.06000791900320607,0.2664101919831035,-2.2576160614415524,-0.06594783805634487,0.959957650762225,1.570362248017339
0.098,0.06114810785169523,0.2667001606394181,-2.2574202307643785,-0.06759218013327699,0.9599574736087492,1.5703698971752533
0.099,0.06228829670018439,0.26699012929573274,-2.257224400087204,-0.0692365222102091,0.9599572964552735,1.570377546333168
0.1,0.06342848554867354,0.2672800979520473,-2.25702856941003,-0.07088086428714122,0.9599571193017977,1.5703851954910824
0.101,0.06456867439716271,0.2675700666083619,-2.256832738732856,-0.07252520636407332,0.9599569421483221,1.5703928446489968
0.102,0.06594917259968194,0.26798213126454384,-2.256629955656837,-0.07435071980041545,0.9599567642039682,1.5704159079691717
0.103,0.06733212293846683,0.26839544179827546,-2.2564271016379727,-0.07617808192409854,0.9599565862515441,1.5704391285767167
0.104,0.0687150732772517,0.2688087523320071,-2.256224247619109,-0.07800544404778162,0.9599564082991201,1.5704623491842618
0.105,0.07009802361603658,0.2692220628657387,-2.2560213936002445,-0.0798328061714647,0.9599562303466961,1.5704855697918068
0.106,0.07148097395482145,0.2696353733994703,-2.2558185395813806,-0.08166016829514777,0.9599560523942721,1.5705087903993518
0.107,0.07286392429360632,0.2700486839332019,-2.2556156855625162,-0.08348753041883085,0.959955874441848,1.5705320110068968
0.108,0.0742468746323912,0.27046199446693353,-2.255412831543652,-0.08531489254251393,0.959955696489424,1.5705552316144418
0.109,0.07562982497117607,0.27087530500066515,-2.255209977524788,-0.087142254666197,0.959955518537,1.5705784522219868
0.11,0.07701277530996095,0.27128861553439676,-2.2550071235059237,-0.08896961678988008,0.9599553405845759,1.5706016728295318
0.111,0.07839572564874582,0.2717019260681283,-2.2548042694870594,-0.09079697891356317,0.9599551626321519,1.5706248934370768
0.112,0.07957407490946948,0.2721980387231909,-2.2547036820376816,-0.0923022563465184,0.9599549759800683,1.570657579830529
0.113,0.08072684903543549,0.2727045016434199,-2.2546158779094894,-0.09376727319313265,0.9599547882405273,1.5706914494472193
0.114,0.08187962316140149,0.27321096456364885,-2.254528073781297,-0.0952322900397469,0.9599546005009862,1.5707253190639097
0.115,0.0830323972873675,0.27371742748387784,-2.254440269653105,-0.09669730688636115,0.9599544127614452,1.5707591886806003
0.116,0.08418517141333351,0.2742238904041068,-2.2543524655249128,-0.0981623237329754,0.9599542250219042,1.5707930582972907
0.117,0.08533794553929952,0.27473035332433576,-2.2542646613967205,-0.09962734057958963,0.9599540372823632,1.570826927913981
0.118,0.0864907196652655,0.2752368162445647,-2.2541768572685283,-0.10109235742620387,0.9599538495428221,1.5708607975306714
0.119,0.08764349379123151,0.2757432791647937,-2.254089053140336,-0.10255737427281812,0.9599536618032811,1.570894667147362
0.12,0.08879626791719752,0.2762497420850227,-2.254001249012144,-0.10402239111943237,0.9599534740637401,1.5709285367640524
0.121,0.08994904204316352,0.2767562050052516,-2.253913444883952,-0.10548740796604662,0.9599532863241991,1.5709624063807428
0.122,0.09122077804980883,0.27741434812040533,-2.25381188963484,-0.10694812562813419,0.9599520819414733,1.571008008267931
0.123,0.09252454225509854,0.27811332821111573,-2.2537066321608643,-0.10840768581746457,0.9599506038471209,1.5710567688433303
0.124,0.09382830646038827,0.27881230830182613,-2.2536013746868893,-0.10986724600679496,0.9599491257527685,1.5711055294187295
0.125,0.09513207066567798,0.2795112883925365,-2.2534961172129138,-0.11132680619612534,0.9599476476584161,1.5711542899941286
0.126,0.09643583487096771,0.2802102684832469,-2.2533908597389383,-0.11278636638545572,0.9599461695640636,1.5712030505695278
0.127,0.09773959907625743,0.2809092485739573,-2.253285602264963,-0.1142459265747861,0.9599446914697113,1.571251811144927
0.128,0.09904336328154714,0.2816082286646677,-2.2531803447909877,-0.11570548676411649,0.9599432133753589,1.5713005717203261
0.129,0.10034712748683687,0.2823072087553781,-2.2530750873170127,-0.11716504695344687,0.9599417352810065,1.5713493322957253
0.13,0.1016508916921266,0.2830061888460885,-2.252969829843037,-0.11862460714277726,0.9599402571866541,1.5713980928711246
0.131,0.10295465589741631,0.2837051689367989,-2.2528645723690617,-0.12008416733210764,0.9599387790923016,1.5714468534465238
0.132,0.10434030008544376,0.28445988953191187,-2.2527760954827993,-0.1213661744187669,0.9599329935675764,1.571519382789529
0.133,0.10576327191266047,0.28524002123932596,-2.252695268570347,-0.12256723817920846,0.9599252443613576,1.5716027478942374
0.134,0.10718624373987719,0.2860201529467401,-2.2526144416578946,-0.12376830193965002,0.9599174951551388,1.5716861129989455
0.135,0.1086092155670939,0.28680028465415425,-2.2525336147454422,-0.12496936570009158,0.95990974594892,1.5717694781036537
0.136,0.1100321873943106,0.28758041636156834,-2.25245278783299,-0.12617042946053314,0.9599019967427012,1.5718528432083618
0.137,0.11145515922152731,0.2883605480689825,-2.2523719609205375,-0.12737149322097469,0.9598942475364823,1.5719362083130701
0.138,0.11287813104874403,0.28914067977639657,-2.252291134008085,-0.12857255698141626,0.9598864983302635,1.5720195734177782
0.139,0.11430110287596074,0.2899208114838107,-2.2522103070956327,-0.1297736207418578,0.9598787491240447,1.5721029385224865
0.14,0.11572407470317744,0.29070094319122486,-2.2521294801831804,-0.13097468450229938,0.9598709999178259,1.5721863036271946
0.141,0.11714704653039411,0.29148107489863895,-2.252048653270728,-0.1321757482627409,0.959863250711607,1.5722696687319029
0.142,0.11852264077735128,0.29228714806827344,-2.251985285069118,-0.1331311897195884,0.959852398602063,1.5723287909319097
0.143,0.11986474397619393,0.2931115591680982,-2.25193425837,-0.13391300161699873,0.9598393530608579,1.5723707759061794
0.144,0.12120684717503659,0.293935970267923,-2.251883231670882,-0.13469481351440907,0.9598263075196528,1.5724127608804488
0.145,0.12254895037387925,0.2947603813677478,-2.251832204971764,-0.13547662541181937,0.9598132619784477,1.5724547458547184
0.146,0.1238910535727219,0.29558479246757263,-2.251781178272646,-0.1362584373092297,0.9598002164372427,1.572496730828988
0.147,0.12523315677156455,0.2964092035673974,-2.2517301515735277,-0.13704024920664004,0.9597871708960376,1.5725387158032578
0.148,0.12657525997040722,0.2972336146672222,-2.2516791248744097,-0.13782206110405038,0.9597741253548325,1.5725807007775272
0.149,0.12791736316924987,0.298058025767047,-2.2516280981752916,-0.13860387300146068,0.9597610798136275,1.5726226857517969
0.15,0.12925946636809252,0.29888243686687177,-2.2515770714761736,-0.13938568489887102,0.9597480342724225,1.5726646707260665
0.151,0.1306015695669352,0.29970684796669655,-2.2515260447770555,-0.14016749679628135,0.9597349887312174,1.5727066557003362
0.152,0.13202285296785085,0.30058223548193,-2.2514595866314924,-0.1408709155868613,0.9597196328154508,1.572738469736367
0.153,0.1335282653334691,0.30151178543853524,-2.2513767325740814,-0.14149104170143398,0.9597018221267126,1.57275947715052
0.154,0.13503367769908733,0.3024413353951404,-2.2512938785166705,-0.14211116781600666,0.9596840114379744,1.5727804845646727
0.155,0.13653909006470558,0.3033708853517456,-2.2512110244592596,-0.14273129393057934,0.9596662007492361,1.5728014919788254
0.156,0.13804450243032382,0.30430043530835077,-2.2511281704018486,-0.14335142004515203,0.959648390060498,1.572822499392978
0.157,0.13954991479594206,0.305229985264956,-2.2510453163444377,-0.1439715461597247,0.9596305793717598,1.5728435068071307
0.158,0.1410553271615603,0.3061595352215612,-2.250962462287027,-0.1445916722742974,0.9596127686830216,1.5728645142212834
0.159,0.14256073952717854,0.30708908517816635,-2.2508796082296163,-0.14521179838887005,0.9595949579942834,1.572885521635436
0.16,0.14406615189279678,0.30801863513477157,-2.2507967541722054,-0.14583192450344273,0.9595771473055451,1.5729065290495887
0.161,0.14557156425841503,0.3089481850913768,-2.2507139001147944,-0.14645205061801542,0.9595593366168069,1.5729275364637416
0.162,0.14701616310813678,0.30986289881245876,-2.2506371203237827,-0.1469956441918731,0.9595324348860499,1.5729523152537526
0.163,0.14836314026128788,0.3107537964712535,-2.2505700913288327,-0.14741638289774092,0.9594909396404732,1.5729831480944836
0.164,0.149710117414439,0.3116446941300483,-2.250503062333883,-0.14783712160360873,0.9594494443948963,1.5730139809352148
0.165,0.1510570945675901,0.31253559178884305,-2.250436033338933,-0.14825786030947655,0.9594079491493196,1.5730448137759458
0.166,0.15240407172074122,0.3134264894476378,-2.2503690043439835,-0.14867859901534436,0.9593664539037429,1.5730756466166769
0.167,0.15375104887389232,0.3143173871064326,-2.250301975349034,-0.14909933772121217,0.9593249586581661,1.573106479457408
0.168,0.15509802602704342,0.31520828476522733,-2.250234946354084,-0.14952007642707998,0.9592834634125893,1.573137312298139
0.169,0.15644500318019453,0.3160991824240221,-2.2501679173591342,-0.14994081513294782,0.9592419681670126,1.5731681451388702
0.17,0.15779198033334563,0.31699008008281687,-2.250100888364184,-0.15036155383881564,0.9592004729214358,1.5731989779796012
0.171,0.15913895748649673,0.3178809777416116,-2.2500338593692346,-0.15078229254468345,0.959158977675859,1.5732298108203322
0.172,0.16051630270180653,0.3187980885489396,-2.2499675566188517,-0.15116041942922545,0.9591093392966055,1.5732714974015245
0.173,0.1619706526461618,0.31978166841147676,-2.2499030954171935,-0.15143049490969138,0.9590390522569572,1.5733407059674578
0.174,0.16342500259051707,0.320765248274014,-2.2498386342155356,-0.15170057039015727,0.9589687652173088,1.573409914533391
0.175,0.16487935253487232,0.3217488281365512,-2.2497741730138774,-0.15197064587062317,0.9588984781776605,1.5734791230993246
0.176,0.1663337024792276,0.32273240799908837,-2.249709711812219,-0.1522407213510891,0.9588281911380121,1.5735483316652579
0.177,0.16778805242358286,0.3237159878616256,-2.249645250610561,-0.152510796831555,0.9587579040983638,1.5736175402311912
0.178,0.16924240236793814,0.32469956772416275,-2.2495807894089026,-0.1527808723120209,0.9586876170587154,1.5736867487971244
0.179,0.1706967523122934,0.3256831475867,-2.2495163282072443,-0.15305094779248682,0.9586173300190671,1.5737559573630577
0.18,0.17215110225664865,0.3266667274492372,-2.249451867005586,-0.15332102327295272,0.9585470429794187,1.573825165928991
0.181,0.17360545220100393,0.32765030731177436,-2.249387405803928,-0.15359109875341861,0.9584767559397704,1.5738943744949243
0.182,0.17511177501083625,0.3286696399376299,-2.2493222877214816,-0.15385613957142272,0.9584072263309782,1.5739594067836362
0.183,0.17685197571531536,0.3298498599984178,-2.249254213675488,-0.15409852440834873,0.9583411051610388,1.5740056458248521
0.184,0.17859217641979447,0.33103008005920576,-2.249186139629495,-0.15434090924527474,0.9582749839910992,1.574051884866068
0.185,0.18033237712427355,0.3322103001199937,-2.249118065583502,-0.15458329408220076,0.9582088628211598,1.5740981239072838
0.186,0.18207257782875266,0.33339052018078164,-2.249049991537509,-0.15482567891912677,0.9581427416512203,1.5741443629484997
0.187,0.18381277853323177,0.3345707402415695,-2.2489819174915158,-0.15506806375605278,0.9580766204812808,1.5741906019897156
0.188,0.18555297923771086,0.33575096030235746,-2.2489138434455227,-0.15531044859297877,0.9580104993113413,1.5742368410309313
0.189,0.18729317994218997,0.3369311803631454,-2.2488457693995296,-0.15555283342990478,0.9579443781414018,1.5742830800721472
0.19,0.18903338064666908,0.33811140042393334,-2.2487776953535366,-0.1557952182668308,0.9578782569714623,1.5743293191133632
0.191,0.1907735813511482,0.3392916204847213,-2.2487096213075435,-0.1560376031037568,0.9578121358015228,1.5743755581545789
0.192,0.1925051139125603,0.3404706018501048,-2.248640886225155,-0.1562713259290735,0.9577427146220566,1.5744215899039438
0.193,0.19413804634658566,0.3416354930552639,-2.248564631853768,-0.15640651837233419,0.9576357558342242,1.5744652637085028
0.194,0.19577097878061098,0.342800384260423,-2.248488377482381,-0.1565417108155949,0.9575287970463918,1.5745089375130619
0.195,0.19740391121463632,0.34396527546558203,-2.2484121231109935,-0.15667690325885558,0.9574218382585594,1.574552611317621
0.196,0.19903684364866167,0.3451301666707411,-2.2483358687396064,-0.1568120957021163,0.957314879470727,1.5745962851221798
0.197,0.200669776082687,0.34629505787590015,-2.2482596143682194,-0.156947288145377,0.9572079206828945,1.5746399589267388
0.198,0.20230270851671234,0.3474599490810592,-2.2481833599968324,-0.1570824805886377,0.9571009618950621,1.5746836327312979
0.199,0.20393564095073766,0.34862484028621826,-2.2481071056254454,-0.1572176730318984,0.9569940031072297,1.574727306535857
0.2,0.205568573384763,0.3497897314913773,-2.2480308512540583,-0.1573528654751591,0.9568870443193973,1.574770980340416
0.201,0.20720150581878832,0.3509546226965364,-2.2479545968826713,-0.1574880579184198,0.9567800855315649,1.574814654144975
0.202,0.20883443825281367,0.35211951390169544,-2.2478783425112843,-0.15762325036168048,0.9566731267437325,1.574858327949534
0.203,0.21081343808799988,0.35345609843146414,-2.2477868776594248,-0.15770742527947146,0.9565589296503703,1.5749192320487022
0.204,0.21279957333351926,0.3547962230297814,-2.2476950991894116,-0.15779054828952077,0.956444583313595,1.5749804914116767
0.205,0.21478570857903873,0.3561363476280988,-2.247603320719398,-0.1578736712995701,0.9563302369768198,1.5750417507746513
0.206,0.21677184382455816,0.35747647222641615,-2.2475115422493848,-0.15795679430961942,0.9562158906400446,1.5751030101376258
0.207,0.2187579790700776,0.3588165968247335,-2.2474197637793716,-0.15803991731966877,0.9561015443032694,1.5751642695006003
0.208,0.22074411431559704,0.36015672142305083,-2.247327985309358,-0.15812304032971808,0.9559871979664942,1.5752255288635748
0.209,0.22273024956111648,0.3614968460213682,-2.2472362068393448,-0.15820616333976742,0.955872851629719,1.5752867882265493
0.21,0.22471638480663592,0.36283697061968556,-2.247144428369331,-0.15828928634981673,0.9557585052929438,1.5753480475895238
0.211,0.22670252005215535,0.3641770952180029,-2.247052649899318,-0.15837240935986605,0.9556441589561686,1.5754093069524984
0.212,0.2286886552976748,0.36551721981632024,-2.246960871429305,-0.1584555323699154,0.9555298126193933,1.5754705663154729
0.213,0.23044309002706345,0.3666736654563373,-2.24688362353662,-0.15850124609009744,0.9554340421963974,1.5755423505766195
0.214,0.232165566064572,0.36780477606762324,-2.2468083798614984,-0.15854179990822884,0.9553408339684054,1.5756155865478587
0.215,0.23388804210208056,0.3689358866789092,-2.2467331361863767,-0.15858235372636023,0.9552476257404134,1.575688822519098
0.216,0.2356105181395891,0.37006699729019515,-2.2466578925112546,-0.15862290754449165,0.9551544175124215,1.5757620584903371
0.217,0.2373329941770977,0.3711981079014811,-2.246582648836133,-0.15866346136262305,0.9550612092844295,1.5758352944615763
0.218,0.23905547021460624,0.37232921851276707,-2.246507405161011,-0.15870401518075444,0.9549680010564375,1.5759085304328155
0.219,0.2407779462521148,0.373460329124053,-2.246432161485889,-0.15874456899888584,0.9548747928284456,1.5759817664040547
0.22,0.24250042228962335,0.374591439735339,-2.2463569178107674,-0.15878512281701723,0.9547815846004536,1.576055002375294
0.221,0.2442228983271319,0.37572255034662494,-2.2462816741356457,-0.15882567663514865,0.9546883763724616,1.5761282383465332
0.222,0.24594537436464045,0.3768536609579109,-2.246206430460524,-0.15886623045328005,0.9545951681444697,1.5762014743177724
0.223,0.24771188251468915,0.3780045822630628,-2.246074319679323,-0.15889478130968826,0.9544814677130309,1.5762419351605115
0.224,0.24949097126832073,0.3791611637664622,-2.245925961153529,-0.1589199027484613,0.9543619123663215,1.576273031680822
0.225,0.25127006002195235,0.38031774526986156,-2.2457776026277343,-0.15894502418723433,0.9542423570196122,1.5763041282011325
0.226,0.25304914877558393,0.3814743267732609,-2.2456292441019396,-0.15897014562600736,0.9541228016729029,1.576335224721443
0.227,0.2548282375292155,0.38263090827666024,-2.245480885576145,-0.1589952670647804,0.9540032463261935,1.5763663212417536
0.228,0.2566073262828471,0.3837874897800596,-2.245332527050351,-0.15902038850355343,0.9538836909794842,1.5763974177620643
0.229,0.2583864150364787,0.384944071283459,-2.245184168524556,-0.15904550994232647,0.9537641356327748,1.5764285142823748
0.23,0.26016550379011033,0.3861006527868583,-2.2450358099987615,-0.15907063138109948,0.9536445802860655,1.5764596108026854
0.231,0.2619445925437419,0.38725723429025766,-2.2448874514729673,-0.1590957528198725,0.9535250249393562,1.576490707322996
0.232,0.2637236812973735,0.388413815793657,-2.2447390929471727,-0.15912087425864554,0.9534054695926468,1.5765218038433064
0.233,0.26577025239151025,0.38974859089040675,-2.2445325253384727,-0.1591396916120536,0.9532922514132779,1.5765630746525963
0.234,0.2679445762452912,0.3911684733750253,-2.2442981563767432,-0.15915549805901866,0.9531820599406984,1.5766092048237867
0.235,0.2701189000990722,0.39258835585964386,-2.2440637874150138,-0.1591713045059837,0.9530718684681189,1.5766553349949772
0.236,0.2722932239528532,0.3940082383442624,-2.2438294184532843,-0.1591871109529488,0.9529616769955394,1.576701465166168
0.237,0.2744675478066342,0.395428120828881,-2.243595049491555,-0.15920291739991385,0.9528514855229598,1.5767475953373584
0.238,0.2766418716604152,0.39684800331349956,-2.2433606805298254,-0.15921872384687893,0.9527412940503803,1.576793725508549
0.239,0.27881619551419623,0.39826788579811817,-2.243126311568096,-0.159234530293844,0.9526311025778008,1.5768398556797394
0.24,0.2809905193679772,0.3996877682827367,-2.2428919426063665,-0.15925033674080905,0.9525209111052212,1.5768859858509299
0.241,0.2831648432217582,0.4011076507673553,-2.242657573644637,-0.15926614318777413,0.9524107196326417,1.5769321160221204
0.242,0.28533916707553925,0.4025275332519739,-2.2424232046829076,-0.15928194963473918,0.9523005281600622,1.576978246193311
0.243,0.28736696324763683,0.4038849945644476,-2.242125215252844,-0.15929119070849357,0.9522163366163449,1.5770269627559381
0.244,0.2892867916542835,0.40519646132902515,-2.241780347582956,-0.1592955941388296,0.952151302914947,1.5770775850806762
0.245,0.2912066200609302,0.4065079280936027,-2.241435479913068,-0.1592999975691656,0.9520862692135491,1.5771282074054145
0.246,0.29312644846757685,0.4078193948581802,-2.24109061224318,-0.1593044009995016,0.9520212355121512,1.5771788297301528
0.247,0.2950462768742235,0.40913086162275775,-2.240745744573292,-0.1593088044298376,0.9519562018107534,1.577229452054891
0.248,0.2969661052808702,0.4104423283873353,-2.240400876903404,-0.15931320786017364,0.9518911681093555,1.5772800743796294
0.249,0.29888593368751687,0.4117537951519128,-2.240056009233516,-0.15931761129050964,0.9518261344079576,1.5773306967043674
0.25,0.30080576209416354,0.41306526191649034,-2.239711141563628,-0.15932201472084564,0.9517611007065598,1.5773813190291057
0.251,0.3027255905008102,0.4143767286810679,-2.23936627389374,-0.15932641815118168,0.951696067005162,1.577431941353844
0.252,0.3046454189074569,0.41568819544564545,-2.239021406223852,-0.15933082158151768,0.9516310333037641,1.5774825636785823
0.253,0.30649516972504715,0.4170184543715394,-2.238621998548981,-0.15933378926512518,0.9515762752119145,1.5775424009135348
0.254,0.3082673878909155,0.41836950462484723,-2.238162248740938,-0.1593351684629905,0.9515328858795652,1.5776124333682986
0.255,0.3100396060567838,0.4197205548781551,-2.237702498932895,-0.15933654766085584,0.9514894965472159,1.5776824658230626
0.256,0.31181182422265213,0.42107160513146297,-2.237242749124852,-0.15933792685872117,0.9514461072148666,1.5777524982778264
0.257,0.31358404238852045,0.42242265538477086,-2.236782999316809,-0.15933930605658647,0.9514027178825173,1.5778225307325904
0.258,0.31535626055438876,0.42377370563807876,-2.236323249508766,-0.1593406852544518,0.9513593285501679,1.5778925631873542
0.259,0.31712847872025707,0.4251247558913866,-2.235863499700723,-0.15934206445231713,0.9513159392178187,1.5779625956421182
0.26,0.3189006968861254,0.4264758061446945,-2.23540374989268,-0.15934344365018246,0.9512725498854694,1.578032628096882
0.261,0.3206729150519937,0.42782685639800233,-2.2349440000846372,-0.1593448228480478,0.95122916055312,1.578102660551646
0.262,0.322445133217862,0.4291779066513102,-2.2344842502765943,-0.15934620204591313,0.9511857712207707,1.5781726930064097
0.263,0.32424738464178415,0.43062725755291603,-2.233978528527463,-0.1593404977302502,0.9511451966638776,1.578308437356315
0.264,0.32609996206568836,0.4322413284597778,-2.233395772714886,-0.15932292374326965,0.951109338757749,1.5785542935305115
0.265,0.32795253948959263,0.43385539936663964,-2.2328130169023095,-0.1593053497562891,0.9510734808516202,1.5788001497047077
0.266,0.32980511691349684,0.4354694702735014,-2.232230261089733,-0.15928777576930855,0.9510376229454915,1.579046005878904
0.267,0.3316576943374011,0.43708354118036324,-2.2316475052771563,-0.159270201782328,0.9510017650393628,1.5792918620531005
0.268,0.3335102717613053,0.438697612087225,-2.2310647494645792,-0.15925262779534746,0.9509659071332341,1.5795377182272967
0.269,0.33536284918520953,0.44031168299408685,-2.2304819936520026,-0.15923505380836692,0.9509300492271054,1.579783574401493
0.27,0.3372154266091138,0.4419257539009486,-2.229899237839426,-0.15921747982138637,0.9508941913209767,1.5800294305756892
0.271,0.339068004033018,0.44353982480781046,-2.229316482026849,-0.15919990583440582,0.950858333414848,1.5802752867498857
0.272,0.3409205814569223,0.44515389571467223,-2.2287337262142723,-0.15918233184742528,0.9508224755087193,1.580521142924082
0.273,0.3426478369343627,0.44674214685047575,-2.22814897847099,-0.15916222750393505,0.9507862751152324,1.5807891235208764
0.274,0.3440409005545663,0.44826154526345713,-2.227558918912492,-0.15913537554308568,0.9507491614221233,1.5811161025779328
0.275,0.34543396417476996,0.44978094367643845,-2.226968859353994,-0.15910852358223632,0.9507120477290142,1.5814430816349891
0.276,0.34682702779497365,0.4513003420894198,-2.226378799795496,-0.15908167162138695,0.9506749340359051,1.5817700606920455
0.277,0.3482200914151773,0.4528197405024012,-2.225788740236998,-0.15905481966053756,0.950637820342796,1.5820970397491019
0.278,0.34961315503538093,0.4543391389153825,-2.2251986806785005,-0.1590279676996882,0.9506007066496869,1.5824240188061582
0.279,0.35100621865558457,0.4558585373283639,-2.2246086211200025,-0.15900111573883882,0.9505635929565778,1.5827509978632146
0.28,0.3523992822757882,0.4573779357413453,-2.2240185615615045,-0.15897426377798946,0.9505264792634688,1.583077976920271
0.281,0.35379234589599184,0.45889733415432665,-2.2234285020030065,-0.1589474118171401,0.9504893655703597,1.5834049559773273
0.282,0.35518540951619537,0.4604167325673079,-2.2228384424445085,-0.15892055985629072,0.9504522518772506,1.5837319350343837
0.283,0.3565110023166692,0.461948688417666,-2.222234919939565,-0.1588902271132299,0.9504100801632014,1.58404077565056
0.284,0.35751114763374003,0.4635412154365472,-2.221566458516472,-0.1588431047147963,0.9503435109363821,1.584262124963668
0.285,0.35851129295081086,0.46513374245542843,-2.220897997093379,-0.15879598231636266,0.950276941709563,1.584483474276776
0.286,0.3595114382678817,0.4667262694743096,-2.2202295356702857,-0.15874885991792903,0.9502103724827439,1.584704823589884
0.287,0.3605115835849525,0.46831879649319086,-2.2195610742471925,-0.1587017375194954,0.9501438032559246,1.584926172902992
0.288,0.3615117289020233,0.46991132351207204,-2.2188926128240993,-0.15865461512106177,0.9500772340291055,1.5851475222161
0.289,0.3625118742190942,0.4715038505309533,-2.218224151401006,-0.15860749272262814,0.9500106648022864,1.585368871529208
0.29,0.363512019536165,0.47309637754983447,-2.217555689977913,-0.1585603703241945,0.9499440955754671,1.585590220842316
0.291,0.36451216485323584,0.4746889045687157,-2.21688722855482,-0.15851324792576088,0.949877526348648,1.585811570155424
0.292,0.36551231017030666,0.4762814315875969,-2.216218767131727,-0.15846612552732725,0.9498109571218287,1.586032919468532
0.293,0.3665059556560744,0.47789407611987156,-2.21553921903008,-0.15841492990309416,0.9497402419870381,1.586251026518323
0.294,0.36741417478757304,0.47977112225674595,-2.214713960296015,-0.15831020045406813,0.9496150377760512,1.586426520964518
0.295,0.36832239391907173,0.48164816839362035,-2.2138887015619493,-0.15820547100504206,0.9494898335650641,1.5866020154107134
0.296,0.36923061305057037,0.48352521453049474,-2.2130634428278837,-0.15810074155601603,0.9493646293540772,1.5867775098569086
0.297,0.37013883218206906,0.48540226066736913,-2.212238184093818,-0.15799601210699,0.9492394251430901,1.5869530043031037
0.298,0.3710470513135677,0.48727930680424353,-2.2114129253597525,-0.15789128265796396,0.9491142209321031,1.587128498749299
0.299,0.3719552704450663,0.4891563529411179,-2.2105876666256874,-0.1577865532089379,0.9489890167211161,1.5873039931954942
0.3,0.372863489576565,0.4910333990779923,-2.209762407891622,-0.15768182375991185,0.9488638125101291,1.5874794876416893
0.301,0.37377170870806364,0.4929104452148667,-2.2089371491575562,-0.15757709431088582,0.9487386082991421,1.5876549820878847
0.302,0.3746799278395623,0.4947874913517411,-2.2081118904234907,-0.15747236486185978,0.9486134040881551,1.5878304765340798
0.303,0.37558814697106097,0.4966645374886155,-2.207286631689425,-0.15736763541283372,0.948488199877168,1.588005970980275
0.304,0.3762486144860014,0.4987689762600068,-2.2063196129615523,-0.1571910174261852,0.9483815970232363,1.5881142026285733
0.305,0.3769013397629244,0.5008805210512267,-2.205348164233873,-0.15701215292273593,0.9482755754617126,1.5882203323144373
0.306,0.37755406503984734,0.5029920658424467,-2.2043767155061937,-0.15683328841928668,0.9481695539001889,1.5883264620003013
0.307,0.37820679031677035,0.5051036106336666,-2.2034052667785144,-0.15665442391583745,0.9480635323386651,1.588432591686165
0.308,0.3788595155936933,0.5072151554248865,-2.202433818050835,-0.1564755594123882,0.9479575107771414,1.588538721372029
0.309,0.3795122408706163,0.5093267002161065,-2.201462369323156,-0.15629669490893894,0.9478514892156177,1.588644851057893
0.31,0.3801649661475393,0.5114382450073264,-2.2004909205954766,-0.1561178304054897,0.947745467654094,1.588750980743757
0.311,0.38081769142446226,0.5135497897985464,-2.1995194718677973,-0.15593896590204046,0.9476394460925702,1.588857110429621
0.312,0.38147041670138526,0.5156613345897663,-2.198548023140118,-0.1557601013985912,0.9475334245310465,1.588963240115485
0.313,0.3821231419783082,0.5177728793809862,-2.1975765744124387,-0.15558123689514197,0.9474274029695228,1.589069369801349
0.314,0.3825828957149846,0.5199955080365084,-2.1965093273977008,-0.15544006520491774,0.9473262332453936,1.5891389196531245
0.315,0.383013479335112,0.52223492843896,-2.195427599246547,-0.15530459126552984,0.9472257969385449,1.589202939995096
0.316,0.3834440629552394,0.5244743488414116,-2.1943458710953934,-0.15516911732614197,0.9471253606316962,1.5892669603370673
0.317,0.38387464657536685,0.5267137692438633,-2.1932641429442397,-0.15503364338675407,0.9470249243248475,1.5893309806790388
0.318,0.3843052301954943,0.5289531896463149,-2.1921824147930855,-0.15489816944736617,0.9469244880179989,1.5893950010210103
0.319,0.3847358138156217,0.5311926100487665,-2.191100686641932,-0.1547626955079783,0.9468240517111501,1.5894590213629818
0.32,0.38516639743574915,0.5334320304512181,-2.190018958490778,-0.1546272215685904,0.9467236154043015,1.5895230417049533
0.321,0.3855969810558766,0.5356714508536697,-2.1889372303396244,-0.1544917476292025,0.9466231790974529,1.5895870620469248
0.322,0.386027564676004,0.5379108712561214,-2.1878555021884707,-0.15435627368981464,0.9465227427906042,1.5896510823888963
0.323,0.38645814829613145,0.540150291658573,-2.186773774037317,-0.15422079975042674,0.9464223064837555,1.5897151027308678
0.324,0.3867544986287572,0.5422454296883547,-2.185759512429334,-0.15413127054349807,0.9463590169285878,1.5897598761488572
0.325,0.3870102257296391,0.544296903315881,-2.1847656683278367,-0.15405564566349786,0.9463069691535341,1.5897988248398522
0.326,0.38726595283052095,0.5463483769434072,-2.1837718242263393,-0.15398002078349765,0.9462549213784802,1.589837773530847
0.327,0.3875216799314028,0.5483998505709335,-2.1827779801248424,-0.15390439590349742,0.9462028736034265,1.5898767222218422
0.328,0.38777740703228464,0.5504513241984598,-2.181784136023345,-0.1538287710234972,0.9461508258283727,1.589915670912837
0.329,0.3880331341331665,0.5525027978259861,-2.1807902919218476,-0.153753146143497,0.946098778053319,1.589954619603832
0.33,0.3882888612340483,0.5545542714535124,-2.17979644782035,-0.1536775212634968,0.9460467302782652,1.5899935682948272
0.331,0.3885445883349302,0.5566057450810387,-2.1788026037188533,-0.15360189638349656,0.9459946825032115,1.590032516985822
0.332,0.38880031543581206,0.558657218708565,-2.177808759617356,-0.15352627150349635,0.9459426347281578,1.5900714656768171
0.333,0.3890560425366939,0.5607086923360912,-2.1768149155158585,-0.15345064662349614,0.945890586953104,1.590110414367812
0.334,0.38926907533478844,0.5630619037085816,-2.1756814519984204,-0.15338462464077215,0.9458493958604974,1.5901316535435586
0.335,0.3894607609814893,0.5655659839535538,-2.174478178773012,-0.1533234041066863,0.9458136331091145,1.590144037961681
0.336,0.38965244662819015,0.5680700641985261,-2.1732749055476037,-0.15326218357260044,0.9457778703577315,1.5901564223798033
0.337,0.38984413227489095,0.5705741444434984,-2.1720716323221954,-0.1532009630385146,0.9457421076063486,1.5901688067979258
0.338,0.3900358179215918,0.5730782246884708,-2.170868359096787,-0.15313974250442874,0.9457063448549656,1.5901811912160482
0.339,0.39022750356829267,0.5755823049334431,-2.1696650858713786,-0.15307852197034288,0.9456705821035827,1.5901935756341705
0.34,0.3904191892149935,0.5780863851784154,-2.1684618126459703,-0.15301730143625702,0.9456348193521997,1.5902059600522929
0.341,0.3906108748616944,0.5805904654233877,-2.167258539420562,-0.15295608090217117,0.9455990566008168,1.5902183444704152
0.342,0.39080256050839524,0.58309454566836,-2.1660552661951535,-0.1528948603680853,0.9455632938494338,1.5902307288885376
0.343,0.3909942461550961,0.5855986259133323,-2.164851992969745,-0.15283363983399945,0.9455275310980509,1.5902431133066601
0.344,0.3911968878781237,0.5881936938451351,-2.163550550315299,-0.15278630220910874,0.9454869673736327,1.5902502235844194
0.345,0.3914079423026164,0.5908586273221831,-2.1621737275635553,-0.15274962467520717,0.9454427171877768,1.590253284075828
0.346,0.39161899672710915,0.593523560799231,-2.1607969048118116,-0.15271294714130562,0.945398467001921,1.590256344567237
0.347,0.39183005115160185,0.5961884942762788,-2.159420082060068,-0.15267626960740405,0.9453542168160651,1.590259405058646
0.348,0.3920411055760946,0.5988534277533267,-2.1580432593083243,-0.15263959207350247,0.9453099666302093,1.590262465550055
0.349,0.3922521600005873,0.6015183612303747,-2.1566664365565806,-0.1526029145396009,0.9452657164443534,1.590265526041464
0.35,0.3924632144250801,0.6041832947074226,-2.155289613804837,-0.15256623700569932,0.9452214662584976,1.590268586532873
0.351,0.3926742688495728,0.6068482281844705,-2.1539127910530933,-0.15252955947179775,0.9451772160726417,1.590271647024282
0.352,0.3928853232740655,0.6095131616615184,-2.1525359683013496,-0.15249288193789617,0.9451329658867859,1.5902747075156907
0.353,0.39309637769855826,0.6121780951385664,-2.151159145549606,-0.15245620440399463,0.94508871570093,1.5902777680070996
0.354,0.39329965036748904,0.6146507495329616,-2.149889875952475,-0.15243154477457097,0.9450504037946844,1.5902798023300844
0.355,0.3934939571006637,0.6169018649843007,-2.1487445262943545,-0.15242073186117625,0.9450189338192941,1.5902806543285803
0.356,0.39368826383383837,0.6191529804356396,-2.147599176636234,-0.15240991894778155,0.944987463843904,1.5902815063270763
0.357,0.393882570567013,0.6214040958869786,-2.1464538269781137,-0.15239910603438683,0.9449559938685137,1.5902823583255723
0.358,0.39407687730018764,0.6236552113383176,-2.1453084773199933,-0.1523882931209921,0.9449245238931234,1.590283210324068
0.359,0.3942711840333623,0.6259063267896566,-2.144163127661873,-0.1523774802075974,0.9448930539177333,1.590284062322564
0.36,0.394465490766537,0.6281574422409956,-2.1430177780037525,-0.15236666729420267,0.944861583942343,1.59028491432106
0.361,0.3946597974997116,0.6304085576923346,-2.141872428345632,-0.15235585438080795,0.9448301139669527,1.590285766319556
0.362,0.39485410423288625,0.6326596731436736,-2.1407270786875117,-0.15234504146741323,0.9447986439915625,1.5902866183180517
0.363,0.3950484109660609,0.6349107885950126,-2.1395817290293913,-0.1523342285540185,0.9447671740161723,1.5902874703165477
0.364,0.3952805343385565,0.6372893462441553,-2.138352731505434,-0.15232574312720587,0.9447479548820072,1.5902881145448997
0.365,0.3955788368298637,0.6398909277394548,-2.1369773502162617,-0.15232133080191182,0.9447501747199865,1.5902883951754996
0.366,0.39587713932117097,0.6424925092347541,-2.13560196892709,-0.15231691847661777,0.9447523945579657,1.5902886758060992
0.367,0.39617544181247816,0.6450940907300535,-2.134226587637918,-0.15231250615132372,0.9447546143959449,1.590288956436699
0.368,0.3964737443037854,0.647695672225353,-2.1328512063487457,-0.15230809382602967,0.9447568342339241,1.590289237067299
0.369,0.39677204679509265,0.6502972537206524,-2.1314758250595736,-0.15230368150073562,0.9447590540719033,1.5902895176978988
0.37,0.39707034928639984,0.6528988352159517,-2.1301004437704014,-0.15229926917544157,0.9447612739098825,1.5902897983284987
0.371,0.3973686517777071,0.6555004167112511,-2.1287250624812297,-0.15229485685014751,0.9447634937478617,1.5902900789590986
0.372,0.3976669542690143,0.6581019982065506,-2.1273496811920576,-0.15229044452485346,0.9447657135858409,1.5902903595896984
0.373,0.3979652567603215,0.66070357970185,-2.1259742999028854,-0.1522860321995594,0.9447679334238201,1.590290640220298
0.374,0.39827314202690717,0.6633342292111957,-2.1245266704960803,-0.15228196062976196,0.9447888271578482,1.5902908589176072
0.375,0.39860793277792833,0.666046492759979,-2.1228761906051523,-0.152278845796551,0.944862151446167,1.5902909037252926
0.376,0.3989427235289495,0.6687587563087624,-2.1212257107142243,-0.15227573096334004,0.9449354757344859,1.5902909485329781
0.377,0.39927751427997066,0.6714710198575458,-2.1195752308232967,-0.1522726161301291,0.9450088000228047,1.5902909933406635
0.378,0.3996123050309918,0.674183283406329,-2.1179247509323686,-0.15226950129691813,0.9450821243111236,1.5902910381483488
0.379,0.399947095782013,0.6768955469551124,-2.1162742710414406,-0.1522663864637072,0.9451554485994424,1.5902910829560342
0.38,0.4002818865330341,0.6796078105038957,-2.1146237911505126,-0.15226327163049624,0.9452287728877613,1.5902911277637195
0.381,0.40061667728405526,0.6823200740526791,-2.1129733112595845,-0.15226015679728527,0.9453020971760802,1.5902911725714048
0.382,0.4009514680350764,0.6850323376014625,-2.1113228313686565,-0.15225704196407433,0.9453754214643991,1.5902912173790902
0.383,0.4012862587860976,0.6877446011502458,-2.1096723514777285,-0.1522539271308634,0.945448745752718,1.5902912621867755
0.384,0.4016183246939897,0.6904541080281661,-2.1079947879551466,-0.15225107878162128,0.9455492404185724,1.590291290961693
0.385,0.4019362554781502,0.6931493146759841,-2.1061767280933616,-0.15224961281796767,0.9457906814178921,1.5902912365666277
0.386,0.4022541862623107,0.695844521323802,-2.1043586682315767,-0.15224814685431406,0.946032122417212,1.5902911821715626
0.387,0.40257211704647117,0.6985397279716199,-2.1025406083697917,-0.15224668089066046,0.9462735634165319,1.5902911277764973
0.388,0.40289004783063165,0.7012349346194379,-2.1007225485080068,-0.15224521492700685,0.9465150044158518,1.590291073381432
0.389,0.40320797861479213,0.7039301412672558,-2.098904488646222,-0.15224374896335321,0.9467564454151717,1.5902910189863668
0.39,0.4035259093989526,0.7066253479150738,-2.097086428784437,-0.1522422829996996,0.9469978864144916,1.5902909645913015
0.391,0.4038438401831131,0.7093205545628917,-2.095268368922652,-0.152240817036046,0.9472393274138114,1.5902909101962361
0.392,0.40416177096727357,0.7120157612107096,-2.093450309060867,-0.1522393510723924,0.9474807684131313,1.590290855801171
0.393,0.40447970175143405,0.7147109678585276,-2.0916322491990815,-0.15223788510873879,0.9477222094124512,1.5902908014061057
0.394,0.404799260541504,0.7174198941301401,-2.0897997347286554,-0.15223647779596255,0.9479754136459552,1.5902907485984459
0.395,0.4051440534231708,0.7203414745705683,-2.0877431738242884,-0.1522359795717858,0.9484109480093121,1.5902907203955698
0.396,0.40548884630483756,0.7232630550109964,-2.0856866129199214,-0.1522354813476091,0.9488464823726691,1.590290692192694
0.397,0.40583363918650434,0.7261846354514246,-2.0836300520155544,-0.15223498312343234,0.9492820167360261,1.590290663989818
0.398,0.40617843206817106,0.7291062158918529,-2.0815734911111874,-0.1522344848992556,0.949717551099383,1.590290635786942
0.399,0.40652322494983784,0.732027796332281,-2.0795169302068204,-0.15223398667507887,0.95015308546274,1.5902906075840662
0.4,0.4068680178315046,0.7349493767727092,-2.0774603693024534,-0.15223348845090212,0.950588619826097,1.5902905793811901
0.401,0.4072128107131714,0.7378709572131373,-2.0754038083980864,-0.15223299022672537,0.9510241541894539,1.590290551178314
0.402,0.4075576035948381,0.7407925376535656,-2.0733472474937193,-0.15223249200254865,0.9514596885528108,1.5902905229754383
0.403,0.4079023964765049,0.7437141180939938,-2.0712906865893523,-0.1522319937783719,0.9518952229161678,1.5902904947725622
0.404,0.40824718935817167,0.7466356985344219,-2.0692341256849858,-0.15223149555419516,0.9523307572795248,1.5902904665696862
0.405,0.40858571150273126,0.7493414550150646,-2.067171411174346,-0.15223128375702874,0.9529331495086385,1.5902904928896535
0.406,0.40892396961625477,0.7520381241710846,-2.0651084375644957,-0.15223108401994692,0.9535425673320999,1.5902905215053196
0.407,0.40926222772977827,0.7547347933271046,-2.063045463954645,-0.15223088428286513,0.9541519851555612,1.5902905501209854
0.408,0.4096004858433018,0.7574314624831248,-2.0609824903447946,-0.15223068454578334,0.9547614029790226,1.5902905787366515
0.409,0.4099387439568253,0.7601281316391448,-2.0589195167349437,-0.15223048480870155,0.9553708208024839,1.5902906073523173
0.41,0.41027700207034884,0.7628248007951649,-2.056856543125093,-0.15223028507161976,0.9559802386259454,1.5902906359679831
0.411,0.41061526018387234,0.765521469951185,-2.0547935695152426,-0.15223008533453794,0.9565896564494067,1.5902906645836492
0.412,0.41095351829739585,0.7682181391072052,-2.0527305959053916,-0.15222988559745615,0.9571990742728681,1.590290693199315
0.413,0.41129177641091935,0.7709148082632252,-2.050667622295541,-0.15222968586037436,0.9578084920963295,1.590290721814981
0.414,0.41163003452444286,0.7736114774192453,-2.0486046486856906,-0.15222948612329257,0.9584179099197908,1.590290750430647
0.415,0.4119581393675824,0.7763453038814707,-2.04644360383513,-0.15222944100288757,0.9591878842887583,1.5902906844287725
0.416,0.4122845719073646,0.7790852503706004,-2.044266406074335,-0.15222942134875878,0.959984303265221,1.5902906028428325
0.417,0.4126110044471468,0.7818251968597302,-2.04208920831354,-0.15222940169462998,0.9607807222416836,1.5902905212568925
0.418,0.41293743698692903,0.78456514334886,-2.039912010552745,-0.15222938204050118,0.9615771412181463,1.5902904396709525
0.419,0.41326386952671124,0.7873050898379897,-2.03773481279195,-0.15222936238637239,0.962373560194609,1.5902903580850125
0.42,0.41359030206649344,0.7900450363271195,-2.035557615031155,-0.15222934273224356,0.9631699791710716,1.5902902764990725
0.421,0.41391673460627565,0.7927849828162493,-2.0333804172703602,-0.15222932307811476,0.9639663981475342,1.5902901949131325
0.422,0.41424316714605786,0.7955249293053791,-2.031203219509565,-0.15222930342398597,0.9647628171239968,1.5902901133271925
0.423,0.41456959968584006,0.7982648757945089,-2.02902602174877,-0.15222928376985717,0.9655592361004595,1.5902900317412525
0.424,0.41489603222562227,0.8010048222836386,-2.026848823987975,-0.15222926411572837,0.9663556550769221,1.5902899501553127
0.425,0.41521304488217237,0.8036653290732875,-2.0246311052224213,-0.15222913882287628,0.9672166115759944,1.5902898799483336
0.426,0.4155270431760882,0.8063004151591026,-2.022400419735345,-0.15222897972563273,0.9680982200823016,1.5902898133826222
0.427,0.415841041470004,0.8089355012449175,-2.0201697342482685,-0.1522288206283892,0.9689798285886089,1.5902897468169108
0.428,0.4161550397639199,0.8115705873307326,-2.0179390487611917,-0.15222866153114567,0.9698614370949162,1.5902896802511992
0.429,0.4164690380578357,0.8142056734165477,-2.0157083632741153,-0.15222850243390212,0.9707430456012235,1.5902896136854878
0.43,0.4167830363517515,0.8168407595023627,-2.013477677787039,-0.15222834333665858,0.9716246541075307,1.5902895471197764
0.431,0.4170970346456674,0.8194758455881778,-2.011246992299962,-0.15222818423941503,0.972506262613838,1.5902894805540648
0.432,0.4174110329395832,0.8221109316739927,-2.0090163068128857,-0.1522280251421715,0.9733878711201452,1.5902894139883534
0.433,0.417725031233499,0.8247460177598078,-2.0067856213258093,-0.15222786604492797,0.9742694796264526,1.590289347422642
0.434,0.41803902952741484,0.8273811038456228,-2.004554935838733,-0.15222770694768442,0.9751510881327599,1.5902892808569304
0.435,0.4183436883331147,0.830007684053162,-2.0023075211067303,-0.15222763594189162,0.9761710302435089,1.5902892627694936
0.436,0.41864346186805534,0.8326298150320648,-2.0000513556927664,-0.15222761101470383,0.9772633314704275,1.5902892700399234
0.437,0.418943235402996,0.8352519460109674,-1.9977951902788027,-0.15222758608751605,0.9783556326973462,1.5902892773103532
0.438,0.41924300893793665,0.8378740769898702,-1.9955390248648388,-0.15222756116032823,0.9794479339242649,1.5902892845807828
0.439,0.4195427824728773,0.8404962079687728,-1.9932828594508751,-0.15222753623314045,0.9805402351511835,1.5902892918512126
0.44,0.41984255600781795,0.8431183389476755,-1.9910266940369112,-0.15222751130595266,0.9816325363781021,1.5902892991216424
0.441,0.4201423295427586,0.8457404699265781,-1.9887705286229473,-0.15222748637876488,0.9827248376050207,1.5902893063920722
0.442,0.42044210307769925,0.8483626009054809,-1.9865143632089837,-0.15222746145157706,0.9838171388319393,1.5902893136625018
0.443,0.42074187661263995,0.8509847318843835,-1.9842581977950198,-0.15222743652438928,0.984909440058858,1.5902893209329316
0.444,0.4210416501475806,0.8536068628632862,-1.982002032381056,-0.1522274115972015,0.9860017412857767,1.5902893282033614
0.445,0.42131953509309344,0.8560014504624649,-1.9799386901127747,-0.15222744238926184,0.9869831228519789,1.5902892681475993
0.446,0.421579909167064,0.8582140033578642,-1.9780296063610396,-0.1522275177567207,0.987875768689608,1.5902891542308837
0.447,0.4218402832410346,0.8604265562532636,-1.9761205226093044,-0.15222759312417955,0.9887684145272372,1.590289040314168
0.448,0.42210065731500523,0.8626391091486629,-1.9742114388575691,-0.15222766849163843,0.9896610603648662,1.5902889263974525
0.449,0.4223610313889758,0.8648516620440623,-1.972302355105834,-0.1522277438590973,0.9905537062024954,1.5902888124807368
0.45,0.4226214054629464,0.8670642149394617,-1.9703932713540988,-0.15222781922655615,0.9914463520401245,1.5902886985640212
0.451,0.422881779536917,0.8692767678348611,-1.9684841876023638,-0.15222789459401503,0.9923389978777536,1.5902885846473056
0.452,0.4231421536108876,0.8714893207302604,-1.9665751038506285,-0.1522279699614739,0.9932316437153828,1.59028847073059
0.453,0.4234025276848582,0.8737018736256598,-1.9646660200988932,-0.15222804532893275,0.9941242895530119,1.5902883568138744
0.454,0.42366290175882876,0.8759144265210592,-1.9627569363471582,-0.15222812069639163,0.9950169353906411,1.5902882428971588
0.455,0.4239211986140571,0.8781824736137,-1.960801079981409,-0.1522281514195864,0.9959333407016459,1.590288095769614
0.456,0.42417700280679455,0.8805171137430309,-1.958789096478843,-0.15222812856966422,0.9968782573807017,1.5902879087890738
0.457,0.42443280699953206,0.8828517538723617,-1.9567771129762772,-0.15222810571974207,0.9978231740597575,1.5902877218085336
0.458,0.4246886111922696,0.8851863940016924,-1.9547651294737114,-0.1522280828698199,0.9987680907388133,1.5902875348279935
0.459,0.4249444153850071,0.8875210341310232,-1.9527531459711456,-0.15222806001989775,0.9997130074178692,1.5902873478474533
0.46,0.42520021957774456,0.889855674260354,-1.9507411624685795,-0.15222803716997557,1.0006579240969249,1.5902871608669131
0.461,0.4254560237704821,0.8921903143896848,-1.9487291789660137,-0.15222801432005342,1.0016028407759807,1.590286973886373
0.462,0.4257118279632196,0.8945249545190156,-1.946717195463448,-0.15222799147013125,1.0025477574550365,1.5902867869058328
0.463,0.4259676321559571,0.8968595946483463,-1.944705211960882,-0.1522279686202091,1.0034926741340924,1.5902865999252926
0.464,0.4262234363486946,0.8991942347776771,-1.942693228458316,-0.15222794577028695,1.0044375908131482,1.5902864129447525
0.465,0.42647387016226196,0.9014293360268032,-1.9407522354958977,-0.1522277799973863,1.005445928229307,1.590286234409661
0.466,0.4267144838539182,0.9034824233235551,-1.9389410538068916,-0.15222735287961064,1.006570234993311,1.5902860713176759
0.467,0.42695509754557437,0.905535510620307,-1.9371298721178856,-0.15222692576183502,1.007694541757315,1.5902859082256908
0.468,0.4271957112372306,0.9075885979170589,-1.9353186904288795,-0.1522264986440594,1.0088188485213192,1.5902857451337056
0.469,0.42743632492888683,0.9096416852138106,-1.9335075087398734,-0.15222607152628378,1.0099431552853233,1.5902855820417205
0.47,0.427676938620543,0.9116947725105625,-1.9316963270508674,-0.15222564440850814,1.0110674620493274,1.5902854189497353
0.471,0.42791755231219925,0.9137478598073144,-1.9298851453618613,-0.15222521729073252,1.0121917688133315,1.5902852558577503
0.472,0.4281581660038555,0.9158009471040663,-1.9280739636728552,-0.1522247901729569,1.0133160755773356,1.590285092765765
0.473,0.4283987796955117,0.9178540344008183,-1.9262627819838491,-0.15222436305518128,1.0144403823413395,1.59028492967378
0.474,0.42863939338716794,0.91990712169757,-1.924451600294843,-0.15222393593740563,1.0155646891053436,1.5902847665817947
0.475,0.4288675621152812,0.9219394750427635,-1.9226957967945035,-0.1522235059547143,1.0167952114998586,1.590284616886317
0.476,0.4290588937513073,0.9239104558913436,-1.9211039127326175,-0.15222306749187242,1.018340132160686,1.5902845068445006
0.477,0.4292502253873334,0.9258814367399237,-1.9195120286707315,-0.15222262902903055,1.0198850528215135,1.5902843968026845
0.478,0.42944155702335945,0.9278524175885039,-1.9179201446088452,-0.1522221905661887,1.0214299734823409,1.5902842867608682
0.479,0.4296328886593856,0.9298233984370841,-1.9163282605469592,-0.15222175210334682,1.0229748941431684,1.5902841767190519
0.48,0.4298242202954117,0.9317943792856642,-1.914736376485073,-0.15222131364050495,1.0245198148039958,1.5902840666772358
0.481,0.43001555193143776,0.9337653601342443,-1.913144492423187,-0.15222087517766308,1.0260647354648231,1.5902839566354194
0.482,0.43020688356746384,0.9357363409828244,-1.9115526083613008,-0.15222043671482122,1.0276096561256507,1.5902838465936031
0.483,0.43039821520349,0.9377073218314046,-1.9099607242994148,-0.15221999825197935,1.029154576786478,1.590283736551787
0.484,0.43058954683951606,0.9396783026799848,-1.9083688402375287,-0.1522195597891375,1.0306994974473054,1.5902836265099707
0.485,0.43078190667361793,0.9416146773844118,-1.9067776351122467,-0.15221924922258942,1.0322968199647782,1.5902835371137056
0.486,0.4309800244169441,0.9433572576815815,-1.9051902320319476,-0.15221965487528666,1.0341875928794644,1.5902835633325265
0.487,0.43117814216027023,0.9450998379787513,-1.9036028289516485,-0.1522200605279839,1.0360783657941508,1.5902835895513474
0.488,0.4313762599035964,0.946842418275921,-1.9020154258713493,-0.15222046618068114,1.037969138708837,1.5902836157701683
0.489,0.4315743776469226,0.9485849985730908,-1.9004280227910502,-0.15222087183337837,1.0398599116235234,1.5902836419889892
0.49,0.43177249539024876,0.9503275788702605,-1.898840619710751,-0.1522212774860756,1.0417506845382096,1.5902836682078103
0.491,0.43197061313357493,0.9520701591674302,-1.8972532166304519,-0.15222168313877282,1.043641457452896,1.5902836944266312
0.492,0.4321687308769011,0.9538127394646,-1.8956658135501527,-0.15222208879147006,1.0455322303675822,1.590283720645452
0.493,0.4323668486202273,0.9555553197617697,-1.8940784104698536,-0.1522224944441673,1.0474230032822687,1.590283746864273
0.494,0.43256496636355346,0.9572979000589394,-1.8924910073895544,-0.15222290009686454,1.0493137761969549,1.5902837730830939
0.495,0.4327606400350071,0.9590350452296756,-1.890895208137076,-0.152223321018352,1.0512184687115296,1.5902838072651702
0.496,0.43291036515525716,0.9606700100234619,-1.8891415608476279,-0.1522240289930962,1.0533848497040041,1.5902839911564433
0.497,0.43306009027550724,0.9623049748172481,-1.8873879135581795,-0.15222473696784036,1.0555512306964787,1.5902841750477166
0.498,0.43320981539575726,0.9639399396110342,-1.8856342662687313,-0.15222544494258453,1.0577176116889533,1.59028435893899
0.499,0.43335954051600734,0.9655749044048204,-1.8838806189792832,-0.15222615291732872,1.059883992681428,1.5902845428302632
0.5,0.43350926563625736,0.9672098691986066,-1.8821269716898348,-0.15222686089207288,1.0620503736739026,1.5902847267215363
0.501,0.43365899075650743,0.9688448339923927,-1.8803733244003866,-0.15222756886681704,1.0642167546663772,1.5902849106128096
0.502,0.4338087158767575,0.970479798786179,-1.8786196771109382,-0.15222827684156123,1.0663831356588518,1.590285094504083
0.503,0.43395844099700753,0.9721147635799652,-1.87686602982149,-0.1522289848163054,1.0685495166513264,1.5902852783953563
0.504,0.4341081661172576,0.9737497283737513,-1.875112382532042,-0.15222969279104956,1.070715897643801,1.5902854622866296
0.505,0.4342578912375077,0.9753846931675375,-1.8733587352425936,-0.15223040076579375,1.0728822786362757,1.5902856461779027
0.506,0.4343413766346468,0.97665319689065,-1.871898444016351,-0.15223057666032055,1.0746070508248127,1.5902858681128358
0.507,0.4344213386422587,0.9779022080036204,-1.8704537568360238,-0.15223072425270817,1.076308333183353,1.5902860920713677
0.508,0.43450130064987064,0.9791512191165906,-1.8690090696556962,-0.1522308718450958,1.0780096155418932,1.5902863160298994
0.509,0.43458126265748254,0.9804002302295609,-1.867564382475369,-0.1522310194374834,1.0797108979004335,1.5902865399884314
0.51,0.43466122466509444,0.9816492413425312,-1.8661196952950416,-0.152231167029871,1.0814121802589738,1.5902867639469633
0.511,0.4347411866727064,0.9828982524555016,-1.8646750081147143,-0.1522313146222586,1.0831134626175138,1.5902869879054953
0.512,0.4348211486803183,0.9841472635684718,-1.863230320934387,-0.15223146221464623,1.0848147449760541,1.590287211864027
0.513,0.4349011106879302,0.9853962746814421,-1.8617856337540595,-0.15223160980703385,1.0865160273345944,1.590287435822559
0.514,0.43498107269554215,0.9866452857944125,-1.8603409465737322,-0.15223175739942144,1.0882173096931347,1.5902876597810909
0.515,0.43506103470315405,0.9878942969073827,-1.8588962593934049,-0.15223190499180905,1.089918592051675,1.5902878837396226
0.516,0.4351415860194906,0.9890442411498754,-1.857515857748595,-0.15223170572764017,1.0912751191378305,1.590287912238271
0.517,0.43522224256952796,0.990176494879783,-1.8561469356636993,-0.15223144452480045,1.0925700827824887,1.5902879058333685
0.518,0.4353028991195653,0.9913087486096904,-1.8547780135788035,-0.15223118332196076,1.0938650464271469,1.590287899428466
0.519,0.4353835556696027,0.992441002339598,-1.8534090914939076,-0.15223092211912106,1.0951600100718049,1.5902878930235635
0.52,0.43546421221964,0.9935732560695054,-1.8520401694090118,-0.15223066091628135,1.096454973716463,1.5902878866186612
0.521,0.43554486876967735,0.9947055097994129,-1.850671247324116,-0.15223039971344166,1.0977499373611213,1.5902878802137586
0.522,0.4356255253197147,0.9958377635293204,-1.8493023252392202,-0.15223013851060196,1.0990449010057795,1.5902878738088562
0.523,0.4357061818697521,0.9969700172592278,-1.8479334031543244,-0.15222987730776225,1.1003398646504376,1.5902878674039538
0.524,0.43578683841978944,0.9981022709891354,-1.8465644810694286,-0.15222961610492255,1.1016348282950958,1.5902878609990514
0.525,0.4358674949698268,0.9992345247190428,-1.8451955589845328,-0.15222935490208284,1.1029297919397538,1.5902878545941488
0.526,0.43595621686213476,1.0003647587796733,-1.8437008391019876,-0.152229165840242,1.1041520006455687,1.5902878445165052
0.527,0.43604766353223684,1.001494310519602,-1.8421636199634797,-0.15222900115036017,1.1053496299801528,1.5902878331980705
0.528,0.436139110202339,1.0026238622595307,-1.8406264008249718,-0.15222883646047836,1.1065472593147367,1.590287821879636
0.529,0.43623055687244106,1.0037534139994595,-1.8390891816864638,-0.15222867177059654,1.1077448886493209,1.5902878105612013
0.53,0.43632200354254314,1.0048829657393883,-1.8375519625479557,-0.15222850708071475,1.1089425179839048,1.5902877992427669
0.531,0.4364134502126452,1.0060125174793169,-1.8360147434094478,-0.15222834239083294,1.1101401473184889,1.5902877879243322
0.532,0.43650489688274735,1.0071420692192457,-1.83447752427094,-0.15222817770095112,1.111337776653073,1.5902877766058976
0.533,0.43659634355284943,1.0082716209591744,-1.832940305132432,-0.15222801301106934,1.1125354059876569,1.590287765287463
0.534,0.4366877902229515,1.0094011726991032,-1.831403085993924,-0.15222784832118752,1.113733035322241,1.5902877539690283
0.535,0.43677923689305365,1.010530724439032,-1.8298658668554162,-0.1522276836313057,1.1149306646568249,1.5902877426505937
0.536,0.4368830636360214,1.0115847700506584,-1.8285404746934975,-0.15222768917713692,1.1159518814792058,1.5902877628381618
0.537,0.4369936607313376,1.0125975232483697,-1.827330925409401,-0.15222778782062368,1.1168766227089755,1.5902878002555751
0.538,0.43710425782665385,1.013610276446081,-1.8261213761253043,-0.15222788646411045,1.1178013639387452,1.5902878376729885
0.539,0.4372148549219701,1.0146230296437924,-1.824911826841208,-0.15222798510759725,1.118726105168515,1.5902878750904017
0.54,0.4373254520172863,1.0156357828415037,-1.8237022775571115,-0.15222808375108401,1.1196508463982846,1.590287912507815
0.541,0.43743604911260253,1.016648536039215,-1.822492728273015,-0.15222818239457078,1.1205755876280543,1.5902879499252283
0.542,0.4375466462079187,1.0176612892369263,-1.8212831789889186,-0.15222828103805755,1.121500328857824,1.5902879873426417
0.543,0.43765724330323497,1.0186740424346377,-1.8200736297048221,-0.15222837968154432,1.122425070087594,1.590288024760055
0.544,0.43776784039855116,1.019686795632349,-1.8188640804207257,-0.15222847832503109,1.1233498113173637,1.5902880621774682
0.545,0.4378784374938674,1.0206995488300603,-1.8176545311366292,-0.15222857696851788,1.1242745525471334,1.5902880995948816
0.546,0.437974613962276,1.021714970043078,-1.8164725611565706,-0.15222866834883803,1.1252069239041105,1.590288108460787
0.547,0.43805877324159503,1.0227326146021847,-1.815313573929877,-0.15222875367651933,1.1261456537004273,1.590288093533769
0.548,0.438142932520914,1.023750259161291,-1.8141545867031832,-0.15222883900420064,1.1270843834967441,1.590288078606751
0.549,0.438227091800233,1.0247679037203974,-1.8129955994764895,-0.15222892433188195,1.128023113293061,1.5902880636797332
0.55,0.438311251079552,1.0257855482795037,-1.811836612249796,-0.15222900965956326,1.128961843089378,1.5902880487527153
0.551,0.438395410358871,1.0268031928386103,-1.8106776250231023,-0.15222909498724457,1.1299005728856948,1.5902880338256975
0.552,0.43847956963818996,1.0278208373977167,-1.8095186377964085,-0.15222918031492585,1.1308393026820116,1.5902880188986794
0.553,0.438563728917509,1.028838481956823,-1.808359650569715,-0.15222926564260716,1.1317780324783284,1.5902880039716616
0.554,0.438647888196828,1.0298561265159296,-1.8072006633430213,-0.15222935097028847,1.1327167622746452,1.5902879890446437
0.555,0.43873204747614697,1.030873771075036,-1.8060416761163276,-0.15222943629796978,1.133655492070962,1.590287974117626
0.556,0.43882567045227105,1.0318130748091994,-1.8049385263111088,-0.1522299241062276,1.1345141711952667,1.5902879654815862
0.557,0.4389311230494016,1.0326544525121837,-1.8039051732827338,-0.152230915015206,1.135272786979556,1.5902879647092696
0.558,0.4390365756465321,1.0334958302151682,-1.8028718202543588,-0.15223190592418442,1.1360314027638456,1.5902879639369527
0.559,0.4391420282436626,1.0343372079181528,-1.8018384672259837,-0.15223289683316285,1.136790018548135,1.590287963164636
0.56,0.4392474808407931,1.035178585621137,-1.800805114197609,-0.15223388774214128,1.1375486343324244,1.5902879623923194
0.561,0.43935293343792364,1.0360199633241216,-1.7997717611692339,-0.15223487865111968,1.1383072501167137,1.5902879616200025
0.562,0.43945838603505416,1.0368613410271061,-1.7987384081408588,-0.1522358695600981,1.1390658659010031,1.5902879608476859
0.563,0.4395638386321847,1.0377027187300905,-1.7977050551124838,-0.15223686046907653,1.1398244816852925,1.5902879600753692
0.564,0.4396692912293152,1.038544096433075,-1.7966717020841088,-0.15223785137805493,1.1405830974695819,1.5902879593030523
0.565,0.4397747438264457,1.0393854741360593,-1.7956383490557337,-0.15223884228703335,1.1413417132538715,1.5902879585307357
0.566,0.4398741866388977,1.0402547224828171,-1.7946477614269976,-0.15224146712980846,1.1421386212849647,1.5902879039146818
0.567,0.4399621401571112,1.0411772529426713,-1.7937389311799234,-0.15224721566954788,1.1430087350820066,1.5902877463620717
0.568,0.44005009367532477,1.0420997834025254,-1.7928301009328496,-0.15225296420928727,1.1438788488790483,1.5902875888094616
0.569,0.44013804719353833,1.0430223138623793,-1.7919212706857754,-0.15225871274902666,1.1447489626760903,1.5902874312568516
0.57,0.4402260007117519,1.0439448443222334,-1.7910124404387016,-0.15226446128876606,1.1456190764731322,1.5902872737042415
0.571,0.44031395422996544,1.0448673747820876,-1.7901036101916274,-0.15227020982850545,1.146489190270174,1.5902871161516314
0.572,0.44040190774817894,1.0457899052419415,-1.7891947799445536,-0.15227595836824487,1.1473593040672159,1.5902869585990214
0.573,0.4404898612663925,1.0467124357017956,-1.7882859496974794,-0.15228170690798426,1.1482294178642578,1.5902868010464113
0.574,0.44057781478460606,1.0476349661616497,-1.7873771194504056,-0.15228745544772365,1.1490995316612995,1.5902866434938012
0.575,0.4406657683028196,1.0485574966215037,-1.7864682892033314,-0.15229320398746304,1.1499696454583415,1.5902864859411912
0.576,0.44075026137649526,1.0494518012973864,-1.7855729956136221,-0.15230083772244682,1.1507948530782754,1.590286336668591
0.577,0.4408239405609899,1.0502579003983583,-1.7847200040781765,-0.1523143626925692,1.1514797288947474,1.5902862132710218
0.578,0.4408976197454845,1.0510639994993303,-1.7838670125427312,-0.15232788766269162,1.1521646047112193,1.5902860898734528
0.579,0.44097129892997916,1.051870098600302,-1.7830140210072858,-0.15234141263281403,1.1528494805276912,1.5902859664758837
0.58,0.4410449781144738,1.052676197701274,-1.7821610294718402,-0.15235493760293642,1.153534356344163,1.5902858430783144
0.581,0.44111865729896843,1.053482296802246,-1.7813080379363948,-0.15236846257305883,1.1542192321606348,1.5902857196807454
0.582,0.4411923364834631,1.0542883959032179,-1.7804550464009494,-0.15238198754318125,1.1549041079771067,1.5902855962831763
0.583,0.44126601566795776,1.0550944950041896,-1.779602054865504,-0.15239551251330363,1.1555889837935787,1.590285472885607
0.584,0.4413396948524524,1.0559005941051616,-1.7787490633300584,-0.15240903748342605,1.1562738596100504,1.590285349488038
0.585,0.441413374036947,1.0567066932061335,-1.777896071794613,-0.15242256245354846,1.1569587354265223,1.5902852260904687
0.586,0.44148684819664014,1.0575036210243118,-1.7770607836784673,-0.1524351659753138,1.1576541497366035,1.590285111464115
0.587,0.44155907756289525,1.0582448660541015,-1.776332980608069,-0.15244217498919713,1.158413547757884,1.5902850500915675
0.588,0.44163130692915037,1.0589861110838912,-1.7756051775376707,-0.1524491840030804,1.1591729457791649,1.5902849887190202
0.589,0.4417035362954055,1.0597273561136806,-1.7748773744672723,-0.15245619301696373,1.1599323438004454,1.590284927346473
0.59,0.4417757656616606,1.0604686011434703,-1.774149571396874,-0.152463202030847,1.1606917418217262,1.5902848659739257
0.591,0.4418479950279157,1.06120984617326,-1.7734217683264757,-0.15247021104473032,1.1614511398430067,1.5902848046013782
0.592,0.4419202243941709,1.0619510912030494,-1.7726939652560774,-0.1524772200586136,1.1622105378642873,1.590284743228831
0.593,0.441992453760426,1.062692336232839,-1.771966162185679,-0.15248422907249692,1.162969935885568,1.5902846818562837
0.594,0.4420646831266811,1.0634335812626285,-1.7712383591152807,-0.1524912380863802,1.1637293339068486,1.5902846204837364
0.595,0.44213691249293624,1.0641748262924182,-1.7705105560448826,-0.15249824710026352,1.1644887319281294,1.590284559111189
0.596,0.44220853107099656,1.0649170083643145,-1.7697827262384989,-0.1525053594103643,1.1652545552944176,1.5902845046316558
0.597,0.4422656434294296,1.0656814451862462,-1.7690542614524645,-0.15251492500563088,1.1661729806046355,1.590284613861208
0.598,0.4423227557878626,1.0664458820081777,-1.76832579666643,-0.15252449060089743,1.1670914059148536,1.59028472309076
0.599,0.4423798681462957,1.0672103188301094,-1.7675973318803957,-0.152534056196164,1.1680098312250715,1.5902848323203123
0.6,0.44243698050472874,1.067974755652041,-1.766868867094361,-0.15254362179143055,1.1689282565352896,1.5902849415498643
0.601,0.4424940928631618,1.0687391924739724,-1.7661404023083267,-0.15255318738669713,1.1698466818455076,1.5902850507794164
0.602,0.44255120522159486,1.0695036292959041,-1.7654119375222923,-0.15256275298196367,1.1707651071557257,1.5902851600089687
0.603,0.4426083175800279,1.0702680661178356,-1.764683472736258,-0.15257231857723025,1.1716835324659436,1.5902852692385208
0.604,0.442665429938461,1.0710325029397672,-1.7639550079502235,-0.1525818841724968,1.1726019577761617,1.5902853784680728
0.605,0.442722542296894,1.0717969397616989,-1.763226543164189,-0.15259144976776334,1.1735203830863796,1.590285487697625
0.606,0.44277965465532704,1.0725613765836304,-1.7624980783781545,-0.15260101536302992,1.1744388083965978,1.5902855969271772
0.607,0.44284366754236415,1.0732547324301804,-1.7618552693869978,-0.15261644257585574,1.1751250006158156,1.590285632129728
0.608,0.44290812562479503,1.073943502407351,-1.761217986576156,-0.15263224795755637,1.1757962100549693,1.5902856625563435
0.609,0.4429725837072259,1.0746322723845214,-1.7605807037653138,-0.152648053339257,1.1764674194941227,1.590285692982959
0.61,0.4430370417896568,1.075321042361692,-1.7599434209544718,-0.15266385872095758,1.1771386289332761,1.5902857234095744
0.611,0.4431014998720877,1.0760098123388626,-1.7593061381436297,-0.1526796641026582,1.1778098383724296,1.5902857538361899
0.612,0.4431659579545186,1.076698582316033,-1.7586688553327878,-0.15269546948435883,1.178481047811583,1.5902857842628053
0.613,0.4432304160369495,1.0773873522932036,-1.7580315725219458,-0.15271127486605945,1.1791522572507367,1.5902858146894208
0.614,0.4432948741193804,1.078076122270374,-1.7573942897111037,-0.15272708024776008,1.1798234666898901,1.5902858451160362
0.615,0.4433593322018113,1.0787648922475446,-1.7567570069002616,-0.15274288562946067,1.1804946761290436,1.5902858755426517
0.616,0.44342379028424217,1.079453662224715,-1.7561197240894197,-0.1527586910111613,1.181165885568197,1.5902859059692669
0.617,0.4434900743580642,1.0801565906690314,-1.7555404210272663,-0.15278297071079575,1.181876538740112,1.5902859378583345
0.618,0.44355671043022676,1.0808622484564117,-1.7549722947841373,-0.15280888401388731,1.1825947955231615,1.5902859700293204
0.619,0.44362334650238927,1.081567906243792,-1.7544041685410086,-0.15283479731697888,1.1833130523062112,1.5902860022003065
0.62,0.4436899825745518,1.0822735640311725,-1.7538360422978796,-0.15286071062007045,1.184031309089261,1.5902860343712923
0.621,0.4437566186467143,1.0829792218185528,-1.7532679160547506,-0.15288662392316205,1.1847495658723106,1.5902860665422784
0.622,0.44382325471887685,1.083684879605933,-1.7526997898116217,-0.15291253722625361,1.18546782265536,1.5902860987132643
0.623,0.44388989079103935,1.0843905373933136,-1.7521316635684927,-0.15293845052934518,1.1861860794384098,1.5902861308842504
0.624,0.44395652686320186,1.085096195180694,-1.7515635373253637,-0.15296436383243675,1.1869043362214595,1.5902861630552363
0.625,0.4440231629353644,1.0858018529680742,-1.7509954110822348,-0.15299027713552832,1.1876225930045092,1.5902861952262222
0.626,0.44408979900752693,1.0865075107554547,-1.7504272848391058,-0.1530161904386199,1.1883408497875587,1.5902862273972083
0.627,0.44413536758590033,1.0871602296240455,-1.7498049187010034,-0.1530290094897433,1.1887914620535798,1.5902863543188928
0.628,0.44417343267333514,1.087794093535259,-1.7491632342441432,-0.15303716483468624,1.1891467488751797,1.5902865149874013
0.629,0.44421149776076996,1.0884279574464726,-1.7485215497872832,-0.15304532017962919,1.1895020356967796,1.5902866756559098
0.63,0.4442495628482048,1.0890618213576861,-1.747879865330423,-0.15305347552457213,1.1898573225183793,1.5902868363244183
0.631,0.44428762793563964,1.0896956852689,-1.7472381808735629,-0.15306163086951508,1.1902126093399792,1.590286996992927
0.632,0.44432569302307445,1.0903295491801135,-1.746596496416703,-0.15306978621445802,1.190567896161579,1.5902871576614355
0.633,0.44436375811050927,1.090963413091327,-1.7459548119598427,-0.153077941559401,1.1909231829831788,1.590287318329944
0.634,0.4444018231979441,1.0915972770025406,-1.7453131275029827,-0.15308609690434394,1.1912784698047787,1.5902874789984527
0.635,0.4444398882853789,1.0922311409137542,-1.7446714430461225,-0.15309425224928688,1.1916337566263786,1.5902876396669612
0.636,0.4444779533728137,1.0928650048249677,-1.7440297585892626,-0.15310240759422983,1.1919890434479783,1.5902878003354697
0.637,0.4445053126104691,1.093405363916781,-1.743467255823828,-0.15311319408906654,1.1923244134525761,1.5902878763856663
0.638,0.4445265542196791,1.0938922916832223,-1.7429499997392084,-0.1531254840981283,1.192648402418887,1.5902879040825415
0.639,0.44454779582888915,1.0943792194496638,-1.7424327436545886,-0.15313777410719004,1.1929723913851977,1.590287931779417
0.64,0.44456903743809917,1.0948661472161052,-1.741915487569969,-0.1531500641162518,1.1932963803515086,1.5902879594762924
0.641,0.4445902790473092,1.0953530749825466,-1.7413982314853491,-0.1531623541253135,1.1936203693178193,1.5902879871731677
0.642,0.4446115206565192,1.095840002748988,-1.7408809754007295,-0.15317464413437526,1.1939443582841303,1.5902880148700431
0.643,0.44463276226572923,1.0963269305154293,-1.7403637193161097,-0.153186934143437,1.194268347250441,1.5902880425669184
0.644,0.44465400387493925,1.0968138582818707,-1.73984646323149,-0.15319922415249876,1.1945923362167519,1.5902880702637938
0.645,0.4446752454841493,1.0973007860483122,-1.7393292071468702,-0.15321151416156048,1.1949163251830628,1.590288097960669
0.646,0.4446964870933593,1.0977877138147536,-1.7388119510622506,-0.15322380417062223,1.1952403141493735,1.5902881256575445
0.647,0.4447135279932324,1.0982480757219257,-1.7383318949529898,-0.1532613853947075,1.1956373187227176,1.590288160746844
0.648,0.44472692299443567,1.0986853804682226,-1.737884125614795,-0.1533209174846622,1.1960976953323548,1.5902882022522096
0.649,0.444740317995639,1.0991226852145195,-1.7374363562766002,-0.1533804495746169,1.196558071941992,1.5902882437575752
0.65,0.4447537129968423,1.0995599899608164,-1.7369885869384054,-0.15343998166457162,1.1970184485516293,1.5902882852629407
0.651,0.44476710799804564,1.0999972947071133,-1.7365408176002108,-0.15349951375452633,1.1974788251612665,1.5902883267683063
0.652,0.44478050299924893,1.1004345994534102,-1.736093048262016,-0.15355904584448105,1.1979392017709036,1.5902883682736717
0.653,0.44479389800045227,1.100871904199707,-1.7356452789238213,-0.15361857793443576,1.1983995783805408,1.5902884097790373
0.654,0.44480729300165556,1.101309208946004,-1.7351975095856265,-0.15367811002439047,1.198859954990178,1.5902884512844029
0.655,0.44482068800285884,1.101746513692301,-1.734749740247432,-0.15373764211434518,1.199320331599815,1.5902884927897685
0.656,0.4448340830040622,1.102183818438598,-1.734301970909237,-0.1537971742042999,1.1997807082094525,1.590288534295134
0.657,0.4448518971156013,1.1026260257158296,-1.7338669523874055,-0.15384144136747147,1.2000273907485466,1.5902885224580556
0.658,0.44487546634757774,1.1030746176845114,-1.7334485395799073,-0.1538658286259952,1.1999957740329803,1.5902884411517475
0.659,0.44489903557955424,1.1035232096531933,-1.733030126772409,-0.15389021588451895,1.199964157317414,1.5902883598454394
0.66,0.4449226048115307,1.103971801621875,-1.7326117139649109,-0.1539146031430427,1.1999325406018477,1.5902882785391312
0.661,0.44494617404350717,1.1044203935905568,-1.7321933011574127,-0.15393899040156644,1.1999009238862814,1.590288197232823
0.662,0.4449697432754836,1.1048689855592386,-1.7317748883499144,-0.1539633776600902,1.1998693071707152,1.5902881159265152
0.663,0.44499331250746005,1.1053175775279205,-1.7313564755424162,-0.15398776491861393,1.1998376904551489,1.590288034620207
0.664,0.44501688173943654,1.1057661694966021,-1.730938062734918,-0.15401215217713768,1.1998060737395826,1.590287953313899
0.665,0.445040450971413,1.106214761465284,-1.7305196499274198,-0.15403653943566142,1.1997744570240163,1.5902878720075908
0.666,0.4450640202033895,1.1066633534339658,-1.7301012371199216,-0.15406092669418517,1.19974284030845,1.5902877907012827
0.667,0.44508615433553,1.1070803771610518,-1.7296932080574083,-0.1540757294489986,1.1996769199475146,1.590287741037767
0.668,0.4451054182679987,1.107434264404946,-1.7293059464848652,-0.15407136319639145,1.199542392295841,1.590287754659836
0.669,0.44512468220046747,1.1077881516488401,-1.7289186849123224,-0.15406699694378428,1.1994078646441675,1.590287768281905
0.67,0.4451439461329362,1.1081420388927343,-1.7285314233397793,-0.15406263069117712,1.199273336992494,1.590287781903974
0.671,0.4451632100654049,1.1084959261366285,-1.7281441617672362,-0.15405826443856996,1.1991388093408204,1.590287795526043
0.672,0.4451824739978736,1.108849813380523,-1.727756900194693,-0.15405389818596282,1.1990042816891469,1.590287809148112
0.673,0.44520173793034234,1.109203700624417,-1.72736963862215,-0.15404953193335566,1.198869754037473,1.5902878227701809
0.674,0.44522100186281105,1.1095575878683113,-1.726982377049607,-0.1540451656807485,1.1987352263857995,1.59028783639225
0.675,0.44524026579527975,1.1099114751122054,-1.726595115477064,-0.15404079942814133,1.198600698734126,1.590287850014319
0.676,0.44525952972774846,1.1102653623560996,-1.726207853904521,-0.15403643317553417,1.1984661710824525,1.590287863636388
0.677,0.44528052546831115,1.1105975313954095,-1.725859642843288,-0.15403253855638177,1.1983350708815754,1.5902878874827089
0.678,0.4453072437051843,1.110857935932614,-1.7256404682542104,-0.15403020237821033,1.1982152961702872,1.590287945113515
0.679,0.44533396194205743,1.1111183404698186,-1.7254212936651327,-0.15402786620003886,1.1980955214589988,1.590288002744321
0.68,0.4453606801789306,1.1113787450070232,-1.7252021190760551,-0.15402553002186742,1.1979757467477106,1.5902880603751268
0.681,0.44538739841580377,1.1116391495442275,-1.7249829444869775,-0.15402319384369595,1.1978559720364221,1.590288118005933
0.682,0.4454141166526769,1.111899554081432,-1.7247637698979,-0.15402085766552448,1.197736197325134,1.5902881756367389
0.683,0.44544083488955005,1.1121599586186366,-1.7245445953088223,-0.15401852148735304,1.1976164226138457,1.590288233267545
0.684,0.44546755312642317,1.1124203631558411,-1.7243254207197447,-0.15401618530918157,1.1974966479025573,1.5902882908983509
0.685,0.44549427136329633,1.1126807676930457,-1.724106246130667,-0.15401384913101013,1.197376873191269,1.5902883485291568
0.686,0.4455209896001695,1.1129411722302502,-1.7238870715415895,-0.15401151295283866,1.1972570984799806,1.590288406159963
0.687,0.44554560505625795,1.1132040619010681,-1.7236613492223398,-0.15400917099749067,1.1971430131632554,1.5902884652892677
0.688,0.44555630980869393,1.1134833916865585,-1.723392311149645,-0.15400679082389804,1.1970665653797943,1.590288534331719
0.689,0.44556701456112996,1.1137627214720491,-1.72312327307695,-0.15400441065030537,1.1969901175963331,1.59028860337417
0.69,0.445577719313566,1.1140420512575397,-1.722854235004255,-0.15400203047671274,1.1969136698128717,1.5902886724166214
0.691,0.44558842406600196,1.1143213810430304,-1.7225851969315602,-0.15399965030312007,1.1968372220294106,1.5902887414590727
0.692,0.445599128818438,1.1146007108285207,-1.7223161588588651,-0.1539972701295274,1.1967607742459492,1.5902888105015238
0.693,0.44560983357087397,1.1148800406140114,-1.7220471207861703,-0.15399488995593477,1.196684326462488,1.5902888795439751
0.694,0.44562053832331,1.115159370399502,-1.7217780827134752,-0.1539925097823421,1.1966078786790268,1.5902889485864264
0.695,0.445631243075746,1.1154387001849926,-1.7215090446407804,-0.15399012960874947,1.1965314308955655,1.5902890176288775
0.696,0.445641947828182,1.115718029970483,-1.7212400065680855,-0.1539877494351568,1.1964549831121043,1.5902890866713288
0.697,0.44565227490967363,1.1159949683954904,-1.7209731503522538,-0.1539854572572487,1.1963819059112661,1.590289154273252
0.698,0.44565051652094545,1.1161953832850333,-1.7207761135560538,-0.15398598094124544,1.1964166873543662,1.5902891757782778
0.699,0.44564875813221727,1.116395798174576,-1.7205790767598534,-0.1539865046252422,1.1964514687974666,1.5902891972833038
0.7,0.44564699974348904,1.116596213064119,-1.7203820399636534,-0.15398702830923897,1.1964862502405669,1.5902892187883295
0.701,0.44564524135476086,1.1167966279536619,-1.720185003167453,-0.15398755199323572,1.1965210316836672,1.5902892402933553
0.702,0.4456434829660327,1.1169970428432048,-1.7199879663712527,-0.15398807567723247,1.1965558131267675,1.590289261798381
0.703,0.4456417245773045,1.1171974577327477,-1.7197909295750526,-0.15398859936122922,1.1965905945698676,1.590289283303407
0.704,0.44563996618857626,1.1173978726222904,-1.7195938927788523,-0.153989123045226,1.196625376012968,1.5902893048084328
0.705,0.4456382077998481,1.1175982875118333,-1.719396855982652,-0.15398964672922275,1.1966601574560682,1.5902893263134585
0.706,0.4456364494111199,1.1177987024013762,-1.719199819186452,-0.1539901704132195,1.1966949388991686,1.5902893478184843
0.707,0.4456346910223917,1.1179991172909192,-1.7190027823902516,-0.15399069409721625,1.1967297203422689,1.59028936932351
0.708,0.44563623563010024,1.118143649153564,-1.718860724636204,-0.1539911878849432,1.1967771099803095,1.5902894543704835
0.709,0.445638031552755,1.1182839290467708,-1.7187228500701464,-0.153991679397954,1.1968254589375307,1.5902895442521703
0.71,0.4456398274754098,1.1184242089399776,-1.7185849755040885,-0.15399217091096476,1.1968738078947518,1.590289634133857
0.711,0.4456416233980646,1.1185644888331845,-1.7184471009380309,-0.15399266242397552,1.1969221568519728,1.590289724015544
0.712,0.44564341932071944,1.1187047687263914,-1.718309226371973,-0.15399315393698632,1.196970505809194,1.5902898138972308
0.713,0.4456452152433742,1.1188450486195982,-1.7181713518059154,-0.15399364544999708,1.197018854766415,1.5902899037789175
0.714,0.445647011166029,1.118985328512805,-1.7180334772398576,-0.15399413696300787,1.197067203723636,1.5902899936606043
0.715,0.4456488070886838,1.1191256084060117,-1.7178956026738,-0.15399462847601864,1.1971155526808572,1.590290083542291
0.716,0.44565060301133863,1.1192658882992186,-1.7177577281077423,-0.1539951199890294,1.1971639016380782,1.590290173423978
0.717,0.4456523989339934,1.1194061681924254,-1.7176198535416844,-0.1539956115020402,1.1972122505952993,1.5902902633056648
0.718,0.4456523285416019,1.1194740856916225,-1.7175033136538096,-0.15399441549522505,1.1972478265966804,1.5902902795229708
0.719,0.4456518712302375,1.119527001231086,-1.7173911968089726,-0.1539928696367387,1.197280754546241,1.590290280468393
0.72,0.445651413918873,1.1195799167705494,-1.7172790799641355,-0.15399132377825234,1.1973136824958017,1.5902902814138151
0.721,0.4456509566075085,1.1196328323100126,-1.7171669631192987,-0.15398977791976598,1.1973466104453623,1.5902902823592373
0.722,0.44565049929614403,1.1196857478494762,-1.7170548462744617,-0.15398823206127962,1.1973795383949228,1.5902902833046595
0.723,0.44565004198477953,1.1197386633889395,-1.7169427294296247,-0.15398668620279327,1.1974124663444836,1.5902902842500817
0.724,0.4456495846734151,1.1197915789284028,-1.7168306125847876,-0.15398514034430688,1.1974453942940442,1.5902902851955039
0.725,0.4456491273620506,1.1198444944678663,-1.7167184957399508,-0.15398359448582052,1.1974783222436047,1.590290286140926
0.726,0.4456486700506861,1.1198974100073296,-1.7166063788951138,-0.15398204862733417,1.1975112501931655,1.5902902870863482
0.727,0.44564821273932165,1.119950325546793,-1.7164942620502768,-0.1539805027688478,1.197544178142726,1.5902902880317704
0.728,0.44564859268948803,1.1199616990804129,-1.7164270923145266,-0.15398121534843964,1.197557854517188,1.5902903163544886
0.729,0.4456492866127285,1.1199574943618418,-1.716376777744684,-0.15398277484231077,1.197564311550988,1.5902903549436929
0.73,0.445649980535969,1.1199532896432705,-1.7163264631748412,-0.1539843343361819,1.1975707685847878,1.590290393532897
0.731,0.4456506744592095,1.1199490849246991,-1.7162761486049984,-0.153985893830053,1.197577225618588,1.5902904321221012
0.732,0.44565136838245,1.1199448802061278,-1.7162258340351557,-0.15398745332392413,1.1975836826523878,1.5902904707113055
0.733,0.4456520623056905,1.1199406754875567,-1.716175519465313,-0.15398901281779528,1.1975901396861877,1.5902905093005095
0.734,0.44565275622893097,1.1199364707689854,-1.7161252048954703,-0.1539905723116664,1.1975965967199875,1.5902905478897138
0.735,0.44565345015217145,1.119932266050414,-1.7160748903256275,-0.15399213180553753,1.1976030537537876,1.590290586478918
0.736,0.44565414407541193,1.1199280613318428,-1.7160245757557848,-0.15399369129940865,1.1976095107875875,1.5902906250681221
0.737,0.4456548379986524,1.1199238566132717,-1.715974261185942,-0.15399525079327978,1.1976159678213874,1.5902906636573264
0.738,0.4456557711399343,1.119927458149125,-1.7159016674325027,-0.15399759630596535,1.197620336112927,1.5902908128075288
0.739,0.44565684704036995,1.1199357182561673,-1.7158157780372396,-0.15400041089439503,1.1976234578969882,1.5902910279376816
0.74,0.44565792294080553,1.1199439783632097,-1.7157298886419763,-0.15400322548282472,1.1976265796810497,1.5902912430678344
0.741,0.44565899884124116,1.1199522384702518,-1.715643999246713,-0.15400604007125437,1.1976297014651112,1.5902914581979875
0.742,0.4456600747416768,1.1199604985772942,-1.7155581098514499,-0.15400885465968406,1.1976328232491726,1.5902916733281403
0.743,0.4456611506421124,1.1199687586843365,-1.7154722204561865,-0.15401166924811374,1.197635945033234,1.590291888458293
0.744,0.445662226542548,1.119977018791379,-1.7153863310609232,-0.1540144838365434,1.1976390668172954,1.590292103588446
0.745,0.44566330244298363,1.119985278898421,-1.7153004416656599,-0.15401729842497308,1.1976421886013568,1.5902923187185989
0.746,0.44566437834341927,1.1199935390054634,-1.7152145522703968,-0.15402011301340277,1.197645310385418,1.5902925338487517
0.747,0.4456654542438549,1.1200017991125057,-1.7151286628751334,-0.15402292760183242,1.1976484321694796,1.5902927489789045
0.748,0.44566650336539876,1.1199990493514023,-1.715054619489405,-0.15402429109780758,1.1976504135137165,1.590292964787491
0.749,0.44566752828294426,1.1199863483633212,-1.7149912830738332,-0.15402434302944884,1.1976513640758044,1.5902931812092769
0.75,0.44566855320048976,1.1199736473752402,-1.7149279466582612,-0.15402439496109008,1.1976523146378921,1.590293397631063
0.751,0.4456695781180353,1.119960946387159,-1.7148646102426892,-0.15402444689273131,1.19765326519998,1.590293614052849
0.752,0.4456706030355808,1.119948245399078,-1.7148012738271172,-0.15402449882437258,1.197654215762068,1.5902938304746348
0.753,0.44567162795312637,1.1199355444109966,-1.7147379374115452,-0.15402455075601382,1.1976551663241557,1.5902940468964208
0.754,0.44567265287067187,1.1199228434229156,-1.7146746009959735,-0.15402460268765508,1.1976561168862436,1.5902942633182067
0.755,0.4456736777882174,1.1199101424348343,-1.7146112645804015,-0.15402465461929632,1.1976570674483316,1.5902944797399927
0.756,0.4456747027057629,1.1198974414467533,-1.7145479281648295,-0.15402470655093756,1.1976580180104193,1.5902946961617788
0.757,0.4456757276233085,1.119884740458672,-1.7144845917492575,-0.15402475848257882,1.1976589685725072,1.5902949125835646
0.758,0.4456757637525185,1.1198635041696308,-1.7144371050965623,-0.1540247429410163,1.1976595682728057,1.5902950367663629
0.759,0.4456744579547018,1.1198306842578578,-1.7144111288363426,-0.15402463582867726,1.197659691803533,1.5902950357676773
0.76,0.445673152156885,1.1197978643460846,-1.714385152576123,-0.1540245287163382,1.1976598153342601,1.590295034768992
0.761,0.4456718463590683,1.1197650444343117,-1.7143591763159032,-0.15402442160399918,1.1976599388649871,1.5902950337703066
0.762,0.4456705405612516,1.1197322245225385,-1.7143332000556835,-0.15402431449166012,1.1976600623957143,1.5902950327716212
0.763,0.44566923476343484,1.1196994046107656,-1.7143072237954637,-0.1540242073793211,1.1976601859264415,1.5902950317729359
0.764,0.44566792896561813,1.1196665846989924,-1.7142812475352438,-0.15402410026698204,1.1976603094571687,1.5902950307742503
0.765,0.44566662316780137,1.1196337647872194,-1.714255271275024,-0.154023993154643,1.197660432987896,1.590295029775565
0.766,0.44566531736998466,1.1196009448754463,-1.7142292950148044,-0.15402388604230396,1.1976605565186231,1.5902950287768796
0.767,0.44566401157216795,1.1195681249636733,-1.7142033187545846,-0.1540237789299649,1.1976606800493503,1.5902950277781942
0.768,0.4456633650675867,1.1195307406477335,-1.7141839323105523,-0.15402385725541562,1.1976611183345136,1.5902950452527005
0.769,0.44566409895821724,1.1194837996105702,-1.7141783432941622,-0.15402432384123863,1.1976622156367775,1.590295101405452
0.77,0.4456648328488478,1.1194368585734067,-1.7141727542777723,-0.1540247904270616,1.1976633129390415,1.5902951575582038
0.771,0.4456655667394783,1.1193899175362434,-1.7141671652613821,-0.15402525701288458,1.1976644102413054,1.5902952137109554
0.772,0.44566630063010887,1.1193429764990799,-1.7141615762449922,-0.1540257235987076,1.1976655075435694,1.590295269863707
0.773,0.44566703452073936,1.1192960354619166,-1.714155987228602,-0.15402619018453056,1.1976666048458333,1.5902953260164585
0.774,0.4456677684113699,1.119249094424753,-1.7141503982122122,-0.15402665677035357,1.1976677021480973,1.59029538216921
0.775,0.44566850230200045,1.1192021533875898,-1.714144809195822,-0.15402712335617655,1.1976687994503612,1.5902954383219619
0.776,0.445669236192631,1.1191552123504263,-1.714139220179432,-0.15402758994199953,1.1976698967526251,1.5902954944747134
0.777,0.44566997008326154,1.1191082713132627,-1.714133631163042,-0.15402805652782253,1.197670994054889,1.590295550627465
0.778,0.4456708188744978,1.1190637850463137,-1.714130783214081,-0.15402842217392207,1.197671835075243,1.5902955906029925
0.779,0.44567206981785396,1.1190278904751148,-1.7141375290011223,-0.15402843453098955,1.1976717791089129,1.5902955739582356
0.78,0.44567332076121013,1.1189919959039158,-1.7141442747881632,-0.15402844688805703,1.1976717231425826,1.5902955573134787
0.781,0.44567457170456637,1.1189561013327167,-1.7141510205752044,-0.1540284592451245,1.1976716671762524,1.590295540668722
0.782,0.44567582264792255,1.1189202067615178,-1.7141577663622456,-0.154028471602192,1.1976716112099222,1.5902955240239651
0.783,0.4456770735912787,1.118884312190319,-1.7141645121492866,-0.15402848395925947,1.1976715552435917,1.5902955073792084
0.784,0.4456783245346349,1.1188484176191198,-1.7141712579363277,-0.15402849631632698,1.1976714992772615,1.5902954907344515
0.785,0.4456795754779911,1.118812523047921,-1.714178003723369,-0.15402850867339446,1.1976714433109312,1.5902954740896946
0.786,0.44568082642134726,1.118776628476722,-1.7141847495104099,-0.15402852103046194,1.197671387344601,1.590295457444938
0.787,0.4456820773647035,1.1187407339055229,-1.714191495297451,-0.15402853338752942,1.1976713313782708,1.590295440800181
0.788,0.4456832105249183,1.1187067860962037,-1.7141981119292495,-0.15402853164436944,1.1976712495599093,1.5902954236986517
0.789,0.4456834897573586,1.1186869523105116,-1.7142037921855386,-0.1540284276745605,1.1976709803143233,1.5902954032855219
0.79,0.4456837689897989,1.1186671185248198,-1.7142094724418278,-0.15402832370475153,1.197670711068737,1.5902953828723922
0.791,0.44568404822223917,1.1186472847391278,-1.7142151526981169,-0.15402821973494255,1.1976704418231507,1.5902953624592624
0.792,0.44568432745467945,1.118627450953436,-1.714220832954406,-0.1540281157651336,1.1976701725775645,1.5902953420461325
0.793,0.44568460668711973,1.118607617167744,-1.714226513210695,-0.15402801179532463,1.1976699033319784,1.590295321633003
0.794,0.44568488591956,1.1185877833820521,-1.714232193466984,-0.15402790782551565,1.1976696340863922,1.590295301219873
0.795,0.4456851651520003,1.11856794959636,-1.714237873723273,-0.1540278038557067,1.1976693648408059,1.5902952808067432
0.796,0.4456854443844406,1.1185481158106683,-1.7142435539795622,-0.15402769988589773,1.1976690955952198,1.5902952603936136
0.797,0.44568572361688086,1.1185282820249762,-1.7142492342358513,-0.15402759591608878,1.1976688263496336,1.5902952399804837
0.798,0.44568601990639717,1.1185085804177528,-1.7142548966538032,-0.15402749362272625,1.19766855800468,1.590295219563588
0.799,0.4456871434641005,1.1184952894662534,-1.7142596939124013,-0.15402747263701685,1.1976683333404103,1.5902951989640368
0.8,0.44568826702180386,1.1184819985147538,-1.7142644911709992,-0.15402745165130746,1.197668108676141,1.5902951783644859
0.801,0.44568939057950724,1.1184687075632542,-1.7142692884295974,-0.15402743066559807,1.1976678840118713,1.5902951577649347
0.802,0.44569051413721056,1.1184554166117548,-1.7142740856881953,-0.15402740967988865,1.1976676593476017,1.5902951371653837
0.803,0.44569163769491393,1.1184421256602552,-1.7142788829467932,-0.15402738869417926,1.1976674346833323,1.5902951165658328
0.804,0.44569276125261725,1.1184288347087556,-1.7142836802053913,-0.15402736770846986,1.1976672100190626,1.5902950959662816
0.805,0.44569388481032063,1.1184155437572563,-1.7142884774639893,-0.15402734672276047,1.197666985354793,1.5902950753667306
0.806,0.44569500836802395,1.1184022528057567,-1.7142932747225874,-0.15402732573705105,1.1976667606905236,1.5902950547671797
0.807,0.4456961319257273,1.1183889618542573,-1.7142980719811853,-0.15402730475134166,1.197666536026254,1.5902950341676285
0.808,0.44569725548343064,1.1183756709027577,-1.7143028692397833,-0.15402728376563227,1.1976663113619843,1.5902950135680776
0.809,0.44569760635295397,1.1183679056125255,-1.7143044804344885,-0.15402728911993108,1.1976663001472516,1.590295005391904
0.81,0.44569788929384613,1.1183606260947123,-1.7143058115356644,-0.154027296789835,1.1976663076973133,1.5902949983078956
0.811,0.44569817223473823,1.118353346576899,-1.7143071426368404,-0.15402730445973895,1.197666315247375,1.590294991223887
0.812,0.44569845517563034,1.1183460670590861,-1.7143084737380165,-0.15402731212964285,1.1976663227974367,1.5902949841398786
0.813,0.4456987381165225,1.118338787541273,-1.7143098048391925,-0.15402731979954679,1.1976663303474984,1.5902949770558699
0.814,0.4456990210574146,1.1183315080234597,-1.7143111359403684,-0.15402732746945072,1.19766633789756,1.5902949699718614
