chms-raf/raf-v2/scripts/LFD/trajectories/traj9.txt
time,joint_1,joint_2,joint_3,joint_4,joint_5,joint_6,X,Y,Z,gripper
0.169386,1.9707392066586363e-05,0.2600014045234529,-2.2700516152565324,-1.9707392066692364e-05,0.9599549904676646,1.5700762080361392,0.6533417853350711,0.0013321872244940153,0.42389971557019246,0.004385974332503347
0.219433,1.9707392066586363e-05,0.2600014045234529,-2.270051082624314,-1.9707392066692364e-05,0.9599549904676646,1.5700762080361392,0.6533418597824816,0.0013321872228467485,0.4239003010370922,0.004385974332503347
0.270189,1.9707392066586363e-05,0.2600009551150189,-2.2700500173598783,-1.9707392066692364e-05,0.9599549904676646,1.5700762080361392,0.6533418597824816,0.0013321872228467485,0.4239003010370922,0.004385974332503347
0.320264,1.9174759848570515e-05,0.2600009551150189,-2.270051082624314,-1.9707392066692364e-05,0.9599549904676646,1.5700762080361392,0.6533417214095114,0.001332883208505534,0.42390000918236204,0.004385974332503347
0.370579,1.8642127630554666e-05,0.26000048906182816,-2.2700505499920967,-1.9707392066692364e-05,0.9599549904676646,1.5700762080361392,0.6533418583650724,0.001332883204693772,0.4239003010319791,0.004385974332503347
0.420368,1.8642127630554666e-05,0.2600014045234529,-2.2700505499920967,-1.9174759849249767e-05,0.9599549904676646,1.5700762080361392,0.6533417839176621,0.0013328832062617332,0.4238997155650794,0.004385974332503347
0.470313,1.9174759848570515e-05,0.2600009551150189,-2.2700500173598783,-1.9707392066692364e-05,0.9599549904676646,1.5700762080361392,0.6533419960292755,0.001332535209885742,0.42390059288422627,0.004385974332503347
0.520283,1.9174759848570515e-05,0.2600009551150189,-2.2700500173598783,-1.9707392066692364e-05,0.9599549904676646,1.5700762080361392,0.6533419967378874,0.0013321872188890944,0.4239005928867827,0.004385974332503347
0.610908,1.9707392066586363e-05,0.2600009551150189,-2.2700505499920967,-1.9707392066692364e-05,0.9599549904676646,1.5700762080361392,0.6533417231192007,0.0013318665752147828,0.42390000939762174,0.004385974332503347
0.699246,2.0240024284602208e-05,0.2600009551150189,-2.2700505499920967,-2.0772656503353915e-05,0.9599549904676646,1.5700771401425209,0.6533422696920651,0.0013283903591461998,0.4239007386255052,0.004385974332503347
0.745674,2.5566346464760685e-05,0.26000187057664365,-2.270048685779334,-3.2490565298637364e-05,0.9599549904676646,1.5700771401425209,0.6533426086931756,0.001324511476373219,0.42390057924564967,0.004385974332503347
0.835257,2.6098978682776533e-05,0.2600023199850776,-2.270048419463225,-3.2490565298637364e-05,0.9599549904676646,1.5700771401425209,0.653343097320015,0.001319827243366941,0.4239016008574151,0.004385974332503347
0.923369,3.568635860706179e-05,0.26000599847633327,-2.270044158405481,-3.302319751785632e-05,0.9599549904676646,1.5700771401425209,0.6533448484565446,0.0013108887242642355,0.423900935112022,0.004385974332503347
0.970301,5.006742849348968e-05,0.26000691393795794,-2.270039098399409,-4.3675841877366395e-05,0.9599549904676646,1.5700771401425209,0.6533472589854348,0.0013006675196218808,0.423905593783613,0.004385974332503347
1.054829,6.178533728983833e-05,0.2600087448612074,-2.270030043651703,-4.953479627545221e-05,0.9599559891530735,1.570078072248902,0.6533518512525704,0.0012801192937943063,0.42391341427624935,0.004385974332503347
1.142869,9.587379924285257e-05,0.2600161018437187,-2.270013798369053,-7.13727172145795e-05,0.959956921259455,1.5700819338324827,0.6533575288215785,0.001150275426033829,0.423908883345771,0.004385974332503347
1.186950,0.0005262406313996575,0.2600418179929948,-2.270005542569675,-0.00016724651645727562,0.959956921259455,1.5701742123642541,0.6533624408299064,0.0007038435836001268,0.42388762081210624,0.004385974332503347
1.282844,0.001984161512545203,0.26046334645928393,-2.2700042109891294,-0.00024447818806905275,0.9599607162640084,1.5703216183305897,0.653487292922994,-0.0016553505003981772,0.42329523665884966,0.004385974332503347
1.370958,0.007583062001351005,0.26124902891512775,-2.2700042109891294,-0.0020719393280819176,0.9599654433749433,1.570380607348735,0.6535121498288132,-0.0078023724740015335,0.42296166884311587,0.004385974332503347
1.419970,0.014769841471309015,0.261522702006647,-2.2699983520347313,-0.005858954398174632,0.9599702370649054,1.5703900615706048,0.6534452883137943,-0.012546048843125154,0.4229313156803721,0.004385974332503347
1.507287,0.020642419602934777,0.261548867564357,-2.2699592035667076,-0.009514941942635247,0.9599711691712869,1.570392991047804,0.6534162446373053,-0.02057841265549526,0.4231998733169762,0.004385974332503347
1.603386,0.03410127009338185,0.2618569953024792,-2.268178081429662,-0.018325744093053764,0.9599693049585238,1.5703987168441478,0.6535308934909901,-0.03270479179196921,0.42421263911370977,0.004385974332503347
1.694898,0.04939228802883016,0.2624511798311895,-2.265959668241626,-0.027755464880805825,0.9599673741667336,1.5704015131632922,0.6533448698613737,-0.046402555485742444,0.4242182670482565,0.004385974332503347
1.744522,0.06151811404158409,0.2641809528934664,-2.264768436286034,-0.03643470687337391,0.9599616483703899,1.5704063068532546,0.6531841424042475,-0.053714235303839813,0.42345827438443134,0.004385974332503347
1.834919,0.06996582746688357,0.2663809236909536,-2.2642344724874723,-0.04363749235760306,0.9599616483703899,1.5704091031723988,0.6529240406963135,-0.06540564804761131,0.42093254801769314,0.004385974332503347
1.930969,0.08734524223371239,0.27397592622472333,-2.263203562829503,-0.05916744993829148,0.9599597841576267,1.5704129647559797,0.6523432536514567,-0.08192366252827948,0.41463805877014515,0.004385974332503347
2.015016,0.10513792966745104,0.28542765207011855,-2.263145772233848,-0.07635389371700807,0.9599549904676646,1.570413896862361,0.6516978508563127,-0.09473118815058501,0.40830407776409666,0.004385974332503347
2.062941,0.11437912361716122,0.2921635188362287,-2.2631463048660665,-0.08397852391790472,0.9599549904676646,1.570413896862361,0.6511955283362554,-0.10311513194611459,0.40365766439149986,0.004385974332503347
2.151244,0.12867599600125057,0.30293840229058033,-2.2631452396016307,-0.09507165512252058,0.9599559891530735,1.5704129647559797,0.6498385232426328,-0.12021360046963642,0.3934322170974593,0.004385974332503347
2.247261,0.14836284011555131,0.3188562159945248,-2.2631444406533037,-0.10981225175610998,0.9599549904676646,1.5704148289687427,0.6477878895876974,-0.13810450877658487,0.3823555361799349,0.004385974332503347
2.294426,0.16385910870844989,0.3314361900357321,-2.2631439080210853,-0.12183642407781736,0.9599511954631114,1.5704157610751244,0.6464464866462563,-0.14738304925817391,0.37652468561071095,0.004385974332503347
2.378931,0.17431211585555176,0.34011716308300893,-2.2631439080210853,-0.1301327035056321,0.9599445375603861,1.5704157610751244,0.6440412072389681,-0.16153435401533428,0.36743291149679136,0.004385974332503347
2.475038,0.19645561788453128,0.3582344815312498,-2.2631439080210853,-0.14498462027278602,0.9595782863314729,1.5704166931815058,0.6403754014165179,-0.17969875175376188,0.35448196869519827,0.004385974332503347
2.519407,0.21379922145707697,0.37201341069521077,-2.2631431090727583,-0.1513421184270225,0.9573779160598223,1.5704166931815058,0.6384491910015517,-0.18817933154523647,0.3474188071192887,0.004385974332503347
2.610887,0.22617300025088485,0.38164030527217013,-2.263138315382796,-0.15392591731661742,0.9555209604107372,1.5704157610751244,0.635216059325865,-0.20113350719268558,0.33672374317793047,0.004385974332503347
2.698956,0.2529263176134939,0.40127985330998667,-2.26311035219135,-0.15553393398280768,0.9524615875294815,1.570413896862361,0.6299262217794532,-0.21946160119274122,0.32245726391857693,0.004385974332503347
2.744636,0.2750376786170675,0.41672012894096633,-2.2628307202768916,-0.15601809666898347,0.9508719466748131,1.570413896862361,0.6269088064670024,-0.22933649312816218,0.3154597279640667,0.004385974332503347
2.834850,0.2912089753225171,0.42726494856664876,-2.262090894126068,-0.15625085694825724,0.9503468378868768,1.570413896862361,0.6218860192681008,-0.2453781415723641,0.30561718611865757,0.004385974332503347
2.926993,0.3252679760559723,0.44909850857901346,-2.2579440859927056,-0.15635258970189891,0.9498901723389555,1.5704148289687427,0.6161432317671344,-0.26671753509550733,0.293759710755023,0.004385974332503347
3.015584,0.3559818134336927,0.47286432512028526,-2.247497037668543,-0.15638774342828654,0.9496922994699626,1.5704823401023762,0.6135479156327688,-0.2812335629470768,0.28591361262495835,0.004385974332503347
3.063185,0.36910866760474775,0.4855769911628057,-2.23994644334595,-0.15637762341614447,0.9496875723590277,1.571369039587318,0.6129304557554328,-0.289767408454917,0.281168893019402,0.004385974332503347
3.151208,0.384942924629491,0.5065931937471114,-2.2260114529421102,-0.15547374654217183,0.94966280496089,1.57575353484797,0.6143522385730613,-0.303010775427755,0.27067852610942084,0.004385974332503347
3.239147,0.39628259797202114,0.5298070701524643,-2.2107006735191357,-0.15389449201575456,0.9496466262572677,1.5780529081331445,0.6169083004983951,-0.30968336057548373,0.2613341347325093,0.004385974332503347
3.331165,0.403885423541493,0.563269156617092,-2.1910603931120196,-0.15274933274702107,0.9496447620445048,1.5788776891227418,0.620797637865784,-0.31414594492879516,0.24528457404456108,0.004385974332503347
3.419157,0.40509306722730304,0.5997283645724947,-2.1765834494263485,-0.15246757030369018,0.949648557049058,1.5790746298853533,0.6228314296402135,-0.31493972209706766,0.22998916653579612,0.004385974332503347
3.507139,0.4046807100220179,0.6278900280985649,-2.169651507424981,-0.15239832811534804,0.9496694628636152,1.5790955356999103,0.6236526089519457,-0.31456070512738105,0.20707040159820891,0.004385974332503347
3.595323,0.4036870513297957,0.6668283727127224,-2.1627038527731823,-0.15233814067471219,0.9496818465626841,1.5791079193989794,0.6235908546372543,-0.31411623272636047,0.1889739312227569,0.004385974332503347
3.683189,0.4036227359894703,0.6965407283625185,-2.1553982692708775,-0.15232589013369768,0.9496989573726878,1.579110715718124,0.6239686730188952,-0.31498710085403964,0.16626352665904554,0.004385974332503347
3.771171,0.4063742141591993,0.7373144570209313,-2.1404829692697795,-0.15230138905166957,0.9498511570289858,1.5791116478245053,0.6248409094886456,-0.31857519883786195,0.14534446867310885,0.004385974332503347
3.820224,0.40987920046985254,0.7676637076454199,-2.1258563559308463,-0.1523077806382851,0.9512515137091768,1.5791097836117425,0.6260407496782945,-0.32098704011224954,0.1364217575467916,0.004385974332503347
3.906811,0.4121889267937647,0.7882982792455173,-2.1140942386604022,-0.15231044379937497,0.9539494290514815,1.5791097836117425,0.6291458468965498,-0.3248440146219628,0.12440808341276631,0.004385974332503347
3.994842,0.4154923450994126,0.8288144802265195,-2.0855816370816873,-0.15231523748933817,0.9618785251440016,1.5791079193989794,0.6365874749897366,-0.33044827502571344,0.11349015705475816,0.004385974332503347
4.045319,0.4169475296085455,0.8568966483940509,-2.0594091551528244,-0.1523184332826455,0.9714106444756677,1.5791068541345434,0.6417937480329354,-0.3334080096374437,0.11041103413996131,0.004385974332503347
4.135464,0.4174030300234899,0.8741800978154745,-2.0401568973165327,-0.1523232269726087,0.9775113473217941,1.5791068541345434,0.6504330187398807,-0.3382532112000248,0.10755014666938864,0.004385974332503347
4.223227,0.41911580878906074,0.905340280991892,-1.9974416576444245,-0.15233441224918565,0.9849924331399357,1.5791068541345434,0.6629348058158877,-0.3461785989333645,0.10591701806633683,0.004385974332503347
4.270212,0.4219471817914921,0.9276582367170285,-1.9625441273522446,-0.15232961855922422,0.9873944712851326,1.5791068541345434,0.6687574660753417,-0.35080230084568004,0.10501389541218736,0.004385974332503347
4.354801,0.42461643486256495,0.9425002332091219,-1.93959886403234,-0.15232961855922422,0.9882877620937724,1.5791059220281618,0.6766907199650314,-0.35818178321213506,0.10295912787024558,0.004385974332503347
4.443056,0.4309560232584713,0.9727259131590306,-1.8955597669823527,-0.15233174908809666,0.9911131096942375,1.5790973999126736,0.6833356962172202,-0.365617238789375,0.10043068344681189,0.004385974332503347
4.487252,0.4345175018737478,0.9874906779795117,-1.8754960439619142,-0.1523232269726087,0.9957336276064978,1.579096467806292,0.687318087442893,-0.3707067243339115,0.10003113503250541,0.004385974332503347
4.575176,0.4394225785484831,1.007188549245201,-1.8481083616276486,-0.15231949854708215,1.0098509779659806,1.5790973999126736,0.6957922019058176,-0.3804406636896156,0.10507231891227561,0.004385974332503347
4.620351,0.44309377940067096,1.0237014795842374,-1.8232930265902905,-0.15232216170817203,1.0319441628951145,1.579096467806292,0.6999100007529426,-0.38471130611966836,0.10996650368729871,0.004385974332503347
4.707355,0.44483365583033335,1.032247896417438,-1.8088610903270421,-0.15232589013369768,1.0479317847091325,1.5790973999126736,0.7054946616666217,-0.3897312756444034,0.11801259339631182,0.004385974332503347
4.799176,0.44617771994298266,1.0437024185819777,-1.7853879884790835,-0.15232375960482614,1.0740099241563792,1.5790973999126736,0.712068046989132,-0.39373230713364926,0.12833508639177577,0.004385974332503347
4.890978,0.44616853203722195,1.0506903535452639,-1.7680699845425156,-0.15233174908809666,1.0906216577718575,1.5790973999126736,0.7152168143413379,-0.3955185472318732,0.13269502690139223,0.004385974332503347
4.935223,0.4461772538897919,1.053754054063291,-1.76239958194952,-0.15233814067471219,1.0951708029669036,1.5790973999126736,0.7164977374589468,-0.3962559432802877,0.13373991961131773,0.004385974332503347
5.023223,0.44638481400725,1.0589544087238887,-1.7566151960618672,-0.1523354775136223,1.0986458952943208,1.5790973999126736,0.7168525103995328,-0.3976472260859178,0.13106738660848616,0.004385974332503347
5.069437,0.4480732248488466,1.0653977272442536,-1.7537240683824766,-0.15231470485712073,1.1000814057009007,1.5790955356999103,0.7162733358966771,-0.39839695985366663,0.12839116151833946,0.004385974332503347
5.155087,0.44897876619850074,1.070114984483111,-1.7522390897586488,-0.15231044379937497,1.1021438242280852,1.5790916741163297,0.7158457073089245,-0.3996882457945379,0.12647035004203008,0.004385974332503347
5.243484,0.4509395185510716,1.0792432354354666,-1.7471295488912233,-0.15230991116715753,1.1192778703123554,1.5790907420099485,0.716578534213535,-0.40187471918501116,0.13043618930120565,0.004385974332503347
5.287243,0.45184685753446163,1.0831399061634432,-1.7427337351959382,-0.15231044379937497,1.1361244947359785,1.5790955356999103,0.7178731311396408,-0.40371842254045825,0.1365885484652159,0.004385974332503347
5.375209,0.452772139565696,1.0884835388906875,-1.7336928359273367,-0.15232375960482614,1.1631301466118726,1.5791049899217802,0.7210579529092424,-0.4067770466178852,0.1481703817430097,0.004385974332503347
5.420254,0.4529966773351033,1.094869466289561,-1.7236271522712743,-0.15233441224918565,1.1848941648302727,1.5791059220281618,0.7225148380603411,-0.40780283049609656,0.15219356676709936,0.004385974332503347
5.507196,0.4530058652408641,1.0994250696502506,-1.7173900289983086,-0.1523354775136223,1.1969662740516018,1.5791059220281618,0.7242305427958198,-0.40897747169108856,0.1558655793547548,0.004385974332503347
5.595203,0.45298978640578275,1.1094951475221129,-1.7073919896339325,-0.15233174908809666,1.213337257904537,1.5791031257090171,0.7251214676301967,-0.4096267265603095,0.15459485535712988,0.004385974332503347
5.687206,0.45296774874776236,1.1175667893119794,-1.7031916519626602,-0.15232589013369768,1.219150672248071,1.5791021936026355,0.7250268991085921,-0.4096365913163473,0.151004184454035,0.004385974332503347
5.775475,0.4529424820069202,1.1261564159338664,-1.7007047921367437,-0.1523248248692628,1.2221710963983843,1.579100196231818,0.7244859643333742,-0.4093644024002183,0.14635204021754192,0.004385974332503347
5.820330,0.45287590297966823,1.130243569258811,-1.7006041246475387,-0.1523184332826455,1.2228161140144016,1.579100196231818,0.724266494818498,-0.4091999014880073,0.14484685799926283,0.004385974332503347
5.907234,0.4528258688406884,1.131651049894918,-1.7006163751885532,-0.15231630275377306,1.223188024460631,1.5791021936026355,0.7241563764604171,-0.40910671783152913,0.1441169282994695,0.004385974332503347
5.995213,0.4526623840392711,1.1320955314808523,-1.7007431416564405,-0.15231044379937497,1.2233163888251728,1.5791059220281618,0.7242147111446198,-0.4088800757586577,0.14402875854327574,0.004385974332503347
6.083237,0.4524934064681056,1.1312675546979467,-1.7015964184697019,-0.15230991116715753,1.2233459499132726,1.5791135120372686,0.7241212176096908,-0.4087835097759859,0.14509613719202508,0.004385974332503347
6.171268,0.4524672409103956,1.1294532762053302,-1.7025636785776195,-0.15231363959268407,1.2233554041351424,1.5791135120372686,0.7240742698100479,-0.4087672796816967,0.1457323826211346,0.004385974332503347
6.220294,0.45247090275689444,1.1287687106471251,-1.7028933779205708,-0.15231736801820972,1.223352607815998,1.579112579930887,0.7240649022237291,-0.4087670946438082,0.1459662585930531,0.004385974332503347
6.307374,0.45246401182757384,1.128376027544393,-1.7030148180662783,-0.15231630275377306,1.223352607815998,1.579112579930887,0.7241086699346876,-0.4087093993723003,0.1462162365329307,0.004385974332503347
6.399207,0.45232992166668834,1.1280633724324178,-1.7032108267225086,-0.15231150906381163,1.223350743603235,1.5791116478245053,0.7241033146748834,-0.4086639563861718,0.14630002751784285,0.004385974332503347
6.445282,0.45234693260815123,1.127973890219791,-1.703307765786187,-0.15231470485712073,1.223349678338799,1.5791116478245053,0.724093105738701,-0.40866849292795737,0.14630654729548911,0.004385974332503347
6.531169,0.45235012840145933,1.1279118385663922,-1.7033226794882923,-0.15231523748933817,1.2233487462324173,1.5791116478245053,0.7241145260851422,-0.4086757454888013,0.14645720179459892,0.004385974332503347
6.618889,0.4523437035253295,1.1277533804815325,-1.70333652792596,-0.15231363959268407,1.2233487462324173,1.579110715718124,0.7241175755162117,-0.40867215382438,0.14647377077163073,0.004385974332503347
6.662899,0.4523450683953882,1.1277479210012977,-1.7033413216159223,-0.1523125743282483,1.2233487462324173,1.579110715718124,0.7241127720579039,-0.4086770124521386,0.14647225357133736,0.004385974332503347
6.751162,0.45235565446072123,1.127737401514992,-1.7033455826736663,-0.15231470485712073,1.2233487462324173,1.579110715718124,0.7241096157536411,-0.4086813617125802,0.14647682774550147,0.004385974332503347
6.839101,0.45235425630114895,1.1277364694086105,-1.7033519742602827,-0.15231363959268407,1.2233478141260359,1.579110715718124,0.7241106286182495,-0.40867807054312666,0.14647831250839494,0.004385974332503347
6.927386,0.4523528914310903,1.1277327409830844,-1.703356767950245,-0.1523125743282483,1.2233478141260359,1.579110715718124,0.7241074231723147,-0.40868118173256307,0.14647679663201615,0.004385974332503347
7.019179,0.4523602484136017,1.1277314094025392,-1.703361029007989,-0.15231470485712073,1.2233478141260359,1.5791116478245053,0.7241060721361064,-0.40868218907574655,0.14647666106778381,0.09649123981184207
7.107190,0.45235608722439835,1.1277314094025392,-1.7033626269046422,-0.1523125743282483,1.2233478141260359,1.5791116478245053,0.7241072389727504,-0.4086798276078745,0.14647697902818452,0.2938596484685003
7.195189,0.4523689702661717,1.1277304772961578,-1.7033679532268229,-0.15233281435253243,1.2233487462324173,1.5791116478245053,0.7240942598599773,-0.40870521047831354,0.14648985498916645,0.48245612276526645
7.283164,0.4523772260655509,1.1277111693782547,-1.7033642248012972,-0.15229659536170814,1.2233459499132726,1.5791135120372686,0.72410238966415,-0.4086869163163532,0.14648387728633205,0.5833333106835685
7.371200,0.4523634442069097,1.1276959893600413,-1.7033732795490035,-0.1523003237872329,1.223349678338799,1.579112579930887,0.7241037912499724,-0.4086855791228492,0.14649622797889683,0.6535087474157341
7.420412,0.4523652751301592,1.127698253046968,-1.7033759427100934,-0.15230884590272176,1.2233459499132726,1.5791097836117425,0.7241047118168296,-0.40868481290599734,0.14649676831400874,0.6535087474157341
7.507181,0.45236667328973146,1.1276978535728044,-1.7033764753423108,-0.15230884590272176,1.2233459499132726,1.5791097836117425,0.7241032776573711,-0.4086870189542775,0.14649627544398433,0.6535087474157341
7.595140,0.45236667328973146,1.127698785679186,-1.7033764753423108,-0.15231044379937497,1.2233459499132726,1.5791116478245053,0.7241037954623797,-0.4086864412444564,0.14649652018403642,0.6535087474157341
7.683187,0.4523685042129809,1.127698253046968,-1.7033759427100934,-0.15230991116715753,1.2233459499132726,1.5791116478245053,0.7241033784322803,-0.40868706793108533,0.14649618866310427,0.6535087474157341
7.771191,0.45236757210659934,1.1276991851533493,-1.7033759427100934,-0.15230991116715753,1.2233459499132726,1.5791116478245053,0.7241035313855262,-0.40868716193775423,0.14649677526905946,0.6535087474157341
7.820392,0.45236757210659934,1.1276997177855674,-1.7033759427100934,-0.15230991116715753,1.2233459499132726,1.5791116478245053,0.7241034626418904,-0.40868710885787574,0.14649599137362052,0.6535087474157341
7.910906,0.45236757210659934,1.1276997177855674,-1.703375410077875,-0.15230991116715753,1.2233468820196542,1.5791116478245053,0.724103121701346,-0.40868737320172827,0.14649574663133283,0.6535087474157341
7.994943,0.45236757210659934,1.1277006498919488,-1.703375410077875,-0.15230991116715753,1.2233459499132726,1.5791116478245053,0.7241033466848489,-0.40868705250777704,0.14649521781362065,0.6535087474157341
8.044504,0.45236757210659934,1.1277006498919488,-1.703375410077875,-0.15230991116715753,1.2233459499132726,1.5791116478245053,0.7241033466848489,-0.40868705250777704,0.14649521781362065,0.6535087474157341
8.134964,0.45236757210659934,1.1277006498919488,-1.703375410077875,-0.15230991116715753,1.2233459499132726,1.5791116478245053,0.7241033466848489,-0.40868705250777704,0.14649521781362065,0.6535087474157341
8.223217,0.45236757210659934,1.1277010493661126,-1.703375410077875,-0.15230991116715753,1.2233459499132726,1.5791116478245053,0.7241032307271589,-0.4086869961573634,0.1464944442537406,0.6535087474157341
8.270369,0.45236757210659934,1.1277015819983305,-1.703375410077875,-0.15230991116715753,1.2233459499132726,1.5791116478245053,0.7241032307271589,-0.4086869961573634,0.1464944442537406,0.6535087474157341
8.359140,0.45236757210659934,1.1277015819983305,-1.7033748774456576,-0.15230991116715753,1.2233468820196542,1.5791116478245053,0.7241034499427237,-0.40868712236464844,0.1464954728936598,0.6535087474157341
8.451241,0.4523671393429222,1.127701981472494,-1.7033748774456576,-0.15230991116715753,1.2233468820196542,1.5791116478245053,0.7241033339852475,-0.4086870660143387,0.14649469933366496,0.6535087474157341
8.543319,0.45236757210659934,1.127701981472494,-1.7033743448134393,-0.15230991116715753,1.2233468820196542,1.5791116478245053,0.7241035108500656,-0.40868675264867904,0.14649469933136294,0.6535087474157341
8.587394,0.4523671393429222,1.1277025141047121,-1.7033748774456576,-0.15230991116715753,1.2233468820196542,1.5791116478245053,0.7241034445883455,-0.40868672044838916,0.1464942572971341,0.6535087474157341
8.675198,0.4523671393429222,1.1277025141047121,-1.7033748774456576,-0.15230991116715753,1.2233459499132726,1.5791116478245053,0.7241033427114936,-0.40868665126726156,0.1464932523848062,0.6535087474157341
8.720237,0.4523671393429222,1.1277025141047121,-1.7033743448134393,-0.15230991116715753,1.2233468820196542,1.5791116478245053,0.7241036374094008,-0.4086872331478669,0.14649553068399757,0.6535087474157341
8.807188,0.45236757210659934,1.127701981472494,-1.7033732795490035,-0.15230991116715753,1.2233478141260359,1.5791116478245053,0.7241039647446271,-0.4086869929086279,0.14649577542645184,0.6535087474157341
9.475043,0.4523671393429222,1.1277010493661126,-1.7033722142845669,-0.15230884590272176,1.2233487462324173,1.5791116478245053,0.7241050820745928,-0.4086867210150736,0.14649788677492004,0.6535087474157341
