chms-raf/raf-v2/scripts/LFD/trajectories/traj3.txt
time,joint_1,joint_2,joint_3,joint_4,joint_5,joint_6,X,Y,Z,gripper
0.157466,-8.41558904465245e-05,0.26020620161127994,-2.270091562672884,6.498113059793341e-05,0.9600149115921914,1.5700390569389324,0.6533595955471135,0.0014255391000736345,0.42376558652373764,0.004385974332503347
0.208324,-8.362325822819372e-05,0.26020620161127994,-2.270091828988993,6.498113059793341e-05,0.9600149115921914,1.5700390569389324,0.6533594585313265,0.0014255390898016528,0.4237652947079108,0.004385974332503347
0.258243,-8.468852266396709e-05,0.26020620161127994,-2.270092361621211,6.551376281594926e-05,0.9600149115921914,1.5700390569389324,0.6533594583572842,0.0014256994222893804,0.423765294595008,0.004385974332503347
0.308340,-8.41558904465245e-05,0.2602066676644707,-2.270092361621211,6.551376281594926e-05,0.9600149115921914,1.5700390569389324,0.6533595223593445,0.0014260474269522385,0.4237649900921211,0.004385974332503347
0.358246,-8.468852266396709e-05,0.2602066676644707,-2.2700928942534286,6.551376281594926e-05,0.9600149115921914,1.5700390569389324,0.6533593861016864,0.0014256994163488572,0.42376469827898827,0.004385974332503347
0.407869,-8.41558904465245e-05,0.2602066676644707,-2.270092361621211,6.498113059793341e-05,0.9600149115921914,1.5700390569389324,0.6533595232918071,0.001425539094133136,0.42376499020758046,0.004385974332503347
0.457418,-8.362325822819372e-05,0.2602066676644707,-2.270092361621211,6.498113059793341e-05,0.9600149115921914,1.5700390569389324,0.6533594504141231,0.0014248430758759209,0.423764062264613,0.004385974332503347
0.507354,-8.309062601075112e-05,0.2602066676644707,-2.270092361621211,6.391586616190171e-05,0.9600139794858099,1.5700390569389324,0.6533595253307305,0.0014245224171248482,0.42376464793124685,0.004385974332503347
0.595866,-8.149272935664698e-05,0.2602066676644707,-2.270092361621211,6.285060172587001e-05,0.9600149115921914,1.5700390569389324,0.6533596558477672,0.0014223561082387967,0.42376439310854525,0.004385974332503347
0.683800,-7.989483270254283e-05,0.26020711707290467,-2.270091030040666,5.6991647327695695e-05,0.9600149115921914,1.5700390569389324,0.6533596591514845,0.0014203501120899594,0.42376439378995495,0.004385974332503347
0.732392,-7.989483270254283e-05,0.26020711707290467,-2.270091562672884,5.6991647327695695e-05,0.9600149115921914,1.570039989045314,0.6533598006706888,0.0014200021220869081,0.42376513601648336,0.004385974332503347
0.823957,-7.989483270254283e-05,0.26020758312609543,-2.270091828988993,5.8056911763727385e-05,0.9600149115921914,1.570039989045314,0.6533600111541662,0.0014206708030123892,0.4237660130468022,0.004385974332503347
0.911825,-7.989483270254283e-05,0.26020711707290467,-2.2700896984601204,5.6991647327695695e-05,0.9600159102776002,1.5700390569389324,0.6533638680574447,0.0014178361408242887,0.4237784221914766,0.004385974332503347
0.957912,-7.243798164946469e-05,0.2602039046348398,-2.270068126855292,4.8469531839442135e-05,0.9600235002867069,1.5700381248325508,0.6533664270220658,0.0014076149347141535,0.4237860236870924,0.004385974332503347
1.043887,-4.527373853147054e-05,0.2602048200964645,-2.270054278417623,1.5978966540475428e-05,0.9600339531939855,1.570071414346177,0.6533723797237394,0.001356139749111199,0.42380542964621,0.004385974332503347
1.132106,0.00010759170803920122,0.26020988010253565,-2.2700321741805753,-6.764429168804043e-05,0.9600739006103367,1.570247449294231,0.653376961791587,0.0011638834681986594,0.4238183426303666,0.004385974332503347
1.220348,0.0005097290326411662,0.2602640587859619,-2.2700119341562903,-7.77643038301079e-05,0.9600920101057492,1.5702844672333833,0.6534712305005848,0.00040145451722678753,0.4237803015263195,0.004385974332503347
1.311992,0.0026091186855993448,0.26070166608733236,-2.268700061003317,-0.003019492043931926,0.9601071901239627,1.570309234631521,0.6543247022730372,-0.004281488779507554,0.4253040196120781,0.004385974332503347
1.357435,0.007144995408722239,0.2608697281968732,-2.2651969389054267,-0.00920122156622405,0.9601167109248597,1.5703140283214831,0.6551300239732414,-0.008310586560439079,0.4270274548006255,0.004385974332503347
1.448282,0.011654238440349738,0.261040553336045,-2.2610871487112174,-0.014165886470349776,0.9601167109248597,1.5703149604278648,0.6569770488046999,-0.01552316282267505,0.43112496139312767,0.004385974332503347
1.544150,0.02296316475585708,0.26129401969279326,-2.248655512742727,-0.02339054385416528,0.9601129159203065,1.5703168246406278,0.6602770411637944,-0.026460434362267568,0.43894765687571097,0.004385974332503347
1.631864,0.03677743073853204,0.261903833648151,-2.2323167531389823,-0.03085005806747798,0.9601015309066463,1.5703186888533909,0.6629749987694918,-0.03549300938162697,0.4457225931103549,0.004385974332503347
1.675865,0.044364622720167265,0.2623643940691665,-2.223834052434862,-0.03481497229838748,0.9600938743185123,1.5703206862242085,0.6646114346670983,-0.041882446675014014,0.44993528573596714,0.004385974332503347
1.763914,0.05631595342487215,0.2634705879622014,-2.2121803258207837,-0.04119697153465296,0.9600882151011959,1.5703216183305897,0.6670700486715742,-0.05588001432035644,0.4560805460676279,0.004385974332503347
1.851867,0.07331194789613521,0.2674141136806067,-2.2011308704580452,-0.05285948658032957,0.9600834214112338,1.5703216183305897,0.6681437140892694,-0.06776727009892734,0.4570020911260158,0.004385974332503347
1.899844,0.08210221041664614,0.2709783386807574,-2.1977092410895107,-0.06110995963739452,0.9600824893048522,1.5703216183305897,0.6684914529009343,-0.07639197282471116,0.4556287974090699,0.004385974332503347
1.987883,0.09530942547359435,0.27836256865900416,-2.194738484893528,-0.07624257358344266,0.9600872164157871,1.5703225504369713,0.6683297285527512,-0.09521547724067739,0.44946936424986317,0.004385974332503347
2.033284,0.10898869415613749,0.2871546787475214,-2.193600516159737,-0.09394354008476302,0.9600891472075774,1.5703225504369713,0.6678991825022396,-0.10515134979705948,0.4453336888747422,0.004385974332503347
2.124223,0.11834100850233123,0.2938726357553007,-2.192688649802494,-0.10618928740916544,0.9600900793139591,1.570325346756116,0.6673804108255372,-0.11972403171778949,0.43875867474965313,0.004385974332503347
2.207883,0.13733401592888225,0.30880225024725766,-2.1895349344396218,-0.12564634233328498,0.9600900793139591,1.5703310725524595,0.6671361195618178,-0.13768377262006748,0.4304322940786262,0.004385974332503347
2.257407,0.15235273812643757,0.3206071112531974,-2.1855614980932243,-0.13420467681236303,0.9600891472075774,1.5703340020296588,0.6673277708670963,-0.14568352398448325,0.4264020066392172,0.004385974332503347
2.348226,0.16249899905023277,0.3290148772621457,-2.182402722724281,-0.13729447630907377,0.9600891472075774,1.5703340020296588,0.6676168866812849,-0.15762396978795395,0.42033339490918825,0.004385974332503347
2.440195,0.18398448390812416,0.34597871406324604,-2.1760090055792185,-0.1395203463481618,0.9600882151011959,1.5703349341360402,0.667604024468432,-0.17329270821454734,0.41146693722007466,0.004385974332503347
2.527981,0.20665882052138373,0.3640739948534666,-2.1712206419392563,-0.14032515362958353,0.9600882151011959,1.5703349341360402,0.6667648403951156,-0.18572233068910954,0.4036275792540128,0.004385974332503347
2.576086,0.21882367432767494,0.37332302016125724,-2.1697199506649962,-0.14053074966573753,0.9600882151011959,1.5703340020296588,0.6657727947170409,-0.19438016787433768,0.39795368179968843,0.004385974332503347
2.664236,0.23826576561541898,0.38749499861260034,-2.1682711910319936,-0.14065911403027886,0.9600882151011959,1.5703340020296588,0.6626547024804321,-0.21275304536527714,0.3851695710308963,0.004385974332503347
2.751853,0.26661751226429353,0.4072066184474172,-2.1677673209537502,-0.14068947406670596,0.9600891472075774,1.5703340020296588,0.6591100305141364,-0.22794443484476565,0.3748821064349479,0.004385974332503347
2.799860,0.2822690098592301,0.417350599039529,-2.1675342943583686,-0.14070492040102867,0.9600891472075774,1.5703340020296588,0.6564030696920877,-0.23884886035931135,0.3679250256493548,0.004385974332503347
2.888108,0.3071166690143193,0.4332463417959394,-2.1657180184949345,-0.14070758356211854,0.9600900793139591,1.570342524145147,0.6504050648026659,-0.2621018354312396,0.35460313822925643,0.004385974332503347
2.933141,0.333578869580269,0.4498680955550191,-2.16204685093226,-0.14070278987215712,0.9600996001148561,1.5714764981373028,0.6473449549703785,-0.2740130162816262,0.3483625995091395,0.004385974332503347
3.024022,0.35066897350655274,0.46156366708772467,-2.1582451884761724,-0.14069906144663058,0.9600967372166841,1.5724915619867863,0.6435910560075202,-0.29060017071907485,0.3392207627592687,0.004385974332503347
3.111985,0.3803436787164378,0.4868250816076713,-2.1473840186025024,-0.14069053933114262,0.9600938743185123,1.5741581681969579,0.6406648716262393,-0.3092825143154919,0.32684918705898686,0.004385974332503347
3.158386,0.3974291886898411,0.5075065248429542,-2.137189970581897,-0.14068840880227018,0.9600891472075774,1.5778359936623576,0.6401605611109464,-0.3165663836055197,0.32005817524508545,0.004385974332503347
3.248140,0.40600363529351474,0.522721330598145,-2.130481734112096,-0.14068840880227018,0.9600891472075774,1.581078924921747,0.6403773616540966,-0.3245976433314966,0.30791347962045823,0.004385974332503347
3.339899,0.41638913130698313,0.5555400639224367,-2.118459159687042,-0.14069426775666738,0.9600920101057492,1.5838348971758156,0.6420992342965522,-0.3304969523029564,0.2891918570406896,0.004385974332503347
3.427980,0.4195116211060738,0.5905321364333148,-2.107793465837384,-0.14069693091775815,0.9601157788184782,1.5844523510745505,0.6443054879797392,-0.33213837471818863,0.273298313666978,0.004385974332503347
3.476181,0.41952999691759535,0.6098140219367338,-2.102070598970913,-0.1406963982855407,0.9601281625175471,1.5845132043054586,0.6459763600845703,-0.3327493803343732,0.262432120640237,0.004385974332503347
3.563967,0.41871080856628695,0.6380868058592875,-2.092204652396605,-0.1407054530332461,0.9601290946239287,1.5845588775181536,0.6501691492727762,-0.33325819955021585,0.24132464549562122,0.004385974332503347
3.651943,0.4167950636361385,0.6783103920155172,-2.0759782781908616,-0.14072782358640268,0.9601614520311731,1.5845749896427486,0.6535238634583307,-0.33390120468897094,0.22532944041562267,0.004385974332503347
3.704128,0.4166196611888431,0.698465195145237,-2.0666814491415035,-0.1407267583219678,0.9602832250720169,1.584580715439092,0.6557162232200159,-0.33491659672985186,0.21565416609961535,0.004385974332503347
3.795807,0.41746228535774416,0.7289121837817315,-2.0507323100052375,-0.14072089936756882,0.9617358462886008,1.5845825796518551,0.6598336263406297,-0.33929456406138797,0.19663610133990073,0.004385974332503347
3.883859,0.42289034029154365,0.7696455655496296,-2.0261486699827156,-0.1407161056776065,0.9661385176236924,1.5845825796518551,0.6642197567326263,-0.34710252632420546,0.18199180792126257,0.004385974332503347
3.933257,0.4283308455034393,0.7994662452767647,-2.0048790676206885,-0.14071717094204317,0.974957109520299,1.5845816475454737,0.6668719913220531,-0.3516563529495787,0.176127492510444,0.004385974332503347
4.024181,0.4322559787655662,0.8205637408533452,-1.9884263247222886,-0.14071717094204317,0.9820662183131839,1.5845816475454737,0.671204596761904,-0.3585240556357629,0.16745953653966109,0.004385974332503347
4.115968,0.43875445801000945,0.8606528373745258,-1.9560587974656833,-0.1407097140909901,0.9930024227505669,1.5845816475454737,0.67645630576549,-0.36582067244390354,0.15448014023093817,0.004385974332503347
4.207869,0.4430657829197115,0.8992536928995432,-1.9269067709092402,-0.1407086488265552,1.0010200023703049,1.5845769870135662,0.68118427494905,-0.37088493350695095,0.14151020494182623,0.004385974332503347
4.257424,0.4443827160787556,0.9269722064202242,-1.9073027094929484,-0.14070651829768277,1.0127410403809345,1.5845749896427486,0.6839532504225819,-0.372837773947284,0.13762630957815486,0.004385974332503347
4.347919,0.4445462008801729,0.9432197527566341,-1.8950202105455034,-0.1407086488265552,1.0257415941372927,1.5845749896427486,0.6886660164212884,-0.37595498756775636,0.1367413731509367,0.004385974332503347
4.435891,0.44464034362470717,0.9707555068475083,-1.8720488482469158,-0.14071237725208086,1.061701925441496,1.5845769870135662,0.6947852772874189,-0.3798549880239135,0.13903860949912353,0.004385974332503347
4.483295,0.4446435394180153,0.9895046935538842,-1.8565846707451525,-0.1407235625286587,1.0855055255807335,1.5845769870135662,0.6969940395994645,-0.38128654412996077,0.13857947398800793,0.004385974332503347
4.568238,0.4446444715243968,1.0015208098132944,-1.847913418235855,-0.1407267583219678,1.0986858427106718,1.5845779191199476,0.699356538325701,-0.38285123749054584,0.1355634507290392,0.004385974332503347
4.655935,0.4446366484886947,1.0259758191551651,-1.83333820390596,-0.1407161056776065,1.1182818480646657,1.5845712612172222,0.7008214481883401,-0.3838529730107073,0.13043763986388063,0.004385974332503347
4.699934,0.4446421745479566,1.0369927173735776,-1.8269916247121918,-0.1407161056776065,1.1253594649776604,1.584570329110841,0.7017850271040446,-0.3844921779066204,0.12762058509429727,0.004385974332503347
4.795841,0.44475009915113206,1.0503569923558131,-1.8168708136215637,-0.1407161056776065,1.137044350576492,1.5845721933236039,0.7049705592811905,-0.3868752293859133,0.12917801476320692,0.004385974332503347
4.887792,0.4452331632833589,1.0620033952768932,-1.8008881186555623,-0.14072302989644125,1.161661413270694,1.5845749896427486,0.7100217478709033,-0.3901515481928465,0.1387567948825708,0.004385974332503347
4.932343,0.44546229500564655,1.0674099451848904,-1.7870263651817,-0.14072569305753113,1.177056348584115,1.5845797833327104,0.7126693247698132,-0.39162968299260736,0.1431990705571309,0.004385974332503347
5.019880,0.4455219831035779,1.070845556149147,-1.777672810801124,-0.14072782358640268,1.1841616623724465,1.584580715439092,0.7161159241349746,-0.39382907166764153,0.14819286647268143,0.004385974332503347
5.107879,0.44642659234685056,1.0774914080704125,-1.7616400484066288,-0.14073687833410986,1.1911956034435636,1.584580715439092,0.7183829135555978,-0.39684753894674274,0.14958422189632856,0.004385974332503347
5.157337,0.4486995670477196,1.0836303272781815,-1.7534721333433554,-0.14073208464414666,1.1931867158325615,1.584580715439092,0.7184499588493727,-0.3984090636015434,0.14818965712398438,0.004385974332503347
5.243963,0.4505469020273667,1.0880202154400407,-1.7498001668323546,-0.14073155201192922,1.1937955144577534,1.5845797833327104,0.717811261829228,-0.4005977264118022,0.14494634328395042,0.004385974332503347
5.332514,0.45389988841880374,1.0968407381284377,-1.7456546902795376,-0.14072942148305678,1.194284470833892,1.5845749896427486,0.7167298416316767,-0.40206609314237607,0.14069937467242294,0.004385974332503347
5.423902,0.4555741179275956,1.1023005512582364,-1.7447311060134973,-0.14072942148305678,1.1944708921101976,1.5845759217491302,0.7154769541853041,-0.403089709675305,0.13637622937352156,0.004385974332503347
5.511873,0.4564989006161257,1.106269327072727,-1.7432780853227499,-0.14072942148305678,1.1945119047909847,1.5845749896427486,0.716027226036091,-0.4036986577031367,0.1358545715968578,0.004385974332503347
5.557875,0.4566890170284437,1.1075242751573997,-1.7393057142407882,-0.14073208464414666,1.1945194948000917,1.5845759217491302,0.7170083210407582,-0.40421579157487036,0.1370377515685705,0.004385974332503347
5.644215,0.4567119867928456,1.1080890650455781,-1.7351043113050792,-0.1407342151730191,1.19451856269371,1.5845779191199476,0.7189584012539746,-0.40519313882478947,0.13914785532363438,0.004385974332503347
5.732252,0.45683412601833934,1.1111614874161753,-1.724674839844111,-0.14073048674749344,1.1945165653228924,1.5845797833327104,0.7207437722290229,-0.40638163606551764,0.1401262871397186,0.004385974332503347
5.819904,0.4573305059560165,1.1156413904228795,-1.7173452878919946,-0.1407283562186219,1.1945222911192361,1.5845797833327104,0.7221802303353491,-0.4074079598566177,0.13826270830697773,0.004385974332503347
5.908193,0.4574223517241106,1.1233911226159827,-1.710559020802255,-0.1407267583219678,1.1945546485264806,1.5845788512263292,0.7225804614614374,-0.40761364843971715,0.13421173127607836,0.004385974332503347
6.000170,0.45742005474767045,1.1286593878843774,-1.708131815784757,-0.1407219646320046,1.194551852207336,1.5845788512263292,0.7223647322406357,-0.4075039020335823,0.13153824020588745,0.004385974332503347
6.087864,0.4574870998281132,1.1306568918599913,-1.708104651541638,-0.14071344251651663,1.194555580632862,1.5845816475454737,0.7220948145056961,-0.40752603986559066,0.1316247339544237,0.004385974332503347
6.132646,0.4576670962282889,1.130076056426245,-1.7089115893519313,-0.14070492040102867,1.1945527843137176,1.5845816475454737,0.7219354154300061,-0.4075989384754567,0.131600230153377,0.004385974332503347
6.220191,0.45781493495830194,1.129903749903717,-1.7092301034183057,-0.14071344251651663,1.1945507869429,1.5845816475454737,0.7217784142832536,-0.40772533352374507,0.1317213720586397,0.004385974332503347
6.316233,0.45804869392298364,1.1295350352507956,-1.7096812429069645,-0.14072089936756882,1.1945507869429,1.5845816475454737,0.7217106638971604,-0.4077445989121262,0.13180119528294526,0.004385974332503347
6.403913,0.4580252581053909,1.1292251764579648,-1.7097835082928237,-0.1407145077809533,1.1945507869429,1.5845816475454737,0.7217197339143805,-0.40774271129161926,0.1319190302198916,0.004385974332503347
6.448024,0.4580252581053909,1.1292118606525143,-1.7098218578125213,-0.1407161056776065,1.1945507869429,1.5845816475454737,0.7217100900951556,-0.40773898982767914,0.131905947244256,0.004385974332503347
6.536196,0.45802708902864037,1.1291893569413032,-1.709858609435564,-0.14071876883869727,1.1945507869429,1.5845816475454737,0.721702753632368,-0.40773024837831995,0.13191081487404116,0.004385974332503347
6.583323,0.4580096453235003,1.1291777721905614,-1.7098958936908257,-0.14071717094204317,1.1945507869429,1.5845816475454737,0.7217032929693273,-0.4077165637692073,0.13190399804308078,0.004385974332503347
6.668000,0.4580018555773119,1.1291644563851109,-1.709907611599621,-0.1407161056776065,1.1945507869429,1.5845816475454737,0.7217026062162113,-0.40771284638795113,0.1319105177818508,0.004385974332503347
6.759892,0.45800228834098905,1.1291576653243314,-1.7099283842561244,-0.14071717094204317,1.1945507869429,1.5845816475454737,0.7216973277670105,-0.40771147551183384,0.13190597469097196,0.004385974332503347
6.807430,0.4580004574177396,1.1291511405796606,-1.7099395695327022,-0.14071717094204317,1.1945507869429,1.5845816475454737,0.7216982681220906,-0.40770558090278036,0.13190593765365596,0.004385974332503347
6.896175,0.45798577674223045,1.1291494095249521,-1.7099459611193186,-0.1407161056776065,1.1945507869429,1.5845816475454737,0.7217043652628057,-0.4076925196627401,0.13190607648858307,0.004385974332503347
6.983953,0.45798071673615937,1.1291456810994258,-1.7099539506025891,-0.14071717094204317,1.1945507869429,1.5845816475454737,0.7217019687410506,-0.40769385959275617,0.13190550105230422,0.06140351667738783
7.032435,0.4579802506829686,1.129143816886663,-1.7099555484992432,-0.14071717094204317,1.1945507869429,1.5845816475454737,0.7217025510406899,-0.4076928873010881,0.131906359667917,0.14473685018102012
7.124256,0.45797795370652844,1.1291424853061178,-1.7099560811314607,-0.14071717094204317,1.1945507869429,1.5845816475454737,0.7217050841065125,-0.4076882052678245,0.13190710018405807,0.2894736812885542
7.211800,0.457976122783279,1.1291419526738997,-1.709959276924769,-0.1407283562186219,1.1945507869429,1.5845816475454737,0.7216944528125876,-0.40770293104039385,0.13190686118879788,0.46052630593902194
7.257476,0.4579802506829686,1.1291355610872837,-1.7099646032469487,-0.140703855136592,1.194548922730137,1.5845845770226727,0.7217102802819839,-0.40767481257846955,0.13190496768795545,0.5350877289246195
7.347920,0.45796097605457914,1.1291383574064282,-1.709969396936911,-0.14072089936756882,1.1945451943046108,1.5845825796518551,0.7217075019196908,-0.4076766893740486,0.13191416589784932,0.5482456113909717
7.436212,0.4579628069778286,1.1291222452818332,-1.7099763211557457,-0.14071717094204317,1.194551852207336,1.5845836449162911,0.7217065594213454,-0.4076790228581421,0.13191467082175898,0.5482456113909717
7.482406,0.4579628069778286,1.1291222452818332,-1.70997525589131,-0.14071504041317073,1.1945507869429,1.5845825796518551,0.7217068928084577,-0.4076785281365874,0.13191499386477948,0.5482456113909717
7.572174,0.4579632730310193,1.129115853695217,-1.70997525589131,-0.14071504041317073,1.194551852207336,1.5845825796518551,0.7217096658709101,-0.40767994845315136,0.1319251304354423,0.5482456113909717
7.660167,0.4579637390842101,1.1291149215888354,-1.7099715274657834,-0.1407161056776065,1.1945527843137176,1.5845825796518551,0.7217092280382882,-0.4076797213650997,0.13192331517471526,0.5482456113909717
7.708310,0.45796144210776996,1.1291149215888354,-1.709970994833566,-0.14071504041317073,1.1945527843137176,1.5845825796518551,0.7217094728198928,-0.40767941201151753,0.13192364577116314,0.5482456113909717
7.795859,0.45796234092463783,1.1291153210629992,-1.7099715274657834,-0.14071504041317073,1.1945527843137176,1.5845825796518551,0.7217090466383629,-0.40767918226661876,0.13192151839414695,0.5482456113909717
7.887797,0.457961874871447,1.1291162531693806,-1.7099715274657834,-0.14071504041317073,1.194551852207336,1.5845825796518551,0.721709276451946,-0.40767929554462123,0.13192220256894133,0.5482456113909717
7.932424,0.457961874871447,1.1291162531693806,-1.7099715274657834,-0.14071504041317073,1.194551852207336,1.5845825796518551,0.7217089918562685,-0.40767915526489246,0.13192118779542159,0.5482456113909717
8.019882,0.457961874871447,1.129117185275762,-1.7099715274657834,-0.14071504041317073,1.194551852207336,1.5845825796518551,0.7217088566381845,-0.4076795186213785,0.13192151839661795,0.5482456113909717
8.111837,0.457961874871447,1.129117185275762,-1.7099715274657834,-0.14071504041317073,1.194551852207336,1.5845825796518551,0.721708728813143,-0.4076794556172001,0.1319207469996298,0.5482456113909717
8.157369,0.4579628069778286,1.129117185275762,-1.709970994833566,-0.14071504041317073,1.194551852207336,1.5845825796518551,0.7217087686268873,-0.4076799052503103,0.13192143117665642,0.5482456113909717
8.247839,0.45796234092463783,1.129117185275762,-1.709970994833566,-0.14071504041317073,1.194551852207336,1.5845825796518551,0.721709075584587,-0.4076791965384491,0.13192099037335847,0.5482456113909717
8.331851,0.45796234092463783,1.1291181173821436,-1.709970994833566,-0.14071504041317073,1.194551852207336,1.5845825796518551,0.7217088523551674,-0.407679946523945,0.13192123375459372,0.5482456113909717
8.375874,0.4579628069778286,1.12911771790798,-1.7099704622013476,-0.14071504041317073,1.194551852207336,1.5845825796518551,0.7217086955840605,-0.4076798692479069,0.1319209903783005,0.5482456113909717
8.472259,0.4579628069778286,1.1291181173821436,-1.709970994833566,-0.14071504041317073,1.194551852207336,1.5845825796518551,0.7217087975729963,-0.4076799195221174,0.1319209031557855,0.5482456113909717
8.560370,0.4579628069778286,1.1291181173821436,-1.7099704622013476,-0.14071504041317073,1.194551852207336,1.5845825796518551,0.7217087975729963,-0.4076799195221174,0.1319209031557855,0.5482456113909717
8.608420,0.4579628069778286,1.1291181173821436,-1.7099704622013476,-0.14071504041317073,1.194551852207336,1.5845825796518551,0.7217087975729963,-0.4076799195221174,0.1319209031557855,0.5482456113909717
9.300950,0.4579628069778286,1.1291181173821436,-1.7099704622013476,-0.14071504041317073,1.194551852207336,1.5845825796518551,0.7217087245299173,-0.40767988351958967,0.1319204623574126,0.5482456113909717
