chms-raf/raf-v2/scripts/LFD/trajectories/traj2.txt
time,joint_1,joint_2,joint_3,joint_4,joint_5,joint_6,X,Y,Z,gripper
0.164608,2.2903185374681447e-05,0.2601699326861845,-2.270163468022316,-2.76968753372131e-05,0.9598988643476913,1.5700999101698407,0.6533363195496553,0.001327694776991481,0.4237074111203362,0.004385974332503347
0.214666,2.23705531566656e-05,0.2601699326861845,-2.270164533286752,-2.76968753372131e-05,0.9598988643476913,1.5700999101698407,0.6533362602121391,0.0013280427678434824,0.4237081551276141,0.004385974332503347
0.264566,2.2903185374681447e-05,0.26016855117136894,-2.270162669073989,-2.76968753372131e-05,0.9598998630331,1.5700999101698407,0.6533361282327981,0.0013273467897468691,0.42370868068844536,0.004385974332503347
0.314589,2.3968449810713143e-05,0.2601694666329937,-2.2701640006545336,-2.76968753372131e-05,0.9598998630331,1.5700999101698407,0.6533361197519563,0.0013266508133081044,0.4237077907783077,0.004385974332503347
0.364561,2.4501082028728988e-05,0.2601694666329937,-2.2701632017062074,-2.76968753372131e-05,0.9598998630331,1.5700999101698407,0.653336184485637,0.0013266508106036068,0.4237074862889244,0.004385974332503347
0.414621,2.3968449810713143e-05,0.2601699326861845,-2.270164533286752,-2.76968753372131e-05,0.9598998630331,1.5700999101698407,0.6533361190462924,0.0013269988011744803,0.4237077907757512,0.004385974332503347
0.464563,2.3435817592697295e-05,0.2601694666329937,-2.2701640006545336,-2.76968753372131e-05,0.9598998630331,1.5700999101698407,0.6533361830741239,0.0013273467864049412,0.42370748628381155,0.004385974332503347
0.514635,2.4501082028728988e-05,0.2601699326861845,-2.2701640006545336,-2.76968753372131e-05,0.9598998630331,1.5700999101698407,0.653336184485637,0.0013266508106036068,0.4237074862889244,0.004385974332503347
0.605005,2.4501082028728988e-05,0.2601699326861845,-2.270163468022316,-2.76968753372131e-05,0.9598998630331,1.5700999101698407,0.6533361846300243,0.0013264904909955908,0.4237074863932451,0.004385974332503347
0.696969,2.3968449810713143e-05,0.2601699326861845,-2.2701640006545336,-2.8229507554655697e-05,0.9598988643476913,1.5700999101698407,0.6533362404295056,0.0013261425135768245,0.42370558251230234,0.004385974332503347
0.793113,2.6098978682776533e-05,0.2601713142009999,-2.2701640006545336,-3.036003642620244e-05,0.9598979322413097,1.5700999101698407,0.6533367253549656,0.001322772005346539,0.4237069472054867,0.004385974332503347
0.839514,2.929477199087162e-05,0.26017084814780916,-2.2701616038095533,-3.302319751785632e-05,0.9598988643476913,1.5700999101698407,0.6533382442681142,0.0013205510378005692,0.42371142521924826,0.004385974332503347
0.928924,3.1957933080950855e-05,0.2601703820946184,-2.270148288004103,-3.6218990825176434e-05,0.9599007951394815,1.5700999101698407,0.6533411980525505,0.0013127150223116609,0.42371759390883273,0.004385974332503347
1.020954,3.9414784133172726e-05,0.2601731451242494,-2.270142429049705,-5.1132692929556356e-05,0.9599007951394815,1.5700999101698407,0.6533439759381959,0.0013042848192395323,0.4237191163664152,0.004385974332503347
1.109044,5.113269292952137e-05,0.26018416395325955,-2.2701379016758514,-5.432848623687647e-05,0.9599007951394815,1.5701037717534214,0.6533465992753413,0.001290513093282435,0.4237059320659074,0.004385974332503347
1.156988,6.285060172587001e-05,0.2602089646409109,-2.270138167991961,-9.800432811513105e-05,0.9599007951394815,1.570195118178811,0.653351215194088,0.0012764752214712077,0.4236786851867957,0.004385974332503347
1.245054,6.81769239060285e-05,0.26052396666359684,-2.2701405648369413,-0.0001331580545045341,0.9599103159403787,1.5702654256315893,0.6534318048714647,0.0012564941476784276,0.42330423150507906,0.004385974332503347
1.333013,0.00010120012142301106,0.2609431981534458,-2.270138167991961,-0.00016564861980317147,0.9599198367412757,1.5703872652514606,0.653463825978003,0.0011117875677685882,0.4231640749604766,0.004385974332503347
1.381088,0.000464987926327835,0.26109887656391767,-2.2701368364114156,-0.00020612866837232957,0.9599236317458291,1.5703834036678797,0.6534755098092183,0.0008653563151891547,0.4231117960438073,0.004385974332503347
1.477027,0.0011084076456909788,0.2611227451451875,-2.2701328416697804,-0.00036538570155908445,0.9599302896485541,1.5703796752423538,0.6534784372305952,-0.0004285687060069076,0.42311206300358584,0.004385974332503347
1.573136,0.0042599058749404565,0.2611314669977576,-2.2701291132442547,-0.003054645770320441,0.9599312217549357,1.5703767457651547,0.6534582051485318,-0.005076447237625948,0.4231094613298746,0.004385974332503347
1.664930,0.011690973418636019,0.2611342300273885,-2.270091562672884,-0.007600129118867649,0.9599321538613172,1.570375813658773,0.6534392888770443,-0.012273170284053577,0.42327387290401663,0.004385974332503347
1.714663,0.01978878492740191,0.2611383579270781,-2.269412190278805,-0.008962069700334752,0.9599312217549357,1.570375813658773,0.6536347838151553,-0.01638916837108115,0.4238798385599108,0.004385974332503347
1.805399,0.025934122769516826,0.26114112095670905,-2.267895520038005,-0.009611881006313716,0.9599312217549357,1.570375813658773,0.6541548469256382,-0.023062181765312932,0.4253996628270206,0.004385974332503347
1.893553,0.040006451142415064,0.26119576569332614,-2.2634400515343023,-0.010223875424814288,0.959928358856764,1.570375813658773,0.6551530856152663,-0.03327308181606521,0.42820330827576414,0.004385974332503347
1.940582,0.05161844102878422,0.2615911286019052,-2.2587259900887533,-0.012020443896181732,0.9599264946440008,1.570375813658773,0.6557538323642915,-0.038935664540000095,0.4299796441476175,0.004385974332503347
2.025326,0.05960467024906498,0.26188316086018926,-2.255045235146154,-0.01373978069593651,0.9599207688476571,1.570375813658773,0.6566299940734672,-0.04841181282770577,0.4327589303454935,0.004385974332503347
2.117044,0.07649871974603766,0.26267526819216286,-2.2472751963497393,-0.019913520734959,0.9599207688476571,1.5703767457651547,0.6575687277788425,-0.06209905294879937,0.43642274653658364,0.004385974332503347
2.164565,0.08939093278029993,0.26372037582769403,-2.2412420712162735,-0.0263493158252448,0.9599198367412757,1.5703767457651547,0.6579839412897909,-0.06930889619682894,0.4380213271068417,0.004385974332503347
2.252984,0.0982725833380926,0.26501071066535103,-2.237164771587363,-0.030936344486796052,0.959918838055867,1.5703776778715361,0.658585575386672,-0.08042197705259459,0.4394768663472226,0.004385974332503347
2.340999,0.1166107860316204,0.269752302538669,-2.2291987241347178,-0.04015461028399692,0.9599179059494853,1.5703776778715361,0.6594080849399797,-0.09533671329991156,0.4396909758554227,0.004385974332503347
2.389556,0.13054443653253653,0.27503436631046174,-2.223546164721024,-0.04497866028256592,0.9599179059494853,1.5703776778715361,0.6598207977537808,-0.10244402492158972,0.43915748225689083,0.004385974332503347
2.477198,0.14022736568330682,0.2789590501641547,-2.2200875174133383,-0.046937148948209995,0.9599179059494853,1.5703776778715361,0.6601486372505246,-0.1132067546890003,0.4379185414984743,0.004385974332503347
2.564966,0.15997666924754828,0.286809366622679,-2.2139073857877003,-0.04933452656150017,0.9599179059494853,1.5703787431359721,0.660049691865,-0.12745209002296537,0.4358572227718981,0.004385974332503347
2.614473,0.17569060132529038,0.2921299962960074,-2.2102676435258894,-0.050232011848856395,0.959918838055867,1.5703787431359721,0.6596440035867767,-0.1347908800642424,0.4348937959962981,0.004385974332503347
2.701045,0.18647605420021823,0.29529106864139054,-2.2080534913955976,-0.05053880800643373,0.9599179059494853,1.5703787431359721,0.6586889394307107,-0.14611855583855748,0.433305500722393,0.004385974332503347
2.792901,0.2089437461576445,0.3018331238591702,-2.2044014985927713,-0.050944141124343645,0.9599179059494853,1.5703796752423538,0.6569249988948308,-0.16188039131233795,0.43037746665118265,0.004385974332503347
2.839527,0.2271129629576283,0.30756933982060547,-2.20202888837762,-0.05099846961058141,0.9599179059494853,1.5703796752423538,0.6558062961693215,-0.17032736218691252,0.4284343406864307,0.004385974332503347
2.924961,0.23991930569149236,0.3119922511799818,-2.20025975046548,-0.05102030753151965,0.9599179059494853,1.5703796752423538,0.6539518582780359,-0.18369648697475957,0.42526153637588654,0.004385974332503347
3.013667,0.26746196735644406,0.3217302994429383,-2.1960343790799604,-0.0510394822913689,0.9599179059494853,1.5703796752423538,0.6517701988524675,-0.19825802959794528,0.4221864394935903,0.004385974332503347
3.057344,0.2819631790975481,0.32683281622298926,-2.192983728051275,-0.05104427598133121,0.959918838055867,1.5703796752423538,0.6503857983035075,-0.20804956594592777,0.4206033843279146,0.004385974332503347
3.145378,0.30249172359674675,0.335000398391126,-2.1864605812772346,-0.05104800440685686,0.9599169738431038,1.5703796752423538,0.6487422278825158,-0.226036385921769,0.4183561814685392,0.004385974332503347
3.189618,0.3204212558986235,0.34415068700150203,-2.177727809746756,-0.0510501349357293,0.9599121801531416,1.5703796752423538,0.6485944748394497,-0.23368351316167657,0.4173044085117065,0.004385974332503347
3.280974,0.33007661300973307,0.350749234523905,-2.1714038674222538,-0.0510501349357293,0.9599065209358252,1.5703796752423538,0.6492577949974885,-0.2428357568076946,0.41535388435512316,0.004385974332503347
3.373395,0.3436397262568567,0.36513656283889456,-2.1594060603953382,-0.051056526522344825,0.9598960014495194,1.5703796752423538,0.651025954549947,-0.25112422826555075,0.41080112394856205,0.004385974332503347
3.461379,0.35155018022174633,0.38040143602257886,-2.1507182962872813,-0.05106504863783279,0.9598960014495194,1.5703796752423538,0.6523977811953832,-0.25535938344190134,0.405553753115302,0.004385974332503347
3.508932,0.3545835872823738,0.3884767396589444,-2.1479837624799885,-0.05106504863783279,0.9598960014495194,1.5703796752423538,0.6530774940464026,-0.25791715725835795,0.40108603137277304,0.004385974332503347
3.601061,0.35958690131181925,0.4006774129818972,-2.145412214131407,-0.05106504863783279,0.9598970001349282,1.5703796752423538,0.6535076950961719,-0.26352400905247336,0.39107109653242633,0.004385974332503347
3.688996,0.3677682986281109,0.41718664818492096,-2.143288875794287,-0.0510639833733979,0.9598998630331,1.5703796752423538,0.6533973763549326,-0.2685696426926638,0.3831463312793884,0.004385974332503347
3.733000,0.3726288339336145,0.42563346279335257,-2.141673135960936,-0.05106345074117957,0.9599007951394815,1.5703796752423538,0.6532801689987835,-0.27234578595700687,0.3782310450820223,0.004385974332503347
3.828932,0.38042906631888845,0.4383626404346315,-2.1380845263920545,-0.05106132021230625,0.9599007951394815,1.5703796752423538,0.6534879353402234,-0.2803313176030132,0.3691219774847339,0.004385974332503347
3.917038,0.3905147236831275,0.4565630827983966,-2.1297962364475094,-0.05105865705121726,0.9599026593522446,1.5703796752423538,0.6548319195215093,-0.2882690264252888,0.3613534606476442,0.004385974332503347
3.965474,0.39723451161415635,0.4705656176253833,-2.1212325756462516,-0.0510591896834347,0.9599017272458631,1.5703796752423538,0.6559767372697489,-0.29199156131133175,0.3579748111237026,0.004385974332503347
4.057298,0.4012161371809066,0.4801760006035841,-2.114633262465034,-0.051060254947871364,0.9598998630331,1.5703796752423538,0.6579981200476525,-0.2972039864043676,0.35250599680050404,0.004385974332503347
4.145567,0.40856133520442683,0.5003156237150903,-2.1018911019134414,-0.05106132021230625,0.9598979322413097,1.5703796752423538,0.6599998111708788,-0.30411744669373825,0.343782356733795,0.004385974332503347
4.190410,0.414586837039272,0.5159395575927446,-2.094157015791742,-0.05106132021230625,0.9598998630331,1.5703796752423538,0.6605227337136017,-0.30764138178885,0.3382976746647515,0.004385974332503347
4.276946,0.4188109101337603,0.526798929832679,-2.090168133111022,-0.0510591896834347,0.9598998630331,1.5703796752423538,0.6606461418932241,-0.3129619080232905,0.3288733331924766,0.004385974332503347
4.364950,0.4274441460184974,0.5492349301731332,-2.0838742845068374,-0.05105439599347328,0.9599131788385504,1.5703787431359721,0.6608174982268407,-0.31929217003651,0.3152699676050914,0.004385974332503347
4.415606,0.4324933995767468,0.5672939253935014,-2.078336507336126,-0.05105386336125495,0.9599150430513135,1.5703787431359721,0.6614998045966713,-0.3218754051435314,0.3083192131825383,0.004385974332503347
4.504978,0.4349775962415727,0.5802201103764191,-2.0733473413499723,-0.05105386336125495,0.959915975157695,1.5703787431359721,0.6634910128110482,-0.3251622614327163,0.2978850877325503,0.004385974332503347
4.597315,0.43816713112110606,0.6083923599678223,-2.059454162575247,-0.05105546125790994,0.9599150430513135,1.5703787431359721,0.6678083234074257,-0.32935689163636594,0.28417225587693323,0.004385974332503347
4.689748,0.4407790263602013,0.6405200029892384,-2.040514559850931,-0.05105865705121726,0.9599131788385504,1.5703787431359721,0.6715370539435013,-0.33288223053896404,0.27296595002915636,0.004385974332503347
4.777348,0.44341658781430215,0.6663986050918109,-2.0249294748356776,-0.05106238547674291,0.959915975157695,1.5703787431359721,0.6756995288881655,-0.3384546875684854,0.25640840171065454,0.004385974332503347
4.865338,0.44894800668791035,0.7031080170316266,-2.006397069442034,-0.0510639833733979,0.9599302896485541,1.570375813658773,0.6771100221045833,-0.3433126061026532,0.24152484194201376,0.004385974332503347
4.957375,0.45472826467587285,0.7303582136746172,-1.9950040662986757,-0.051060254947871364,0.9599531262549017,1.5703720852332468,0.6773049081024702,-0.34996969279079176,0.22192372088200063,0.004385974332503347
5.049360,0.46190861302791725,0.7624298637341145,-1.9821652329995123,-0.05105759178678149,0.9599864157685276,1.5703710199688108,0.6774517715188265,-0.355171221584878,0.2061231663978808,0.004385974332503347
5.137382,0.4667269039406295,0.7870869404236948,-1.9692166774634385,-0.05105759178678149,0.9602974729838488,1.5703720852332468,0.6785862938880496,-0.3584221232938308,0.19850820093232907,0.004385974332503347
5.181270,0.4687280697627423,0.7971703341010072,-1.9617643537850693,-0.05105759178678149,0.9605372240609833,1.5703730173396284,0.6796126973166405,-0.36083034325033636,0.19488021070797734,0.004385974332503347
5.269457,0.4725338268290064,0.8104569779374671,-1.9498152826061013,-0.0510501349357293,0.9606808350227658,1.570375813658773,0.6815036749688217,-0.3669384968435576,0.18959070442420525,0.004385974332503347
5.315102,0.47758124946400626,0.822848200436415,-1.937769804995673,-0.0510501349357293,0.9607436190454645,1.570375813658773,0.6819840031554603,-0.3704741067642254,0.18694737610141715,0.004385974332503347
5.401055,0.48156700293044613,0.8308330897537725,-1.9303497055664947,-0.05104427598133121,0.9608263767763386,1.5703767457651547,0.6820465985232831,-0.37590410284277614,0.18275027441416405,0.004385974332503347
5.493293,0.4895642426573587,0.8460244264018568,-1.9176877061637123,-0.05103362333697081,0.960837828369026,1.5703767457651547,0.6819775024268914,-0.38202761385789746,0.17650563023829396,0.004385974332503347
5.540498,0.4939104882668544,0.8577378744033796,-1.9089203135390633,-0.05103255807253415,0.9608368962626445,1.5703767457651547,0.6823123006366958,-0.38424766459113124,0.17311400013763295,0.004385974332503347
5.629398,0.4958083234386721,0.8656290870293935,-1.9028373872932125,-0.05103362333697081,0.960839692581789,1.570375813658773,0.6836814361821612,-0.38688702683067033,0.1688086195872699,0.004385974332503347
5.720944,0.4977350871978308,0.8816153106838394,-1.8879684262950827,-0.05103362333697081,0.9625216119682286,1.570375813658773,0.6875572832489873,-0.38960324134510527,0.16466233396077706,0.004385974332503347
5.813622,0.4977313920618184,0.8989607451796344,-1.8688655717959444,-0.05102776438257273,0.9660709399110317,1.570375813658773,0.6915466247003278,-0.39177694796263995,0.1627236646897306,0.004385974332503347
5.857527,0.4977134823034876,0.9076082289762035,-1.857535152938202,-0.051029894911444273,0.9678308899174104,1.570375813658773,0.6945481655624077,-0.39340773358633274,0.1617580333968122,0.004385974332503347
5.945354,0.49761338073601424,0.9211023996406078,-1.8395771913916885,-0.05103096017588005,0.9703204129044165,1.570375813658773,0.7008108254157456,-0.39657125310489333,0.16022927389970423,0.004385974332503347
5.990473,0.49728967350551506,0.9349570957375815,-1.8220618472183467,-0.05102723175035351,0.9756087184600142,1.570375813658773,0.7038259476284072,-0.3979868265928947,0.1597990499779862,0.004385974332503347
6.081288,0.4967822414493141,0.9442217005377491,-1.811463531344267,-0.05102776438257273,0.9813841161789874,1.57037394944601,0.7078164873128812,-0.39959228177245437,0.15910948140307649,0.004385974332503347
6.169348,0.4961609592565122,0.9634796841703845,-1.794898669363974,-0.051034688601406586,1.0010038236666827,1.5703700878624292,0.7114868443847221,-0.401573764385443,0.15960352458534943,0.004385974332503347
6.215511,0.4958569927075933,0.978370283352372,-1.786820769145546,-0.05103735176249735,1.0279648010152906,1.5703700878624292,0.7127832963454752,-0.4023339109529185,0.1611243163881427,0.004385974332503347
6.301090,0.4956002972680233,0.9889945650470794,-1.7836015400198582,-0.05103841702693224,1.0516570810209627,1.5703700878624292,0.7137181471054368,-0.402917848272763,0.16270309436045763,0.004385974332503347
6.389197,0.495422131791097,1.0110181748927352,-1.7809101494222244,-0.0510469391424202,1.0985802483734504,1.570369155756048,0.7134325059614185,-0.4030690986579567,0.16145310037100233,0.004385974332503347
6.477475,0.4954313196968577,1.0278479548224635,-1.7806523554287041,-0.051045873877985315,1.1274286079865974,1.570367291543285,0.7120834243699888,-0.4026665445815846,0.15593232189827744,0.004385974332503347
6.568973,0.49528298162414036,1.0509920231177425,-1.7802544791618464,-0.05103681913027813,1.163300455763583,1.5703624978533226,0.7112698903402661,-0.40219490560497206,0.15251327703153594,0.004385974332503347
6.657072,0.49501619946194164,1.0709094054362818,-1.7753840901603093,-0.051042145452458776,1.2023373373380737,1.5703634299597042,0.711941262156655,-0.4027720216917353,0.15449339450202307,0.004385974332503347
6.705073,0.4950488231852951,1.0787532803739193,-1.7705152990554263,-0.05106984232779599,1.2192562665852926,1.5703634299597042,0.712978650690276,-0.4034801532029472,0.1570299680167132,0.004385974332503347
6.797399,0.495069928736934,1.0872395763455114,-1.760658407228826,-0.05107357075332253,1.2403543613731183,1.5703663594369033,0.7159629523999336,-0.40526866210777973,0.16474680077225168,0.004385974332503347
6.889269,0.4950685638668753,1.0948896397348185,-1.747410778702335,-0.051071972856667536,1.2551614038759042,1.570369155756048,0.7178971333572952,-0.4063335111745825,0.16554798306483362,0.004385974332503347
6.981468,0.49508966941851423,1.0999270089367033,-1.7397248957963667,-0.051071972856667536,1.2446770712964805,1.5703682236496663,0.7193396379041685,-0.4069719142403937,0.15471965302195587,0.004385974332503347
7.069246,0.4950979585074071,1.1070742675122036,-1.733244892231986,-0.0510517328323834,1.2112595927801115,1.5703663594369033,0.7193810111980738,-0.40669938042978554,0.13907507330676602,0.004385974332503347
7.115592,0.4950534171381755,1.1113879226878594,-1.7305092931602566,-0.05104321071689455,1.188316992621297,1.5703634299597042,0.7191876695967001,-0.4064513888421901,0.13274836116857988,0.004385974332503347
7.201300,0.495017597621514,1.113553871602421,-1.7290211187431206,-0.05103681913027813,1.1761725785763721,1.570361565746941,0.7192761595443304,-0.40636511771767064,0.12680849152629434,0.004385974332503347
7.293350,0.4950226243380715,1.1163912034277912,-1.7239232957844903,-0.05104054755580467,1.165984123194056,1.570361565746941,0.7212385693860806,-0.4074506395333726,0.1288796152869825,0.004385974332503347
7.339553,0.4950286164505242,1.1177789100928044,-1.716860059941383,-0.05104321071689455,1.171346531206985,1.5703624978533226,0.7228040527163556,-0.4083320092246063,0.132126295164612,0.004385974332503347
7.425029,0.49503594014352187,1.1186485653467695,-1.7111039035612858,-0.051049069671292635,1.1748264838033915,1.5703624978533226,0.7251904802146287,-0.40966539683232206,0.13638419272916077,0.004385974332503347
7.513484,0.495055248061425,1.1196987829226424,-1.7006941394923833,-0.0510591896834347,1.177798305263811,1.5703643620660857,0.7271731364537035,-0.4107620473159164,0.1398201638912052,0.004385974332503347
7.557525,0.4950580110910559,1.119774549855655,-1.6966754294074535,-0.05105865705121726,1.1783948533479889,1.5703663594369033,0.7281852230933479,-0.41131258458578895,0.1416175208437646,0.004385974332503347
7.649372,0.49505984201430536,1.1197732182751101,-1.6925448665567409,-0.05105865705121726,1.1787848732896309,1.5703663594369033,0.7293215319814085,-0.4119297917406439,0.1436204553448924,0.004385974332503347
7.745387,0.49506120688436406,1.1197662940562758,-1.6900894320316873,-0.05105759178678149,1.178959842973249,1.5703663594369033,0.7296805572319547,-0.4121274751164486,0.14425986825243234,0.004385974332503347
7.790449,0.4950630378076134,1.1197580382568966,-1.6897831685063291,-0.05105759178678149,1.1790141714594866,1.5703663594369033,0.7296815808302466,-0.4121292269400019,0.1442775833880838,0.004385974332503347
7.881329,0.4950658008372444,1.1197488503511357,-1.6897863642996365,-0.051056526522344825,1.1790426672831507,1.5703663594369033,0.7296888391219274,-0.41213196206748187,0.14434717808313927,0.004385974332503347
7.969054,0.4950635038608042,1.1188240676626058,-1.6898545412235428,-0.051042145452458776,1.179162509532204,1.5703700878624292,0.7298096955290089,-0.41219008373564664,0.1458101388731282,0.004385974332503347
8.015024,0.49506486873086286,1.1174038038532665,-1.6903498891862974,-0.051034688601406586,1.17914346793041,1.5703700878624292,0.7298234343513379,-0.4122084887689899,0.14628229014549443,0.004385974332503347
8.101550,0.49509379731820385,1.116833421326799,-1.6906108789731258,-0.051041080188022114,1.1791234942222344,1.5703700878624292,0.7296877216206074,-0.4123053459957071,0.14645248220600693,0.004385974332503347
8.189373,0.4952526881667407,1.1162369398216483,-1.6910135489299458,-0.05105066756794674,1.1790940662921892,1.5703700878624292,0.729704539944394,-0.41231503278512444,0.1467903958560924,0.004385974332503347
8.281279,0.49522742142589854,1.1159559097476177,-1.69115469646772,-0.051042145452458776,1.1790968626113336,1.5703700878624292,0.7296957708430473,-0.41228752641179933,0.14690674432355613,0.004385974332503347
8.368985,0.49524350026097996,1.1157143610367477,-1.6912202102305356,-0.0510469391424202,1.1790968626113336,1.5703700878624292,0.729698416583849,-0.41231306297921805,0.14702116161839746,0.004385974332503347
8.414490,0.4952462632906109,1.115695985225226,-1.6912372544615115,-0.051049069671292635,1.1790968626113336,1.5703700878624292,0.7297043318456851,-0.41230713132647145,0.14704627100844855,0.004385974332503347
8.505336,0.49523800749123165,1.1156298722511648,-1.6912399176226023,-0.0510469391424202,1.1790968626113336,1.5703700878624292,0.7297224286533169,-0.41230887817593376,0.1471529961879032,0.004385974332503347
8.593485,0.4952361765679822,1.1155320676601315,-1.6912468418414361,-0.051045341245766984,1.179097794717715,1.5703700878624292,0.7297166869821732,-0.41231729815321805,0.14715728777527914,0.004385974332503347
8.640425,0.4952462632906109,1.1155270076540604,-1.6912484397380902,-0.05104800440685686,1.179097794717715,1.5703700878624292,0.729716217175065,-0.4123174882635825,0.14715770880505655,0.004385974332503347
8.725282,0.495240737231349,1.1155270076540604,-1.6912505702669627,-0.0510469391424202,1.179097794717715,1.5703700878624292,0.7297203285990103,-0.4123092490871225,0.14715783566205798,0.004385974332503347
8.813038,0.4952347784084099,1.1155256760735155,-1.6912532334280526,-0.051045873877985315,1.179097794717715,1.5703700878624292,0.7297187291038374,-0.4123105728330741,0.14715644429277605,0.004385974332503347
8.857311,0.4952412032845398,1.1155261421267062,-1.6912548313247067,-0.051045873877985315,1.179097794717715,1.5703700878624292,0.7297154031350868,-0.41231575010671584,0.14715593797208648,0.017543868719784382
8.945358,0.49524350026097996,1.1155261421267062,-1.6912558965891424,-0.0510469391424202,1.179097794717715,1.5703700878624292,0.7297183547140043,-0.4123095145535656,0.14715519325090787,0.13157895817792484
8.990424,0.49523431235521914,1.1155261421267062,-1.6912574944857965,-0.051045873877985315,1.179097794717715,1.5703700878624292,0.7297189743485321,-0.41230807372349887,0.1471549430337752,0.22368421173633482
9.077392,0.4952361765679822,1.1155266081798971,-1.6912574944857965,-0.051045873877985315,1.179097794717715,1.5703700878624292,0.7297155487850339,-0.41231364107771384,0.14715429637424357,0.3684210523806119
9.169355,0.49524902632024187,1.115527939760442,-1.6912670818657212,-0.0510639833733979,1.1790883404958454,1.5703710199688108,0.7297126593937705,-0.41231273574472616,0.147146798619385,0.5307017426711874
9.215495,0.4952347784084099,1.1155270076540604,-1.6912644187046304,-0.05103735176249735,1.1790931341858075,1.5703700878624292,0.7297192990190475,-0.412303814547043,0.1471544521090952,0.6008771794033531
9.301292,0.49523431235521914,1.115481134704284,-1.691261222911323,-0.051045341245766984,1.179122562115853,1.5703700878624292,0.7297506586958894,-0.412325684268263,0.14737660181339302,0.7017543673216552
9.389057,0.4952375414380409,1.1153148868732357,-1.6912420481514738,-0.051045873877985315,1.1791930027266855,1.5703700878624292,0.7297395503485907,-0.4123243354875189,0.14729579101803847,0.7719298422007926
9.437063,0.49523660933165936,1.1153938495995566,-1.6912819955678255,-0.051049069671292635,1.1789875398485858,1.5703700878624292,0.7297157304304956,-0.4123072453102141,0.14714998865048107,0.7719298422007926
9.533325,0.4952457972374201,1.1154673528456427,-1.6912830608322613,-0.05104800440685686,1.1790236256813564,1.5703700878624292,0.7297171915036893,-0.41231054835686526,0.14717331471182282,0.7719298422007926
9.621369,0.4952398384144811,1.1154696165325693,-1.6912835934644797,-0.051049069671292635,1.1790465288667311,1.5703710199688108,0.7297176246217892,-0.4123123740026946,0.14718448668953985,0.7719298422007926
9.712996,0.495240737231349,1.115468751005215,-1.6912787997745173,-0.0510469391424202,1.179076888903158,1.5703710199688108,0.7297170993033286,-0.41231213575908093,0.14718467157870632,0.7719298422007926
9.757078,0.49523800749123165,1.1154691504793786,-1.6912793324067348,-0.0510469391424202,1.179078753115921,1.5703710199688108,0.7297174836217212,-0.41231145558493687,0.1471846715737095,0.7719298422007926
9.848959,0.4952398384144811,1.1154710146921416,-1.6912793324067348,-0.0510469391424202,1.1790798183803572,1.5703710199688108,0.7297175197435379,-0.4123114750994974,0.14718414068693256,0.7719298422007926
9.936997,0.4952389063080995,1.1154710146921416,-1.6912787997745173,-0.0510469391424202,1.179078753115921,1.5703710199688108,0.7297174359316128,-0.41231188237832295,0.14718439109223613,0.7719298422007926
9.980997,0.4952389063080995,1.1154714807453323,-1.691278267142299,-0.0510469391424202,1.1790798183803572,1.5703710199688108,0.729717010301598,-0.4123120876972318,0.1471824939487825,0.7719298422007926
10.072995,0.4952389063080995,1.1154742104854496,-1.691278267142299,-0.0510469391424202,1.179078753115921,1.5703710199688108,0.7297170895885587,-0.41231168664628315,0.14718171284704434,0.7719298422007926
10.157004,0.4952389063080995,1.1154746765386405,-1.6912777345100816,-0.0510469391424202,1.179078753115921,1.5703710199688108,0.7297168074050246,-0.41231153423486244,0.14717976009946807,0.7719298422007926
10.204990,0.4952389063080995,1.1154770068045943,-1.691278267142299,-0.0510469391424202,1.1790778210095396,1.5703710199688108,0.729716886142936,-0.4123115691832574,0.14717927786443594,0.7719298422007926
10.300975,0.4952389063080995,1.115477472857785,-1.6912777345100816,-0.0510469391424202,1.1790778210095396,1.5703710199688108,0.7297166684549973,-0.4123114516068433,0.14717777145951896,0.7719298422007926
10.385066,0.4952389063080995,1.1154792704915208,-1.6912777345100816,-0.0510469391424202,1.1790778210095396,1.5703710199688108,0.7297166120169946,-0.41231142112385927,0.14717738091016858,0.7719298422007926
10.433008,0.4952389063080995,1.1154792704915208,-1.6912772018778632,-0.0510469391424202,1.1790778210095396,1.5703710199688108,0.7297168967318406,-0.4123111310324547,0.14717724056969056,0.7719298422007926
10.521031,0.49523844025490876,1.1154806686510932,-1.6912772018778632,-0.0510469391424202,1.1790778210095396,1.5703710199688108,0.7297165352577332,-0.4123113796697334,0.14717606892417023,0.7719298422007926
10.613367,0.4952389063080995,1.1154816007574746,-1.6912772018778632,-0.0510469391424202,1.1790778210095396,1.5703710199688108,0.7297166709779411,-0.4123110090996342,0.14717567837239207,0.7719298422007926
11.259077,0.49523844025490876,1.1154816007574746,-1.6912772018778632,-0.0510469391424202,1.1790778210095396,1.5703710199688108,0.7297164788190322,-0.4123113491863723,0.14717567837489043,0.7719298422007926
